;FLAVOR:Marlin
;TIME:2989
;Filament used: 5.29916m
;Layer height: 0.3
;Generated with Cura_SteamEngine 1.2.1
M190 S35
M104 S220
M109 S220
G28
G1 Z50.00 F400
G92 E0
G1 F200 E3
G92 E0
M132 X Y Z A
M907 X100 Y100 Z50 A100
;LAYER_COUNT:67
;LAYER:0
M107
G0 F3000 X1.133 Y16.626 Z0.3
;TYPE:SKIRT
G1 F1500 X-4.248 Y17.073 E0.26938
G1 X-9.591 Y17.822 E0.53855
G1 X-14.863 Y18.868 E0.8067
G1 X-17.451 Y19.495 E0.93955
G1 X-22.646 Y20.993 E1.20929
G1 X-27.745 Y22.781 E1.47887
G1 X-32.707 Y24.843 E1.74695
G1 X-37.563 Y27.192 E2.01607
G1 X-41.324 Y29.234 E2.22958
G1 X-41.886 Y29.494 E2.26047
G1 X-42.422 Y29.665 E2.28854
G1 X-42.765 Y29.753 E2.30621
G1 X-43.374 Y29.868 E2.33713
G1 X-43.992 Y29.904 E2.36801
G1 X-44.61 Y29.86 E2.39892
G1 X-45.217 Y29.736 E2.42983
G1 X-45.659 Y29.593 E2.45301
G1 X-46.237 Y29.374 E2.48385
G1 X-46.801 Y29.117 E2.51477
G1 X-47.506 Y28.656 E2.55679
G1 X-47.826 Y28.404 E2.57711
G1 X-48.287 Y27.99 E2.60803
G1 X-48.69 Y27.521 E2.63888
G1 X-49.03 Y27.003 E2.66979
G1 X-49.175 Y26.728 E2.6853
G1 X-49.273 Y26.526 E2.6965
G1 X-49.506 Y25.953 E2.72736
G1 X-49.664 Y25.354 E2.75827
G1 X-49.744 Y24.74 E2.78916
G1 X-49.753 Y24.348 E2.80872
G1 X-49.748 Y24.059 E2.82314
G1 X-49.698 Y23.442 E2.85403
G1 X-49.568 Y22.836 E2.88495
G1 X-49.361 Y22.252 E2.91586
G1 X-49.081 Y21.7 E2.94674
G1 X-48.877 Y21.383 E2.96555
G1 X-47.619 Y19.592 E3.07474
G1 X-47.494 Y19.423 E3.08523
G1 X-43.457 Y14.18 E3.41536
G1 X-43.413 Y14.122 E3.41899
G1 X-36.866 Y5.88 E3.94412
G1 X-36.786 Y5.783 E3.9504
G1 X-30.89 Y-1.254 E4.40842
G1 X-30.811 Y-1.346 E4.41447
G1 X-27.964 Y-4.574 E4.6292
G1 X-27.884 Y-4.663 E4.63517
G1 X-25.129 Y-7.634 E4.83731
G1 X-25.044 Y-7.723 E4.84345
G1 X-22.362 Y-10.47 E5.03499
G1 X-22.263 Y-10.568 E5.04194
G1 X-18.826 Y-13.89 E5.28042
G1 X-18.661 Y-14.042 E5.29161
G1 X-15.875 Y-16.494 E5.47677
G1 X-15.729 Y-16.617 E5.48629
G1 X-13.56 Y-18.378 E5.62568
G1 X-13.409 Y-18.496 E5.63524
G1 X-11.245 Y-20.114 E5.77004
G1 X-11.085 Y-20.229 E5.77987
G1 X-8.854 Y-21.758 E5.91481
G1 X-8.676 Y-21.874 E5.92541
G1 X-6.423 Y-23.276 E6.0578
G1 X-6.233 Y-23.389 E6.06883
G1 X-3.969 Y-24.657 E6.19829
G1 X-3.76 Y-24.767 E6.21007
G1 X-1.566 Y-25.858 E6.33232
G1 X-1.285 Y-25.987 E6.34774
G1 X1.971 Y-27.352 E6.52388
G1 X2.272 Y-27.466 E6.53994
G1 X4.246 Y-28.142 E6.64404
G1 X4.584 Y-28.244 E6.66165
G1 X7.603 Y-29.035 E6.81735
G1 X7.953 Y-29.113 E6.83524
G1 X9.951 Y-29.48 E6.93659
G1 X10.21 Y-29.52 E6.94967
G1 X12.159 Y-29.769 E7.04769
G1 X12.648 Y-29.807 E7.07216
G1 X16.282 Y-29.897 E7.25352
G1 X16.695 Y-29.889 E7.27413
G1 X19.333 Y-29.727 E7.40599
G1 X19.722 Y-29.687 E7.4255
G1 X21.87 Y-29.378 E7.53376
G1 X22.259 Y-29.306 E7.5535
G1 X24.691 Y-28.749 E7.67798
G1 X25.006 Y-28.665 E7.69424
G1 X27.067 Y-28.043 E7.80164
G1 X27.431 Y-27.917 E7.82086
G1 X29.503 Y-27.105 E7.93189
G1 X29.844 Y-26.956 E7.95045
G1 X31.482 Y-26.163 E8.04125
G1 X31.806 Y-25.991 E8.05955
G1 X33.652 Y-24.916 E8.16612
G1 X34.042 Y-24.663 E8.18932
G1 X36.02 Y-23.238 E8.31094
G1 X36.441 Y-22.896 E8.338
G1 X38.26 Y-21.244 E8.46059
G1 X38.577 Y-20.928 E8.48292
G1 X39.662 Y-19.74 E8.56319
G1 X39.905 Y-19.452 E8.58199
G1 X40.856 Y-18.231 E8.6592
G1 X41.075 Y-17.926 E8.67794
G1 X41.987 Y-16.544 E8.76055
G1 X42.175 Y-16.235 E8.77859
G1 X42.827 Y-15.064 E8.84546
G1 X43.032 Y-14.65 E8.86851
G1 X43.745 Y-13.017 E8.9574
G1 X43.878 Y-12.677 E8.97562
G1 X44.419 Y-11.126 E9.05757
G1 X44.55 Y-10.684 E9.08057
G1 X46.183 Y-3.997 E9.42399
G1 X47.717 Y1.202 E9.69442
G1 X49.513 Y6.336 E9.96578
G1 X49.679 Y6.932 E9.99665
G1 X49.767 Y7.545 E10.02754
G1 X49.776 Y8.165 E10.05848
G1 X49.705 Y8.78 E10.08936
G1 X49.555 Y9.381 E10.12027
G1 X49.329 Y9.956 E10.15109
G1 X49.212 Y10.206 E10.16486
G1 X48.914 Y10.748 E10.19572
G1 X48.549 Y11.248 E10.2266
G1 X48.122 Y11.697 E10.25752
G1 X47.641 Y12.087 E10.28841
G1 X47.113 Y12.412 E10.31934
G1 X46.43 Y12.709 E10.3565
G1 X41.339 Y14.464 E10.62516
G1 X38.851 Y15.434 E10.75839
G1 X34.051 Y17.474 E11.01859
G1 X33.525 Y17.662 E11.04646
G1 X32.343 Y18.009 E11.10792
G1 X31.869 Y18.122 E11.13223
G1 X30.735 Y18.333 E11.18977
G1 X30.262 Y18.397 E11.21359
G1 X28.974 Y18.506 E11.27807
G1 X28.455 Y18.522 E11.30398
G1 X26.559 Y18.477 E11.3986
G1 X25.961 Y18.425 E11.42855
G1 X17.236 Y17.117 E11.8687
G1 X11.883 Y16.65 E12.13678
G1 X6.49 Y16.486 E12.40596
G1 X1.133 Y16.626 E12.67331
G0 F3000 X1.107 Y16.226
G1 F1500 X-4.3 Y16.675 E12.944
G1 X-9.638 Y17.424 E13.21292
G1 X-14.961 Y18.48 E13.48366
G1 X-17.543 Y19.105 E13.6162
G1 X-22.779 Y20.615 E13.88807
G1 X-27.873 Y22.402 E14.15739
G1 X-32.877 Y24.481 E14.42773
G1 X-37.741 Y26.833 E14.69728
G1 X-41.515 Y28.883 E14.91155
G1 X-42.054 Y29.13 E14.94113
G1 X-42.522 Y29.278 E14.96562
G1 X-42.865 Y29.366 E14.98329
G1 X-43.448 Y29.474 E15.01287
G1 X-44.04 Y29.503 E15.04244
G1 X-44.631 Y29.452 E15.07203
G1 X-45.209 Y29.322 E15.10159
G1 X-45.517 Y29.219 E15.11779
G1 X-46.095 Y29 E15.14863
G1 X-46.634 Y28.753 E15.17821
G1 X-47.258 Y28.342 E15.21549
G1 X-47.578 Y28.09 E15.23581
G1 X-48.018 Y27.692 E15.26541
G1 X-48.401 Y27.239 E15.295
G1 X-48.815 Y26.554 E15.33493
G1 X-48.913 Y26.352 E15.34614
G1 X-49.135 Y25.802 E15.37573
G1 X-49.281 Y25.227 E15.40532
G1 X-49.353 Y24.355 E15.44898
G1 X-49.348 Y24.066 E15.4634
G1 X-49.298 Y23.475 E15.49299
G1 X-49.169 Y22.896 E15.52258
G1 X-48.963 Y22.34 E15.55216
G1 X-48.55 Y21.613 E15.59388
G1 X-47.292 Y19.822 E15.70307
G1 X-47.177 Y19.667 E15.7127
G1 X-43.14 Y14.424 E16.04283
G1 X-43.099 Y14.371 E16.04617
G1 X-36.552 Y6.129 E16.57131
G1 X-36.48 Y6.04 E16.57702
G1 X-30.584 Y-.997 E17.03504
G1 X-30.511 Y-1.081 E17.04059
G1 X-27.664 Y-4.309 E17.25532
G1 X-27.59 Y-4.391 E17.26084
G1 X-24.835 Y-7.362 E17.46298
G1 X-24.757 Y-7.444 E17.46863
G1 X-22.075 Y-10.191 E17.66016
G1 X-21.985 Y-10.281 E17.66651
G1 X-18.548 Y-13.603 E17.90499
G1 X-18.397 Y-13.742 E17.91523
G1 X-15.611 Y-16.194 E18.10039
G1 X-15.477 Y-16.307 E18.10913
G1 X-13.308 Y-18.068 E18.24852
G1 X-13.17 Y-18.176 E18.25726
G1 X-11.006 Y-19.794 E18.39206
G1 X-10.858 Y-19.899 E18.40112
G1 X-8.627 Y-21.428 E18.53605
G1 X-8.465 Y-21.535 E18.54574
G1 X-6.212 Y-22.937 E18.67813
G1 X-6.037 Y-23.04 E18.68826
G1 X-3.773 Y-24.308 E18.81772
G1 X-3.582 Y-24.409 E18.8285
G1 X-1.388 Y-25.5 E18.95074
G1 X-1.13 Y-25.618 E18.9649
G1 X2.126 Y-26.983 E19.14104
G1 X2.401 Y-27.088 E19.15572
G1 X4.375 Y-27.764 E19.25982
G1 X4.686 Y-27.857 E19.27602
G1 X7.705 Y-28.648 E19.43172
G1 X8.025 Y-28.72 E19.44808
G1 X10.023 Y-29.087 E19.54943
G1 X10.26 Y-29.124 E19.5614
G1 X12.209 Y-29.373 E19.65943
G1 X12.658 Y-29.407 E19.68189
G1 X16.292 Y-29.497 E19.86325
G1 X16.671 Y-29.49 E19.88216
G1 X19.309 Y-29.328 E20.01402
G1 X19.666 Y-29.291 E20.03192
G1 X21.814 Y-28.982 E20.14019
G1 X22.169 Y-28.916 E20.1582
G1 X24.601 Y-28.359 E20.28268
G1 X24.89 Y-28.282 E20.2976
G1 X26.951 Y-27.66 E20.405
G1 X27.285 Y-27.545 E20.42263
G1 X29.357 Y-26.733 E20.53366
G1 X29.669 Y-26.596 E20.55066
G1 X31.307 Y-25.803 E20.64145
G1 X31.604 Y-25.645 E20.65823
G1 X33.45 Y-24.57 E20.76481
G1 X33.808 Y-24.338 E20.78609
G1 X35.786 Y-22.913 E20.90772
G1 X36.172 Y-22.6 E20.93251
G1 X37.991 Y-20.948 E21.0551
G1 X38.282 Y-20.658 E21.0756
G1 X39.367 Y-19.47 E21.15586
G1 X39.589 Y-19.207 E21.17304
G1 X40.54 Y-17.986 E21.25025
G1 X40.741 Y-17.705 E21.26748
G1 X41.653 Y-16.323 E21.35009
G1 X41.825 Y-16.04 E21.36661
G1 X42.477 Y-14.869 E21.43348
G1 X42.665 Y-14.49 E21.45459
G1 X43.378 Y-12.857 E21.54349
G1 X43.501 Y-12.545 E21.56022
G1 X44.042 Y-10.994 E21.64217
G1 X44.161 Y-10.589 E21.66323
G1 X45.796 Y-3.896 E22.00696
G1 X47.336 Y1.327 E22.27863
G1 X49.135 Y6.468 E22.55037
G1 X49.293 Y7.039 E22.57992
G1 X49.372 Y7.627 E22.60952
G1 X49.372 Y8.22 E22.63911
G1 X49.292 Y8.807 E22.66866
G1 X49.133 Y9.379 E22.69828
G1 X48.967 Y9.786 E22.72021
G1 X48.85 Y10.036 E22.73398
G1 X48.563 Y10.555 E22.76357
G1 X48.209 Y11.031 E22.79317
G1 X47.794 Y11.454 E22.82273
G1 X47.326 Y11.818 E22.85231
G1 X46.813 Y12.116 E22.88191
G1 X46.299 Y12.331 E22.90971
G1 X41.189 Y14.093 E23.17937
G1 X38.686 Y15.068 E23.31339
G1 X33.894 Y17.105 E23.57317
G1 X33.412 Y17.278 E23.59872
G1 X32.23 Y17.625 E23.66017
G1 X31.796 Y17.729 E23.68244
G1 X30.662 Y17.94 E23.73999
G1 X30.228 Y17.998 E23.76183
G1 X28.94 Y18.107 E23.82632
G1 X28.465 Y18.122 E23.85003
G1 X26.569 Y18.077 E23.94465
G1 X26.021 Y18.029 E23.97209
G1 X17.284 Y16.719 E24.41286
G1 X11.912 Y16.25 E24.68189
G1 X6.491 Y16.086 E24.95246
G1 X1.107 Y16.226 E25.22116
G0 F3000 X1.063 Y15.828
G1 F1500 X-4.337 Y16.277 E25.4915
G1 X-9.701 Y17.029 E25.76173
G1 X-15.064 Y18.093 E26.0345
G1 X-17.651 Y18.72 E26.16731
G1 X-22.88 Y20.227 E26.4388
G1 X-28.023 Y22.031 E26.71071
G1 X-33.041 Y24.117 E26.98183
G1 X-37.936 Y26.483 E27.25308
G1 X-41.706 Y28.531 E27.46712
G1 X-42.221 Y28.765 E27.49534
G1 X-42.621 Y28.891 E27.51627
G1 X-42.964 Y28.979 E27.53393
G1 X-43.52 Y29.08 E27.56213
G1 X-44.085 Y29.102 E27.59034
G1 X-44.647 Y29.044 E27.61852
G1 X-45.375 Y28.845 E27.65618
G1 X-45.953 Y28.626 E27.68701
G1 X-46.466 Y28.388 E27.71523
G1 X-47.011 Y28.028 E27.74781
G1 X-47.331 Y27.776 E27.76813
G1 X-47.749 Y27.395 E27.79635
G1 X-48.11 Y26.96 E27.82455
G1 X-48.455 Y26.379 E27.85826
G1 X-48.553 Y26.177 E27.86947
G1 X-48.763 Y25.652 E27.89768
G1 X-48.897 Y25.103 E27.92587
G1 X-48.953 Y24.362 E27.96294
G1 X-48.948 Y24.073 E27.97736
G1 X-48.899 Y23.51 E28.00556
G1 X-48.77 Y22.959 E28.03379
G1 X-48.565 Y22.432 E28.062
G1 X-48.222 Y21.843 E28.09601
G1 X-46.964 Y20.052 E28.2052
G1 X-46.86 Y19.911 E28.21394
G1 X-42.823 Y14.668 E28.54407
G1 X-42.786 Y14.62 E28.54709
G1 X-36.239 Y6.378 E29.07223
G1 X-36.173 Y6.297 E29.07745
G1 X-30.277 Y-.74 E29.53546
G1 X-30.211 Y-.817 E29.54052
G1 X-27.364 Y-4.045 E29.75526
G1 X-27.297 Y-4.119 E29.76024
G1 X-24.542 Y-7.09 E29.96238
G1 X-24.471 Y-7.164 E29.9675
G1 X-21.789 Y-9.911 E30.15903
G1 X-21.707 Y-9.993 E30.16482
G1 X-18.27 Y-13.315 E30.4033
G1 X-18.133 Y-13.442 E30.41262
G1 X-15.347 Y-15.894 E30.59778
G1 X-15.225 Y-15.996 E30.60571
G1 X-13.056 Y-17.757 E30.7451
G1 X-12.93 Y-17.856 E30.75309
G1 X-10.766 Y-19.474 E30.88789
G1 X-10.632 Y-19.569 E30.89609
G1 X-8.401 Y-21.098 E31.03102
G1 X-8.253 Y-21.195 E31.03985
G1 X-6 Y-22.597 E31.17224
G1 X-5.842 Y-22.691 E31.18141
G1 X-3.578 Y-23.959 E31.31087
G1 X-3.404 Y-24.051 E31.32069
G1 X-1.21 Y-25.142 E31.44294
G1 X-.976 Y-25.249 E31.45578
G1 X2.28 Y-26.614 E31.63192
G1 X2.531 Y-26.709 E31.6453
G1 X4.505 Y-27.385 E31.7494
G1 X4.787 Y-27.47 E31.7641
G1 X7.806 Y-28.261 E31.9198
G1 X8.097 Y-28.326 E31.93468
G1 X10.095 Y-28.693 E32.03602
G1 X10.311 Y-28.727 E32.04693
G1 X12.26 Y-28.976 E32.14496
G1 X12.668 Y-29.007 E32.16537
G1 X16.302 Y-29.097 E32.34673
G1 X16.646 Y-29.09 E32.3639
G1 X19.284 Y-28.928 E32.49575
G1 X19.609 Y-28.895 E32.51205
G1 X21.757 Y-28.586 E32.62032
G1 X22.08 Y-28.526 E32.63671
G1 X24.512 Y-27.969 E32.76118
G1 X24.775 Y-27.899 E32.77476
G1 X26.836 Y-27.277 E32.88217
G1 X27.139 Y-27.172 E32.89816
G1 X29.211 Y-26.36 E33.00919
G1 X29.495 Y-26.236 E33.02465
G1 X31.133 Y-25.443 E33.11544
G1 X31.403 Y-25.3 E33.13069
G1 X33.249 Y-24.225 E33.23726
G1 X33.574 Y-24.013 E33.25662
G1 X35.552 Y-22.588 E33.37825
G1 X35.903 Y-22.304 E33.40077
G1 X37.722 Y-20.652 E33.52336
G1 X37.987 Y-20.388 E33.54203
G1 X39.072 Y-19.2 E33.62229
G1 X39.274 Y-18.961 E33.63791
G1 X40.225 Y-17.74 E33.71512
G1 X40.408 Y-17.485 E33.73078
G1 X41.32 Y-16.103 E33.81339
G1 X41.476 Y-15.846 E33.82838
G1 X42.128 Y-14.675 E33.89525
G1 X42.299 Y-14.33 E33.91446
G1 X43.012 Y-12.697 E34.00336
G1 X43.123 Y-12.413 E34.01857
G1 X43.664 Y-10.862 E34.10052
G1 X43.773 Y-10.494 E34.11967
G1 X45.409 Y-3.795 E34.46371
G1 X46.956 Y1.452 E34.73662
G1 X48.758 Y6.6 E35.00874
G1 X48.906 Y7.145 E35.03691
G1 X48.976 Y7.706 E35.06512
G1 X48.967 Y8.272 E35.09336
G1 X48.877 Y8.83 E35.12156
G1 X48.605 Y9.617 E35.1631
G1 X48.488 Y9.867 E35.17687
G1 X48.213 Y10.36 E35.20504
G1 X47.871 Y10.81 E35.23323
G1 X47.468 Y11.208 E35.26149
G1 X47.014 Y11.544 E35.28967
G1 X46.517 Y11.814 E35.31789
G1 X46.169 Y11.952 E35.33657
G1 X41.063 Y13.713 E35.60603
G1 X38.55 Y14.692 E35.74058
G1 X33.738 Y16.737 E36.00143
G1 X33.3 Y16.894 E36.02465
G1 X32.118 Y17.241 E36.08611
G1 X31.723 Y17.336 E36.10637
G1 X30.589 Y17.547 E36.16392
G1 X30.194 Y17.6 E36.1838
G1 X28.906 Y17.709 E36.24829
G1 X28.474 Y17.722 E36.26985
G1 X26.578 Y17.677 E36.36447
G1 X26.08 Y17.634 E36.38941
G1 X17.329 Y16.322 E36.83088
G1 X11.924 Y15.85 E37.10156
G1 X6.511 Y15.686 E37.37174
G1 X1.063 Y15.828 E37.64364
G0 F3000 X1.055 Y15.428
G1 F1500 X-4.389 Y15.88 E37.91617
G1 X-9.782 Y16.636 E38.18786
G1 X-15.117 Y17.695 E38.45922
G1 X-17.765 Y18.336 E38.59514
G1 X-23.018 Y19.851 E38.8679
G1 X-28.161 Y21.655 E39.13981
G1 X-33.196 Y23.747 E39.41183
G1 X-38.114 Y26.125 E39.68437
G1 X-41.897 Y28.18 E39.89915
G1 X-42.386 Y28.4 E39.9259
G1 X-42.72 Y28.503 E39.94334
G1 X-43.063 Y28.591 E39.961
G1 X-43.591 Y28.685 E39.98776
G1 X-44.127 Y28.7 E40.01451
G1 X-44.66 Y28.635 E40.0413
G1 X-45.234 Y28.47 E40.0711
G1 X-45.812 Y28.251 E40.10193
G1 X-46.297 Y28.025 E40.12863
G1 X-46.763 Y27.713 E40.15661
G1 X-47.083 Y27.461 E40.17693
G1 X-47.479 Y27.099 E40.2037
G1 X-47.816 Y26.682 E40.23045
G1 X-48.095 Y26.204 E40.25806
G1 X-48.193 Y26.002 E40.26926
G1 X-48.39 Y25.504 E40.29598
G1 X-48.512 Y24.981 E40.32277
G1 X-48.553 Y24.369 E40.35337
G1 X-48.548 Y24.08 E40.36779
G1 X-48.499 Y23.546 E40.39455
G1 X-48.371 Y23.025 E40.42131
G1 X-48.167 Y22.529 E40.44807
G1 X-47.895 Y22.073 E40.47456
G1 X-46.637 Y20.282 E40.58375
G1 X-46.543 Y20.155 E40.59163
G1 X-42.506 Y14.912 E40.92176
G1 X-42.473 Y14.869 E40.92447
G1 X-35.926 Y6.627 E41.44961
G1 X-35.866 Y6.554 E41.45432
G1 X-29.97 Y-.483 E41.91234
G1 X-29.911 Y-.552 E41.91687
G1 X-27.064 Y-3.78 E42.1316
G1 X-27.004 Y-3.847 E42.13609
G1 X-24.249 Y-6.818 E42.33823
G1 X-24.185 Y-6.885 E42.34285
G1 X-21.503 Y-9.632 E42.53439
G1 X-21.429 Y-9.706 E42.53961
G1 X-17.992 Y-13.028 E42.77809
G1 X-17.868 Y-13.141 E42.78646
G1 X-15.082 Y-15.593 E42.97162
G1 X-14.973 Y-15.686 E42.97877
G1 X-12.804 Y-17.447 E43.11815
G1 X-12.691 Y-17.535 E43.1253
G1 X-10.527 Y-19.153 E43.2601
G1 X-10.406 Y-19.24 E43.26754
G1 X-8.175 Y-20.769 E43.40247
G1 X-8.042 Y-20.856 E43.4104
G1 X-5.789 Y-22.258 E43.54279
G1 X-5.646 Y-22.342 E43.55106
G1 X-3.382 Y-23.61 E43.68053
G1 X-3.226 Y-23.692 E43.68932
G1 X-1.032 Y-24.783 E43.81156
G1 X-.821 Y-24.88 E43.82315
G1 X2.435 Y-26.245 E43.99929
G1 X2.661 Y-26.331 E44.01135
G1 X4.635 Y-27.007 E44.11545
G1 X4.889 Y-27.083 E44.12868
G1 X7.908 Y-27.874 E44.28438
G1 X8.17 Y-27.933 E44.29778
G1 X10.168 Y-28.3 E44.39913
G1 X10.362 Y-28.33 E44.40892
G1 X12.311 Y-28.579 E44.50695
G1 X12.678 Y-28.607 E44.52531
G1 X16.312 Y-28.697 E44.70667
G1 X16.622 Y-28.691 E44.72214
G1 X19.26 Y-28.529 E44.85399
G1 X19.552 Y-28.499 E44.86864
G1 X21.7 Y-28.19 E44.97691
G1 X21.991 Y-28.136 E44.99167
G1 X24.423 Y-27.579 E45.11615
G1 X24.659 Y-27.516 E45.12833
G1 X26.72 Y-26.894 E45.23574
G1 X26.994 Y-26.8 E45.25019
G1 X29.066 Y-25.988 E45.36122
G1 X29.321 Y-25.876 E45.37511
G1 X30.959 Y-25.083 E45.4659
G1 X31.202 Y-24.954 E45.47963
G1 X33.048 Y-23.879 E45.58621
G1 X33.34 Y-23.689 E45.60359
G1 X35.318 Y-22.264 E45.72521
G1 X35.634 Y-22.008 E45.7455
G1 X37.453 Y-20.356 E45.86809
G1 X37.691 Y-20.119 E45.88485
G1 X38.776 Y-18.931 E45.96512
G1 X38.958 Y-18.715 E45.97921
G1 X39.909 Y-17.494 E46.05642
G1 X40.074 Y-17.265 E46.0705
G1 X40.986 Y-15.883 E46.15311
G1 X41.126 Y-15.651 E46.16663
G1 X41.778 Y-14.48 E46.2335
G1 X41.932 Y-14.17 E46.25076
G1 X42.645 Y-12.537 E46.33966
G1 X42.745 Y-12.282 E46.35333
G1 X43.286 Y-10.731 E46.43528
G1 X43.384 Y-10.399 E46.45255
G1 X45.023 Y-3.688 E46.7972
G1 X46.574 Y1.571 E47.07075
G1 X48.38 Y6.732 E47.34354
G1 X48.519 Y7.25 E47.3703
G1 X48.579 Y7.783 E47.39706
G1 X48.56 Y8.319 E47.42382
G1 X48.461 Y8.846 E47.45057
G1 X48.243 Y9.447 E47.48246
G1 X48.126 Y9.697 E47.49624
G1 X47.863 Y10.164 E47.52297
G1 X47.533 Y10.588 E47.54978
G1 X47.145 Y10.957 E47.57649
G1 X46.706 Y11.265 E47.60325
G1 X46.039 Y11.574 E47.63992
G1 X40.914 Y13.341 E47.91038
G1 X38.402 Y14.32 E48.04489
G1 X33.581 Y16.369 E48.30623
G1 X33.187 Y16.51 E48.32711
G1 X32.005 Y16.857 E48.38856
G1 X31.65 Y16.942 E48.40678
