(1001)
(T1  D=3.175 CR=0. - ZMIN=13.111 - FLAT END MILL)
G0 G90 G94 G17
G21
G53 Z0.

(ADAPTIVE2)
M5
M9
T1
S16500 M3
G55
M9
G0 X28.208 Y26.048
Z53.009
Z43.009
Z40.509
G3 X25.642 Y27.634 Z40.344 I-1.283 J0.793 F1016.
X28.208 Y26.048 Z40.178 I1.283 J-0.793
X25.642 Y27.634 Z40.013 I-1.283 J0.793
X28.208 Y26.048 Z39.847 I1.283 J-0.793
X25.642 Y27.634 Z39.682 I-1.283 J0.793
X28.208 Y26.048 Z39.516 I1.283 J-0.793
X25.642 Y27.634 Z39.351 I-1.283 J0.793
X28.208 Y26.048 Z39.185 I1.283 J-0.793
X25.642 Y27.634 Z39.02 I-1.283 J0.793
X28.208 Y26.048 Z38.855 I1.283 J-0.793
X25.642 Y27.634 Z38.689 I-1.283 J0.793
X28.208 Y26.048 Z38.524 I1.283 J-0.793
X25.642 Y27.634 Z38.358 I-1.283 J0.793
X28.208 Y26.048 Z38.193 I1.283 J-0.793
X25.642 Y27.634 Z38.027 I-1.283 J0.793
X28.208 Y26.048 Z37.862 I1.283 J-0.793
X25.642 Y27.634 Z37.696 I-1.283 J0.793
X28.208 Y26.048 Z37.531 I1.283 J-0.793
X25.642 Y27.634 Z37.366 I-1.283 J0.793
X28.208 Y26.048 Z37.2 I1.283 J-0.793
X25.642 Y27.634 Z37.035 I-1.283 J0.793
X28.208 Y26.048 Z36.869 I1.283 J-0.793
X25.642 Y27.634 Z36.704 I-1.283 J0.793
X28.208 Y26.048 Z36.538 I1.283 J-0.793
X28.433 Y26.841 Z36.509 I-1.283 J0.793
X25.417 I-1.508 J0.
X28.433 I1.508 J0.
G1 X28.452 Y27.579
X28.474 Y27.668
X28.49 Y27.818
X28.477 Y27.967
X28.441 Y28.113
X28.387 Y28.252
X28.315 Y28.384
X28.229 Y28.507
X28.131 Y28.621
X28.022 Y28.724
X27.905 Y28.817
X27.779 Y28.899
X27.647 Y28.97
X27.508 Y29.03
X27.362 Y29.081
X27.208 Y29.12
X27.048 Y29.148
X26.883 Y29.162
X26.714 Y29.164
X26.543 Y29.152
X26.371 Y29.126
X26.2 Y29.085
X26.03 Y29.031
X25.864 Y28.962
X25.702 Y28.879
X25.547 Y28.783
X25.398 Y28.674
X25.258 Y28.552
X25.127 Y28.419
X25.007 Y28.276
X24.898 Y28.122
X24.802 Y27.96
X24.718 Y27.789
X24.649 Y27.612
X24.593 Y27.43
X24.553 Y27.243
X24.527 Y27.054
X24.517 Y26.862
X24.522 Y26.67
X24.542 Y26.479
X24.578 Y26.29
X24.629 Y26.104
X24.695 Y25.923
X24.775 Y25.747
X24.869 Y25.579
X24.977 Y25.418
X25.097 Y25.267
X25.228 Y25.125
X25.371 Y24.994
X25.524 Y24.876
X25.686 Y24.77
X25.856 Y24.677
X26.033 Y24.598
X26.215 Y24.534
X26.403 Y24.484
X26.593 Y24.45
X26.786 Y24.431
X26.98 Y24.427
X27.174 Y24.439
X27.366 Y24.467
X27.555 Y24.51
X27.74 Y24.568
X27.919 Y24.641
X28.093 Y24.728
X28.259 Y24.828
X28.416 Y24.942
X28.563 Y25.067
X28.701 Y25.204
X28.826 Y25.352
X28.94 Y25.51
X29.044 Y25.682
X29.155 Y25.905
X29.302 Y26.269
X29.409 Y26.612
X29.473 Y26.895
X29.51 Y27.15
X29.525 Y27.388
X29.52 Y27.611
X29.499 Y27.824
X29.462 Y28.031
X29.408 Y28.233
X29.338 Y28.43
X29.253 Y28.621
X29.153 Y28.804
X29.038 Y28.979
X28.909 Y29.145
X28.765 Y29.302
X28.607 Y29.449
X28.435 Y29.585
X28.251 Y29.708
X28.054 Y29.817
X27.846 Y29.912
X27.628 Y29.991
X27.402 Y30.053
X27.168 Y30.097
X26.928 Y30.122
X26.684 Y30.129
X26.438 Y30.115
X26.191 Y30.082
X25.945 Y30.028
X25.702 Y29.954
X25.465 Y29.86
X25.233 Y29.747
X25.011 Y29.615
X24.798 Y29.464
X24.597 Y29.295
X24.409 Y29.11
X24.236 Y28.91
X24.079 Y28.696
X23.939 Y28.468
X23.817 Y28.23
X23.715 Y27.981
X23.632 Y27.725
X23.57 Y27.462
X23.53 Y27.194
X23.511 Y26.923
X23.513 Y26.651
X23.538 Y26.38
X23.584 Y26.111
X23.652 Y25.847
X23.741 Y25.589
X23.851 Y25.338
X23.98 Y25.097
X24.129 Y24.867
X24.295 Y24.649
X24.479 Y24.445
X24.678 Y24.257
X24.892 Y24.085
X25.119 Y23.93
X25.358 Y23.795
X25.607 Y23.679
X25.865 Y23.583
X26.129 Y23.509
X26.399 Y23.455
X26.672 Y23.424
X26.947 Y23.415
X27.222 Y23.427
X27.495 Y23.462
X27.764 Y23.519
X28.028 Y23.597
X28.285 Y23.696
X28.533 Y23.815
X28.77 Y23.953
X28.996 Y24.111
X29.21 Y24.287
X29.416 Y24.487
X29.63 Y24.73
X29.832 Y25.001
X30.019 Y25.298
X30.183 Y25.614
X30.321 Y25.939
X30.429 Y26.266
X30.507 Y26.59
X30.559 Y26.909
X30.584 Y27.226
X30.583 Y27.538
X30.558 Y27.846
X30.508 Y28.147
X30.435 Y28.441
X30.339 Y28.727
X30.222 Y29.003
X30.082 Y29.268
X29.921 Y29.522
X29.74 Y29.763
X29.54 Y29.989
X29.32 Y30.2
X29.083 Y30.394
X28.829 Y30.57
X28.559 Y30.725
X28.276 Y30.86
X27.979 Y30.973
X27.673 Y31.062
X27.357 Y31.127
X27.034 Y31.167
X26.707 Y31.181
X26.377 Y31.168
X26.048 Y31.129
X25.72 Y31.063
X25.396 Y30.97
X25.079 Y30.851
X24.77 Y30.706
X24.473 Y30.536
X24.189 Y30.341
X23.92 Y30.123
X23.668 Y29.884
X23.436 Y29.623
X23.224 Y29.344
X23.034 Y29.048
X22.869 Y28.736
X22.729 Y28.411
X22.614 Y28.075
X22.527 Y27.73
X22.468 Y27.379
X22.437 Y27.023
X22.435 Y26.666
X22.462 Y26.308
X22.517 Y25.954
X22.6 Y25.605
X22.712 Y25.263
X22.85 Y24.931
X23.015 Y24.611
X23.205 Y24.305
X23.42 Y24.015
X23.657 Y23.744
X23.915 Y23.491
X24.192 Y23.261
X24.488 Y23.053
X24.799 Y22.87
X25.124 Y22.712
X25.461 Y22.58
X25.807 Y22.477
X26.16 Y22.401
X26.519 Y22.354
X26.88 Y22.335
X27.242 Y22.346
X27.601 Y22.386
X27.957 Y22.454
X28.305 Y22.551
X28.645 Y22.676
X28.974 Y22.827
X29.292 Y23.006
X29.604 Y23.216
X29.908 Y23.458
X30.2 Y23.732
X30.477 Y24.036
X30.732 Y24.367
X30.962 Y24.721
X31.164 Y25.092
X31.333 Y25.476
X31.471 Y25.87
X31.575 Y26.269
X31.646 Y26.673
X31.685 Y27.076
X31.691 Y27.479
X31.664 Y27.877
X31.606 Y28.269
X31.518 Y28.654
X31.399 Y29.028
X31.251 Y29.391
X31.074 Y29.741
X30.87 Y30.076
X30.64 Y30.393
X30.383 Y30.692
X30.103 Y30.97
X29.8 Y31.226
X29.476 Y31.459
X29.132 Y31.665
X28.771 Y31.844
X28.394 Y31.995
X28.004 Y32.115
X27.603 Y32.205
X27.193 Y32.262
X26.778 Y32.286
X26.36 Y32.277
X25.942 Y32.235
X25.526 Y32.158
X25.115 Y32.048
X24.713 Y31.904
X24.322 Y31.728
X23.944 Y31.52
X23.583 Y31.281
X23.241 Y31.013
X22.92 Y30.717
X22.622 Y30.395
X22.351 Y30.049
X22.108 Y29.682
X21.894 Y29.295
X21.712 Y28.892
X21.562 Y28.474
X21.446 Y28.044
X21.365 Y27.606
X21.319 Y27.162
X21.309 Y26.714
X21.335 Y26.267
X21.396 Y25.823
X21.493 Y25.385
X21.626 Y24.955
X21.792 Y24.538
X21.992 Y24.134
X22.223 Y23.748
X22.485 Y23.381
X22.776 Y23.036
X23.093 Y22.716
X23.436 Y22.422
X23.8 Y22.156
X24.186 Y21.92
X24.589 Y21.716
X25.007 Y21.545
X25.438 Y21.408
X25.878 Y21.306
X26.325 Y21.24
X26.776 Y21.209
X27.229 Y21.216
X27.679 Y21.258
X28.124 Y21.336
X28.563 Y21.45
X28.993 Y21.6
X29.413 Y21.785
X29.823 Y22.006
X30.218 Y22.263
X30.599 Y22.557
X30.962 Y22.886
X31.303 Y23.248
X31.617 Y23.641
X31.899 Y24.06
X32.148 Y24.502
X32.36 Y24.961
X32.534 Y25.435
X32.669 Y25.919
X32.764 Y26.409
X32.819 Y26.903
X32.835 Y27.397
X32.81 Y27.889
X32.747 Y28.374
X32.645 Y28.851
X32.506 Y29.317
X32.33 Y29.769
X32.119 Y30.206
X31.873 Y30.624
X31.594 Y31.021
X31.284 Y31.396
X30.943 Y31.745
X30.575 Y32.067
X30.18 Y32.359
X29.762 Y32.62
X29.322 Y32.847
X28.863 Y33.039
X28.388 Y33.194
X27.899 Y33.312
X27.401 Y33.39
X26.895 Y33.428
X26.385 Y33.425
X25.875 Y33.382
X25.368 Y33.297
X24.867 Y33.171
X24.376 Y33.005
X23.898 Y32.799
X23.436 Y32.554
X22.993 Y32.272
X22.574 Y31.954
X22.179 Y31.602
X21.814 Y31.219
X21.479 Y30.807
X21.177 Y30.368
X20.912 Y29.905
X20.683 Y29.421
X20.494 Y28.919
X20.346 Y28.403
X20.239 Y27.876
X20.175 Y27.341
X20.154 Y26.802
X20.176 Y26.262
X20.242 Y25.725
X20.35 Y25.195
X20.501 Y24.675
X20.693 Y24.168
X20.926 Y23.677
X21.197 Y23.207
X21.506 Y22.76
X21.849 Y22.339
X22.225 Y21.946
X22.632 Y21.585
X23.067 Y21.257
X23.526 Y20.966
X24.008 Y20.712
X24.509 Y20.497
X25.025 Y20.324
X25.553 Y20.192
X26.091 Y20.103
X26.634 Y20.058
X27.179 Y20.056
X27.723 Y20.098
X28.262 Y20.184
X28.795 Y20.313
X29.319 Y20.486
X29.831 Y20.702
X30.329 Y20.96
X30.81 Y21.262
X31.272 Y21.605
X31.71 Y21.989
X32.119 Y22.41
X32.495 Y22.867
X32.835 Y23.354
X33.136 Y23.868
X33.395 Y24.405
X33.609 Y24.96
X33.778 Y25.529
X33.901 Y26.108
X33.976 Y26.694
X34.003 Y27.281
X33.984 Y27.866
X33.918 Y28.447
X33.806 Y29.018
X33.649 Y29.578
X33.447 Y30.122
X33.203 Y30.649
X32.917 Y31.153
X32.592 Y31.634
X32.228 Y32.087
X31.829 Y32.511
X31.396 Y32.902
X30.931 Y33.258
X30.438 Y33.577
X29.919 Y33.856
X29.377 Y34.093
X28.816 Y34.287
X28.239 Y34.436
X27.649 Y34.538
X27.051 Y34.593
X26.448 Y34.6
X25.844 Y34.558
X25.242 Y34.468
X24.648 Y34.329
X24.065 Y34.142
X23.497 Y33.908
X22.948 Y33.629
X22.421 Y33.305
X21.92 Y32.939
X21.449 Y32.532
X21.011 Y32.088
X20.609 Y31.61
X20.246 Y31.099
X19.925 Y30.56
X19.647 Y29.995
X19.415 Y29.409
X19.231 Y28.805
X19.095 Y28.188
X19.009 Y27.561
X18.974 Y26.928
X18.99 Y26.293
X19.056 Y25.661
X19.173 Y25.037
X19.341 Y24.422
X19.557 Y23.823
X19.82 Y23.243
X20.13 Y22.686
X20.483 Y22.155
X20.878 Y21.653
X21.313 Y21.185
X21.783 Y20.753
X22.287 Y20.36
X22.821 Y20.009
X23.382 Y19.702
X23.965 Y19.44
X24.568 Y19.226
X25.186 Y19.061
X25.816 Y18.947
X26.453 Y18.883
X27.093 Y18.871
X27.733 Y18.909
X28.369 Y19.
X28.999 Y19.142
X29.618 Y19.335
X30.225 Y19.578
X30.814 Y19.872
X31.383 Y20.215
X31.926 Y20.606
X32.441 Y21.043
X32.922 Y21.523
X33.366 Y22.042
X33.768 Y22.598
X34.125 Y23.187
X34.435 Y23.803
X34.694 Y24.441
X34.9 Y25.098
X35.053 Y25.768
X35.152 Y26.446
X35.195 Y27.129
X35.184 Y27.81
X35.118 Y28.488
X34.998 Y29.156
X34.826 Y29.812
X34.601 Y30.45
X34.326 Y31.069
X34.003 Y31.663
X33.632 Y32.23
X33.217 Y32.766
X32.76 Y33.267
X32.263 Y33.731
X31.729 Y34.154
X31.161 Y34.534
X30.563 Y34.869
X29.938 Y35.155
X29.291 Y35.391
X28.624 Y35.574
X27.942 Y35.704
X27.25 Y35.779
X26.552 Y35.799
X25.852 Y35.762
X25.155 Y35.669
X24.465 Y35.519
X23.788 Y35.314
X23.127 Y35.055
X22.487 Y34.743
X21.873 Y34.379
X21.288 Y33.966
X20.737 Y33.506
X20.224 Y33.002
X19.751 Y32.458
X19.323 Y31.876
X18.942 Y31.26
X18.611 Y30.615
X18.333 Y29.944
X18.109 Y29.252
X17.941 Y28.544
X17.83 Y27.823
X17.778 Y27.095
X17.784 Y26.364
X17.848 Y25.635
X17.972 Y24.914
X18.152 Y24.204
X18.39 Y23.51
X18.682 Y22.837
X19.028 Y22.19
X19.425 Y21.572
X19.87 Y20.988
X20.361 Y20.441
X20.894 Y19.935
X21.466 Y19.473
X22.074 Y19.059
X22.713 Y18.695
X23.38 Y18.383
X24.069 Y18.125
X24.777 Y17.924
X25.499 Y17.78
X26.231 Y17.695
X26.967 Y17.668
X27.704 Y17.701
X28.436 Y17.793
X29.159 Y17.943
X29.867 Y18.15
X30.556 Y18.413
X31.223 Y18.729
X31.863 Y19.097
X32.472 Y19.513
X33.047 Y19.975
X33.585 Y20.48
X34.083 Y21.024
X34.539 Y21.604
X34.949 Y22.218
X35.312 Y22.86
X35.626 Y23.528
X35.889 Y24.217
X36.099 Y24.925
X36.255 Y25.646
X36.356 Y26.376
X36.401 Y27.113
X36.39 Y27.851
X36.322 Y28.585
X36.197 Y29.313
X36.018 Y30.028
X35.784 Y30.728
X35.497 Y31.408
X35.159 Y32.064
X34.773 Y32.692
X34.339 Y33.289
X33.861 Y33.851
X33.341 Y34.375
X32.784 Y34.858
X32.191 Y35.297
X31.566 Y35.69
X30.914 Y36.035
X30.238 Y36.33
X29.541 Y36.573
X28.829 Y36.764
X28.103 Y36.9
X27.37 Y36.981
X26.633 Y37.005
X25.895 Y36.975
X25.163 Y36.89
X24.438 Y36.751
X23.726 Y36.559
X23.029 Y36.316
X22.352 Y36.022
X21.698 Y35.68
X21.071 Y35.292
X20.473 Y34.86
X19.908 Y34.385
X19.381 Y33.869
X18.893 Y33.315
X18.447 Y32.728
X18.044 Y32.11
X17.686 Y31.464
X17.375 Y30.795
X17.113 Y30.106
X16.9 Y29.399
X16.738 Y28.68
X16.628 Y27.95
X16.573 Y27.214
X16.572 Y26.476
X16.623 Y25.74
X16.726 Y25.01
X16.881 Y24.288
X17.086 Y23.58
X17.34 Y22.887
X17.643 Y22.214
X17.993 Y21.565
X18.39 Y20.943
X18.832 Y20.352
X19.314 Y19.793
X19.834 Y19.27
X20.39 Y18.785
X20.979 Y18.34
X21.597 Y17.937
X22.242 Y17.579
X22.911 Y17.268
X23.601 Y17.008
X24.309 Y16.798
X25.029 Y16.638
X25.759 Y16.53
X26.494 Y16.473
X27.232 Y16.468
X27.969 Y16.514
X28.7 Y16.611
X29.422 Y16.762
X30.131 Y16.965
X30.825 Y17.218
X31.499 Y17.518
X32.151 Y17.863
X32.777 Y18.253
X33.376 Y18.684
X33.945 Y19.154
X34.48 Y19.662
X34.978 Y20.206
X35.438 Y20.783
X35.857 Y21.39
X36.235 Y22.024
X36.57 Y22.681
X36.861 Y23.359
X37.107 Y24.055
X37.306 Y24.765
X37.458 Y25.487
X37.558 Y26.218
X37.608 Y26.954
X37.607 Y27.692
X37.556 Y28.428
X37.455 Y29.159
X37.306 Y29.882
X37.108 Y30.593
X36.864 Y31.289
X36.573 Y31.967
X36.235 Y32.623
X35.852 Y33.253
X35.427 Y33.857
X34.963 Y34.43
X34.461 Y34.971
X33.924 Y35.477
X33.354 Y35.946
X32.755 Y36.376
X32.128 Y36.765
X31.476 Y37.11
X30.801 Y37.409
X30.108 Y37.662
X29.4 Y37.869
X28.68 Y38.028
X27.95 Y38.138
X27.215 Y38.201
X26.477 Y38.214
X25.74 Y38.179
X25.007 Y38.093
X24.282 Y37.958
X23.567 Y37.776
X22.866 Y37.547
X22.18 Y37.273
X21.514 Y36.957
X20.869 Y36.598
X20.249 Y36.198
X19.655 Y35.76
X19.093 Y35.283
X18.564 Y34.769
X18.07 Y34.22
X17.613 Y33.641
X17.194 Y33.034
X16.814 Y32.401
X16.475 Y31.746
X16.178 Y31.071
X15.924 Y30.378
X15.715 Y29.67
X15.553 Y28.951
X15.439 Y28.222
X15.374 Y27.487
X15.355 Y26.749
X15.384 Y26.012
X15.459 Y25.278
X15.58 Y24.55
X15.746 Y23.831
X15.957 Y23.124
X16.213 Y22.432
X16.514 Y21.758
X16.858 Y21.106
X17.244 Y20.477
X17.669 Y19.874
X18.132 Y19.299
X18.63 Y18.755
X19.161 Y18.242
X19.722 Y17.764
X20.313 Y17.322
X20.931 Y16.919
X21.574 Y16.557
X22.24 Y16.238
X22.924 Y15.963
X23.625 Y15.731
X24.338 Y15.545
X25.062 Y15.403
X25.794 Y15.306
X26.53 Y15.256
X27.268 Y15.252
X28.004 Y15.296
X28.736 Y15.388
X29.461 Y15.527
X30.175 Y15.712
X30.877 Y15.941
X31.562 Y16.213
X32.23 Y16.527
X32.878 Y16.881
X33.502 Y17.274
X34.101 Y17.705
X34.671 Y18.173
X35.211 Y18.675
X35.719 Y19.21
X36.194 Y19.775
X36.633 Y20.368
X37.036 Y20.986
X37.402 Y21.627
X37.729 Y22.288
X38.016 Y22.968
X38.262 Y23.664
X38.463 Y24.374
X38.621 Y25.094
X38.734 Y25.823
X38.803 Y26.558
X38.826 Y27.295
X38.805 Y28.033
X38.739 Y28.768
X38.63 Y29.497
X38.477 Y30.219
X38.279 Y30.93
X38.038 Y31.627
X37.753 Y32.308
X37.427 Y32.97
X37.061 Y33.611
X36.657 Y34.228
X36.216 Y34.819
X35.741 Y35.384
X35.232 Y35.918
X34.693 Y36.422
X34.124 Y36.891
X33.526 Y37.324
X32.903 Y37.72
X32.257 Y38.076
X31.591 Y38.393
X30.907 Y38.669
X30.207 Y38.904
X29.495 Y39.097
X28.773 Y39.247
X28.043 Y39.354
X27.308 Y39.416
X26.57 Y39.433
X25.833 Y39.405
X25.099 Y39.332
X24.37 Y39.216
X23.65 Y39.056
X22.94 Y38.855
X22.243 Y38.613
X21.561 Y38.331
X20.897 Y38.01
X20.252 Y37.65
X19.631 Y37.253
X19.034 Y36.819
X18.464 Y36.351
X17.923 Y35.848
X17.413 Y35.315
X16.935 Y34.753
X16.49 Y34.165
X16.08 Y33.552
X15.705 Y32.916
X15.368 Y32.26
X15.07 Y31.585
X14.811 Y30.894
X14.594 Y30.189
X14.418 Y29.472
X14.285 Y28.746
X14.195 Y28.014
X14.147 Y27.278
X14.141 Y26.54
X14.178 Y25.803
X14.256 Y25.07
X14.377 Y24.342
X14.54 Y23.622
X14.744 Y22.913
X14.989 Y22.217
X15.275 Y21.537
X15.599 Y20.874
X15.962 Y20.232
X16.361 Y19.611
X16.794 Y19.014
X17.261 Y18.442
X17.759 Y17.899
X18.289 Y17.385
X18.847 Y16.903
X19.433 Y16.454
X20.043 Y16.039
X20.677 Y15.661
X21.331 Y15.32
X22.004 Y15.017
X22.693 Y14.753
X23.396 Y14.529
X24.11 Y14.345
X24.834 Y14.203
X25.565 Y14.103
X26.301 Y14.046
X27.038 Y14.031
X27.776 Y14.058
X28.51 Y14.128
X29.239 Y14.241
X29.961 Y14.395
X30.673 Y14.589
X31.372 Y14.823
X32.058 Y15.096
X32.726 Y15.409
X33.376 Y15.758
X34.005 Y16.144
X34.611 Y16.565
X35.193 Y17.018
X35.748 Y17.504
X36.276 Y18.02
X36.774 Y18.564
X37.242 Y19.135
X37.677 Y19.73
X38.08 Y20.349
X38.447 Y20.988
X38.779 Y21.648
X39.074 Y22.324
X39.331 Y23.015
X39.55 Y23.72
X39.73 Y24.436
X39.87 Y25.16
X39.969 Y25.891
X40.029 Y26.626
X40.048 Y27.364
X40.026 Y28.101
X39.962 Y28.837
X39.858 Y29.567
X39.713 Y30.29
X39.529 Y31.005
X39.305 Y31.708
X39.042 Y32.397
X38.741 Y33.071
X38.403 Y33.727
X38.03 Y34.363
X37.623 Y34.979
X37.182 Y35.57
X36.708 Y36.136
X36.204 Y36.674
X35.671 Y37.184
X35.11 Y37.664
X34.524 Y38.112
X33.914 Y38.527
X33.282 Y38.908
X32.63 Y39.254
X31.96 Y39.563
X31.275 Y39.836
X30.575 Y40.071
X29.864 Y40.266
X29.143 Y40.422
X28.414 Y40.538
X27.68 Y40.613
X26.943 Y40.649
X26.205 Y40.644
X25.469 Y40.599
X24.736 Y40.514
X24.009 Y40.389
X23.289 Y40.226
X22.579 Y40.025
X21.882 Y39.785
X21.198 Y39.507
X20.53 Y39.194
X19.879 Y38.846
X19.249 Y38.463
X18.639 Y38.047
X18.054 Y37.598
X17.493 Y37.119
X16.958 Y36.611
X16.451 Y36.074
X15.974 Y35.512
X15.528 Y34.924
X15.114 Y34.313
X14.733 Y33.682
X14.385 Y33.031
X14.073 Y32.362
X13.796 Y31.678
X13.556 Y30.981
X13.353 Y30.271
X13.188 Y29.552
X13.061 Y28.825
X12.973 Y28.093
X12.925 Y27.357
X12.916 Y26.619
X12.945 Y25.882
X13.014 Y25.147
X13.121 Y24.417
X13.266 Y23.694
X13.449 Y22.979
X13.67 Y22.275
X13.927 Y21.583
X14.22 Y20.906
X14.548 Y20.245
X14.911 Y19.603
X15.308 Y18.981
X15.737 Y18.381
X16.198 Y17.804
X16.688 Y17.253
X17.206 Y16.727
X17.751 Y16.23
X18.321 Y15.762
X18.915 Y15.324
X19.531 Y14.918
X20.167 Y14.545
X20.822 Y14.205
X21.495 Y13.902
X22.183 Y13.635
X22.884 Y13.404
X23.596 Y13.211
X24.317 Y13.055
X25.045 Y12.937
X25.778 Y12.857
X26.515 Y12.815
X27.253 Y12.812
X27.99 Y12.848
X28.724 Y12.922
X29.453 Y13.035
X30.175 Y13.186
X30.888 Y13.376
X31.591 Y13.602
X32.28 Y13.864
X32.955 Y14.162
X33.614 Y14.494
X34.255 Y14.859
X34.877 Y15.256
X35.477 Y15.685
X36.055 Y16.144
X36.609 Y16.631
X37.137 Y17.147
X37.637 Y17.689
X38.11 Y18.256
X38.553 Y18.846
X38.965 Y19.457
X39.347 Y20.089
X39.696 Y20.739
X40.013 Y21.405
X40.295 Y22.087
X40.544 Y22.782
X40.757 Y23.488
X40.934 Y24.204
X41.074 Y24.929
X41.177 Y25.659
X41.242 Y26.394
X41.27 Y27.131
X41.261 Y27.869
X41.214 Y28.605
X41.13 Y29.339
X41.01 Y30.066
X40.852 Y30.787
X40.659 Y31.499
X40.429 Y32.2
X40.165 Y32.889
X39.865 Y33.563
X39.53 Y34.221
X39.163 Y34.861
X38.763 Y35.481
X38.333 Y36.08
X37.873 Y36.657
X37.384 Y37.21
X36.868 Y37.737
X36.327 Y38.238
X35.76 Y38.712
X35.171 Y39.156
X34.56 Y39.569
X33.929 Y39.951
X33.279 Y40.3
X32.612 Y40.616
X31.93 Y40.898
X31.235 Y41.145
X30.528 Y41.357
X29.812 Y41.533
X29.088 Y41.673
X28.357 Y41.777
X27.622 Y41.845
X26.885 Y41.875
X26.147 Y41.869
X25.411 Y41.825
X24.678 Y41.744
X23.949 Y41.626
X23.227 Y41.473
X22.514 Y41.284
X21.811 Y41.06
X21.12 Y40.802
X20.442 Y40.51
X19.78 Y40.186
X19.133 Y39.83
X18.505 Y39.442
X17.897 Y39.025
X17.311 Y38.577
X16.748 Y38.1
X16.21 Y37.595
X15.696 Y37.065
X15.21 Y36.511
X14.751 Y35.933
X14.321 Y35.333
X13.92 Y34.714
X13.55 Y34.076
X13.211 Y33.42
X12.904 Y32.749
X12.63 Y32.064
X12.39 Y31.367
X12.185 Y30.658
X12.015 Y29.94
X11.881 Y29.214
X11.782 Y28.483
X11.718 Y27.748
X11.691 Y27.011
X11.699 Y26.273
X11.743 Y25.537
X11.822 Y24.803
X11.937 Y24.074
X12.086 Y23.351
X12.27 Y22.637
X12.489 Y21.932
X12.742 Y21.24
X13.029 Y20.56
X13.349 Y19.895
X13.7 Y19.246
X14.083 Y18.615
X14.496 Y18.004
X14.938 Y17.413
X15.407 Y16.844
X15.903 Y16.298
X16.425 Y15.776
X16.972 Y15.28
X17.541 Y14.812
X18.134 Y14.372
X18.747 Y13.961
X19.379 Y13.581
X20.029 Y13.231
X20.695 Y12.914
X21.376 Y12.63
X22.069 Y12.378
X22.774 Y12.16
X23.489 Y11.976
X24.211 Y11.827
X24.94 Y11.712
X25.674 Y11.633
X26.41 Y11.59
X27.148 Y11.583
X27.885 Y11.611
X28.62 Y11.675
X29.351 Y11.775
X30.077 Y11.909
X30.795 Y12.079
X31.504 Y12.282
X32.203 Y12.519
X32.89 Y12.789
X33.563 Y13.091
X34.221 Y13.425
X34.862 Y13.789
X35.485 Y14.185
X36.089 Y14.609
X36.672 Y15.061
X37.233 Y15.54
X37.771 Y16.046
X38.284 Y16.575
X38.772 Y17.129
X39.234 Y17.704
X39.669 Y18.3
X40.075 Y18.916
X40.453 Y19.549
X40.802 Y20.2
X41.119 Y20.866
X41.404 Y21.546
X41.658 Y22.239
X41.879 Y22.943
X42.067 Y23.657
X42.221 Y24.378
X42.342 Y25.106
X42.428 Y25.839
X42.48 Y26.575
X42.498 Y27.312
X42.482 Y28.05
X42.432 Y28.786
X42.347 Y29.519
X42.227 Y30.247
X42.073 Y30.969
X41.885 Y31.682
X41.664 Y32.386
X41.411 Y33.079
X41.125 Y33.759
X40.807 Y34.425
X40.458 Y35.075
X40.08 Y35.709
X39.672 Y36.324
X39.237 Y36.919
X38.774 Y37.494
X38.285 Y38.047
X37.771 Y38.575
X37.232 Y39.079
X36.67 Y39.557
X36.086 Y40.008
X35.482 Y40.432
X34.859 Y40.827
X34.218 Y41.193
X33.561 Y41.528
X32.889 Y41.833
X32.204 Y42.106
X31.506 Y42.348
X30.799 Y42.557
X30.082 Y42.733
X29.358 Y42.875
X28.628 Y42.983
X27.894 Y43.057
X27.158 Y43.097
X26.42 Y43.103
X25.683 Y43.075
X24.947 Y43.012
X24.216 Y42.916
X23.489 Y42.787
X22.77 Y42.625
X22.058 Y42.43
X21.356 Y42.204
X20.665 Y41.945
X19.986 Y41.655
X19.322 Y41.334
X18.673 Y40.983
X18.04 Y40.604
X17.426 Y40.195
X16.831 Y39.759
X16.256 Y39.296
X15.703 Y38.808
X15.173 Y38.295
X14.666 Y37.758
X14.185 Y37.199
X13.729 Y36.62
X13.299 Y36.02
X12.897 Y35.401
X12.524 Y34.764
X12.18 Y34.111
X11.866 Y33.444
X11.582 Y32.763
X11.329 Y32.07
X11.107 Y31.366
X10.918 Y30.653
X10.761 Y29.932
X10.637 Y29.205
X10.545 Y28.473
X10.486 Y27.737
X10.46 Y27.
X10.468 Y26.262
X10.509 Y25.526
X10.583 Y24.792
X10.69 Y24.062
X10.83 Y23.337
X11.001 Y22.619
X11.205 Y21.91
X11.441 Y21.211
X11.708 Y20.523
X12.005 Y19.848
X12.332 Y19.187
X12.688 Y18.541
X13.073 Y17.911
X13.486 Y17.299
X13.926 Y16.707
X14.393 Y16.136
X14.884 Y15.586
X15.4 Y15.058
X15.938 Y14.553
X16.499 Y14.074
X17.08 Y13.619
X17.681 Y13.192
X18.301 Y12.792
X18.938 Y12.419
X19.591 Y12.076
X20.259 Y11.762
X20.94 Y11.478
X21.633 Y11.226
X22.337 Y11.005
X23.05 Y10.816
X23.771 Y10.658
X24.498 Y10.533
X25.23 Y10.441
X25.966 Y10.381
X26.703 Y10.355
X27.441 Y10.361
X28.178 Y10.4
X28.912 Y10.472
X29.642 Y10.576
X30.367 Y10.713
X31.086 Y10.882
X31.795 Y11.083
X32.495 Y11.316
X33.185 Y11.58
X33.862 Y11.873
X34.525 Y12.196
X35.174 Y12.548
X35.806 Y12.928
X36.421 Y13.335
X37.018 Y13.769
X37.595 Y14.229
X38.152 Y14.713
X38.687 Y15.221
X39.2 Y15.751
X39.689 Y16.304
X40.153 Y16.877
X40.591 Y17.471
X41.004 Y18.082
X41.391 Y18.711
X41.749 Y19.355
X42.08 Y20.015
X42.382 Y20.688
X42.655 Y21.374
X42.898 Y22.07
X43.11 Y22.777
X43.293 Y23.492
X43.444 Y24.214
X43.563 Y24.942
X43.651 Y25.675
X43.706 Y26.41
X43.729 Y27.148
X43.72 Y27.886
X43.68 Y28.622
X43.608 Y29.357
X43.503 Y30.087
X43.367 Y30.812
X43.2 Y31.531
X43.002 Y32.241
X42.773 Y32.943
X42.514 Y33.634
X42.226 Y34.313
X41.908 Y34.979
X41.561 Y35.63
X41.185 Y36.265
X40.782 Y36.883
X40.354 Y37.483
X39.899 Y38.065
X39.42 Y38.626
X38.917 Y39.166
X38.391 Y39.683
X37.843 Y40.177
X37.275 Y40.648
X36.687 Y41.093
X36.08 Y41.513
X35.456 Y41.906
X34.815 Y42.271
X34.158 Y42.608
X33.488 Y42.917
X32.805 Y43.196
X32.111 Y43.445
X31.406 Y43.665
X30.693 Y43.854
X29.972 Y44.012
X29.245 Y44.139
X28.514 Y44.234
X27.779 Y44.298
X27.042 Y44.331
X26.304 Y44.332
X25.567 Y44.302
X24.832 Y44.24
X24.1 Y44.146
X23.373 Y44.02
X22.652 Y43.864
X21.938 Y43.678
X21.232 Y43.461
X20.537 Y43.215
X19.852 Y42.94
X19.18 Y42.636
X18.521 Y42.304
X17.877 Y41.945
X17.248 Y41.559
X16.636 Y41.146
X16.042 Y40.708
X15.468 Y40.245
X14.914 Y39.758
X14.381 Y39.247
X13.871 Y38.715
X13.383 Y38.161
X12.919 Y37.588
X12.479 Y36.995
X12.064 Y36.385
X11.676 Y35.758
X11.314 Y35.115
X10.979 Y34.457
X10.672 Y33.787
X10.393 Y33.104
X10.142 Y32.41
X9.921 Y31.706
X9.731 Y30.993
X9.571 Y30.273
X9.442 Y29.546
X9.343 Y28.815
X9.274 Y28.08
X9.236 Y27.344
X9.229 Y26.606
X9.253 Y25.868
X9.308 Y25.133
X9.393 Y24.4
X9.508 Y23.671
X9.654 Y22.948
X9.829 Y22.231
X10.034 Y21.522
X10.269 Y20.823
X10.534 Y20.134
X10.827 Y19.457
X11.148 Y18.793
X11.497 Y18.142
X11.872 Y17.507
X12.273 Y16.888
X12.7 Y16.286
X13.152 Y15.703
X13.628 Y15.139
X14.126 Y14.595
X14.646 Y14.072
X15.188 Y13.571
X15.75 Y13.093
X16.331 Y12.638
X16.932 Y12.21
X17.55 Y11.806
X18.184 Y11.429
X18.833 Y11.079
X19.496 Y10.755
X20.172 Y10.46
X20.86 Y10.193
X21.558 Y9.955
X22.266 Y9.746
X22.982 Y9.567
X23.704 Y9.417
X24.432 Y9.298
X25.165 Y9.208
X25.9 Y9.149
X26.637 Y9.121
X27.375 Y9.125
X28.112 Y9.159
X28.847 Y9.224
X29.579 Y9.319
X30.306 Y9.444
X31.027 Y9.599
X31.742 Y9.784
X32.447 Y9.999
X33.144 Y10.242
X33.83 Y10.513
X34.504 Y10.813
X35.166 Y11.139
X35.814 Y11.493
X36.446 Y11.872
X37.063 Y12.278
X37.662 Y12.709
X38.243 Y13.164
X38.805 Y13.642
X39.347 Y14.142
X39.868 Y14.664
X40.368 Y15.207
X40.846 Y15.769
X41.3 Y16.351
X41.731 Y16.95
X42.137 Y17.565
X42.519 Y18.197
X42.875 Y18.843
X43.204 Y19.503
X43.507 Y20.176
X43.781 Y20.861
X44.028 Y21.556
X44.247 Y22.261
X44.437 Y22.974
X44.598 Y23.694
X44.73 Y24.42
X44.833 Y25.15
X44.906 Y25.885
X44.949 Y26.621
X44.962 Y27.359
X44.946 Y28.096
X44.9 Y28.833
X44.825 Y29.567
X44.72 Y30.297
X44.585 Y31.023
X44.42 Y31.742
X44.227 Y32.454
X44.004 Y33.157
X43.753 Y33.851
X43.475 Y34.534
X43.169 Y35.206
X42.836 Y35.864
X42.476 Y36.508
X42.091 Y37.138
X41.681 Y37.751
X41.247 Y38.347
X40.788 Y38.926
X40.308 Y39.485
X39.804 Y40.025
X39.279 Y40.543
X38.734 Y41.04
X38.168 Y41.514
X37.584 Y41.965
X36.983 Y42.392
X36.365 Y42.795
X35.731 Y43.172
X35.082 Y43.523
X34.419 Y43.848
X33.745 Y44.147
X33.058 Y44.418
X32.362 Y44.661
X31.656 Y44.876
X30.942 Y45.063
X30.222 Y45.222
X29.495 Y45.35
X28.764 Y45.449
X28.03 Y45.518
X27.293 Y45.558
X26.555 Y45.569
X25.817 Y45.55
X25.081 Y45.502
X24.348 Y45.424
X23.618 Y45.317
X22.892 Y45.181
X22.173 Y45.017
X21.461 Y44.824
X20.757 Y44.604
X20.062 Y44.356
X19.377 Y44.081
X18.704 Y43.779
X18.044 Y43.449
X17.397 Y43.094
X16.765 Y42.714
X16.148 Y42.309
X15.548 Y41.88
X14.965 Y41.428
X14.4 Y40.953
X13.855 Y40.456
X13.33 Y39.937
X12.826 Y39.399
X12.343 Y38.841
X11.882 Y38.265
X11.444 Y37.671
X11.029 Y37.061
X10.64 Y36.434
X10.275 Y35.793
X9.936 Y35.137
X9.623 Y34.469
X9.336 Y33.79
X9.076 Y33.099
X8.843 Y32.399
X8.637 Y31.691
X8.46 Y30.974
X8.311 Y30.252
X8.191 Y29.524
X8.099 Y28.792
X8.035 Y28.057
X8. Y27.32
X7.993 Y26.582
X8.016 Y25.845
X8.069 Y25.109
X8.15 Y24.375
X8.259 Y23.646
X8.397 Y22.921
X8.562 Y22.202
X8.756 Y21.49
X8.977 Y20.786
X9.225 Y20.091
X9.501 Y19.407
X9.803 Y18.734
X10.131 Y18.073
X10.484 Y17.425
X10.863 Y16.791
X11.265 Y16.173
X11.692 Y15.571
X12.142 Y14.986
X12.615 Y14.42
X13.109 Y13.872
X13.624 Y13.344
X14.159 Y12.836
X14.714 Y12.349
X15.287 Y11.885
X15.877 Y11.443
X16.485 Y11.024
X17.109 Y10.63
X17.747 Y10.26
X18.399 Y9.914
X19.064 Y9.595
X19.741 Y9.301
X20.429 Y9.034
X21.127 Y8.795
X21.833 Y8.583
X22.548 Y8.399
X23.269 Y8.243
X23.996 Y8.115
X24.727 Y8.015
X25.461 Y7.943
X26.198 Y7.9
X26.935 Y7.886
X27.673 Y7.9
X28.409 Y7.944
X29.144 Y8.015
X29.875 Y8.115
X30.601 Y8.243
X31.323 Y8.399
X32.037 Y8.583
X32.744 Y8.795
X33.442 Y9.034
X34.13 Y9.3
X34.807 Y9.592
X35.473 Y9.91
X36.127 Y10.253
X36.766 Y10.621
X37.391 Y11.013
X38.001 Y11.429
X38.594 Y11.867
X39.17 Y12.328
X39.728 Y12.811
X40.268 Y13.314
X40.788 Y13.837
X41.288 Y14.38
X41.767 Y14.941
X42.223 Y15.521
X42.658 Y16.117
X43.07 Y16.729
X43.458 Y17.356
X43.823 Y17.998
X44.164 Y18.652
X44.479 Y19.319
X44.769 Y19.998
X45.033 Y20.687
X45.271 Y21.385
X45.483 Y22.092
X45.667 Y22.806
X45.825 Y23.527
X45.956 Y24.253
X46.059 Y24.984
X46.133 Y25.718
X46.18 Y26.454
X46.198 Y27.192
X46.189 Y27.929
X46.152 Y28.666
X46.087 Y29.401
X45.995 Y30.133
X45.874 Y30.861
X45.726 Y31.584
X45.551 Y32.301
X45.349 Y33.01
X45.12 Y33.711
X44.864 Y34.404
X44.583 Y35.086
X44.276 Y35.757
X43.944 Y36.416
X43.586 Y37.061
X43.204 Y37.692
X42.798 Y38.308
X42.37 Y38.909
X41.919 Y39.493
X41.447 Y40.06
X40.953 Y40.608
X40.439 Y41.138
X39.905 Y41.647
X39.353 Y42.136
X38.782 Y42.603
X38.194 Y43.049
X37.59 Y43.473
X36.971 Y43.874
X36.337 Y44.251
X35.688 Y44.603
X35.027 Y44.93
X34.354 Y45.232
X33.67 Y45.508
X32.976 Y45.759
X32.273 Y45.983
X31.562 Y46.182
X30.844 Y46.353
X30.121 Y46.497
X29.392 Y46.613
X28.66 Y46.702
X27.925 Y46.764
X27.187 Y46.798
X26.45 Y46.804
X25.712 Y46.783
X24.976 Y46.735
X24.242 Y46.658
X23.512 Y46.554
X22.786 Y46.422
X22.065 Y46.263
X21.351 Y46.079
X20.644 Y45.867
X19.945 Y45.63
X19.256 Y45.367
X18.577 Y45.079
X17.909 Y44.766
X17.253 Y44.428
X16.61 Y44.066
X15.981 Y43.68
X15.366 Y43.272
X14.767 Y42.841
X14.185 Y42.389
X13.619 Y41.914
X13.073 Y41.419
X12.545 Y40.904
X12.036 Y40.369
X11.547 Y39.816
X11.079 Y39.246
X10.632 Y38.659
X10.207 Y38.056
X9.805 Y37.438
X9.426 Y36.805
X9.07 Y36.158
X8.738 Y35.499
X8.43 Y34.829
X8.147 Y34.147
X7.889 Y33.456
X7.657 Y32.756
X7.451 Y32.047
X7.272 Y31.332
X7.119 Y30.61
X6.994 Y29.883
X6.894 Y29.152
X6.822 Y28.417
X6.776 Y27.681
X6.757 Y26.943
X6.766 Y26.206
X6.801 Y25.469
X6.864 Y24.734
X6.953 Y24.001
X7.069 Y23.272
X7.211 Y22.549
X7.38 Y21.83
X7.574 Y21.118
X7.795 Y20.414
X8.042 Y19.719
X8.315 Y19.034
X8.613 Y18.359
X8.935 Y17.695
X9.281 Y17.043
X9.65 Y16.404
X10.042 Y15.78
X10.458 Y15.17
X10.895 Y14.575
X11.354 Y13.998
X11.833 Y13.437
X12.333 Y12.894
X12.852 Y12.369
X13.389 Y11.864
X13.945 Y11.379
X14.518 Y10.914
X15.108 Y10.471
X15.714 Y10.05
X16.335 Y9.652
X16.97 Y9.277
X17.619 Y8.925
X18.28 Y8.596
X18.952 Y8.292
X19.635 Y8.013
X20.328 Y7.759
X21.029 Y7.531
X21.739 Y7.329
X22.455 Y7.152
X23.177 Y7.001
X23.905 Y6.877
X24.636 Y6.779
X25.37 Y6.708
X26.107 Y6.664
X26.844 Y6.648
X27.582 Y6.659
X28.319 Y6.696
X29.054 Y6.761
X29.786 Y6.851
X30.515 Y6.969
X31.238 Y7.112
X31.956 Y7.282
X32.668 Y7.479
X33.371 Y7.7
X34.066 Y7.948
X34.752 Y8.219
X35.428 Y8.516
X36.093 Y8.836
X36.745 Y9.18
X37.385 Y9.547
X38.011 Y9.938
X38.622 Y10.351
X39.218 Y10.786
X39.798 Y11.242
X40.362 Y11.719
X40.908 Y12.215
X41.436 Y12.73
X41.946 Y13.263
X42.436 Y13.815
X42.906 Y14.384
X43.355 Y14.969
X43.784 Y15.57
X44.191 Y16.185
X44.576 Y16.814
X44.939 Y17.457
X45.278 Y18.112
X45.595 Y18.778
X45.886 Y19.456
X46.154 Y20.144
X46.396 Y20.841
X46.614 Y21.545
X46.807 Y22.258
X46.975 Y22.976
X47.117 Y23.7
X47.233 Y24.429
X47.323 Y25.161
X47.387 Y25.896
X47.424 Y26.633
X47.436 Y27.371
X47.421 Y28.108
X47.38 Y28.845
X47.314 Y29.58
X47.221 Y30.312
X47.101 Y31.04
X46.956 Y31.763
X46.784 Y32.481
X46.587 Y33.192
X46.365 Y33.895
X46.118 Y34.591
X45.846 Y35.277
X45.55 Y35.953
X45.231 Y36.617
X44.887 Y37.27
X44.521 Y37.911
X44.131 Y38.538
X43.72 Y39.15
X43.288 Y39.748
X42.835 Y40.33
X42.361 Y40.896
X41.868 Y41.445
X41.355 Y41.975
X40.823 Y42.486
X40.273 Y42.978
X39.706 Y43.45
X39.123 Y43.902
X38.524 Y44.333
X37.91 Y44.743
X37.283 Y45.131
X36.641 Y45.496
X35.988 Y45.838
X35.322 Y46.156
X34.646 Y46.451
X33.959 Y46.722
X33.264 Y46.968
X32.56 Y47.19
X31.849 Y47.387
X31.132 Y47.559
X30.929 Y47.599
X30.88 Y47.607
X30.832 Y47.612
X30.783 Y47.614
X23.657
X22.92 Y47.577
X22.187 Y47.493
X21.463 Y47.354
X20.747 Y47.174
X20.04 Y46.963
X19.343 Y46.723
X18.654 Y46.456
X17.976 Y46.165
X17.309 Y45.85
X16.653 Y45.512
X16.01 Y45.151
X15.38 Y44.767
X14.764 Y44.362
X14.162 Y43.935
X13.575 Y43.487
X13.005 Y43.019
X12.452 Y42.531
X11.916 Y42.024
X11.398 Y41.498
X10.898 Y40.955
X10.418 Y40.395
X9.957 Y39.819
X9.516 Y39.228
X9.096 Y38.621
X8.697 Y38.001
X8.32 Y37.367
X7.964 Y36.72
X7.632 Y36.061
X7.323 Y35.391
X7.037 Y34.711
X6.775 Y34.021
X6.537 Y33.323
X6.324 Y32.616
X6.177 Y32.059
X6.164 Y31.997
X6.155 Y31.934
X6.153 Y31.87
Y22.903
X6.189 Y22.173
X6.279 Y21.485
X6.434 Y20.764
X6.633 Y20.053
X6.868 Y19.354
X7.133 Y18.665
X7.423 Y17.987
X7.739 Y17.32
X8.077 Y16.664
X8.438 Y16.021
X8.821 Y15.39
X9.226 Y14.774
X9.652 Y14.171
X10.098 Y13.583
X10.564 Y13.012
X11.05 Y12.456
X11.554 Y11.917
X12.076 Y11.396
X12.616 Y10.893
X13.172 Y10.408
X13.746 Y9.944
X14.335 Y9.5
X14.939 Y9.077
X15.558 Y8.675
X16.191 Y8.295
X16.836 Y7.937
X17.493 Y7.601
X18.161 Y7.288
X18.839 Y6.998
X19.527 Y6.731
X20.224 Y6.488
X20.928 Y6.27
X21.567 Y6.095
X21.632 Y6.081
X21.697 Y6.072
X21.763 Y6.069
X30.863
X31.6 Y6.106
X31.967 Y6.15
X32.694 Y6.272
X33.41 Y6.45
X34.115 Y6.668
X34.809 Y6.917
X35.493 Y7.195
X36.166 Y7.497
X36.828 Y7.823
X37.478 Y8.171
X38.116 Y8.542
X38.741 Y8.935
X39.352 Y9.349
X39.948 Y9.783
X40.529 Y10.238
X41.095 Y10.712
X41.644 Y11.205
X42.176 Y11.716
X42.69 Y12.245
X43.187 Y12.79
X43.664 Y13.353
X44.123 Y13.93
X44.562 Y14.523
X44.982 Y15.13
X45.381 Y15.751
X45.759 Y16.385
X46.116 Y17.03
X46.451 Y17.688
X46.763 Y18.356
X47.053 Y19.034
X47.32 Y19.722
X47.564 Y20.419
X47.664 Y20.739
X47.683 Y20.812
X47.694 Y20.885
X47.698 Y20.96
Y32.456
X47.667 Y33.071
X47.594 Y33.623
X47.443 Y34.331
X47.231 Y35.038
X46.978 Y35.731
X46.693 Y36.411
X46.38 Y37.08
X46.043 Y37.736
X45.682 Y38.379
X45.299 Y39.01
X44.895 Y39.628
X44.471 Y40.231
X44.027 Y40.82
X43.563 Y41.394
X43.081 Y41.952
X42.579 Y42.494
X42.06 Y43.018
X41.524 Y43.524
X40.97 Y44.012
X40.401 Y44.482
X39.817 Y44.932
X39.217 Y45.363
X38.604 Y45.773
X37.977 Y46.162
X37.337 Y46.529
X36.685 Y46.875
X36.022 Y47.198
X35.349 Y47.5
X35.203 Y47.559
X35.113 Y47.589
X35.019 Y47.608
X34.923 Y47.614
X30.783
G3 X30.606 Y47.041 I0.011 J-0.317
G1 X30.663 Y46.999 Z36.517
X30.717 Y46.959 Z36.541
X30.766 Y46.923 Z36.578
X30.806 Y46.894 Z36.629
X30.837 Y46.871 Z36.689
X30.856 Y46.857 Z36.756
X30.862 Y46.853 Z36.827
G0 Z43.009
X47.314 Y31.429
Z37.144
G1 Z36.827 F1016.
X47.318 Y31.436 Z36.756
X47.33 Y31.456 Z36.689
X47.349 Y31.489 Z36.629
X47.375 Y31.532 Z36.578
X47.406 Y31.584 Z36.541
X47.44 Y31.641 Z36.517
X47.476 Y31.702 Z36.509
G3 X47.698 Y32.456 I-1.36 J0.809
G1 Y35.807
X47.677 Y36.227
X47.634 Y36.554
X47.543 Y36.978
X47.387 Y37.498
X47.125 Y38.172
X46.803 Y38.835
X46.443 Y39.479
X46.054 Y40.106
X45.641 Y40.718
X45.208 Y41.315
X44.754 Y41.897
X44.281 Y42.463
X43.791 Y43.014
X43.283 Y43.549
X42.758 Y44.068
X42.217 Y44.57
X41.66 Y45.054
X41.089 Y45.521
X40.503 Y45.969
X39.903 Y46.399
X39.29 Y46.809
X38.663 Y47.199
X38.118 Y47.514
X38.001 Y47.569
X37.876 Y47.603
X37.747 Y47.614
X34.923
G3 X34.747 Y47.041 I0.011 J-0.317
G1 X34.804 Y46.999 Z36.517
X34.858 Y46.959 Z36.541
X34.906 Y46.923 Z36.578
X34.947 Y46.894 Z36.629
X34.977 Y46.871 Z36.689
X34.996 Y46.857 Z36.756
X35.003 Y46.853 Z36.827
G0 Z43.009
X47.314 Y34.781
Z37.144
G1 Z36.827 F1016.
X47.318 Y34.788 Z36.756
X47.33 Y34.808 Z36.689
X47.349 Y34.84 Z36.629
X47.375 Y34.884 Z36.578
X47.406 Y34.935 Z36.541
X47.44 Y34.993 Z36.517
X47.476 Y35.054 Z36.509
G3 X47.698 Y35.807 I-1.36 J0.809
G1 Y38.489
X47.686 Y38.722
X47.652 Y38.978
X47.583 Y39.301
X47.47 Y39.68
X47.28 Y40.167
X46.983 Y40.779
X46.609 Y41.414
X46.195 Y42.025
X45.753 Y42.616
X45.288 Y43.188
X44.802 Y43.744
X44.299 Y44.284
X43.779 Y44.807
X43.244 Y45.315
X42.693 Y45.805
X42.127 Y46.279
X41.548 Y46.736
X40.955 Y47.176
X40.516 Y47.481
X40.385 Y47.554
X40.242 Y47.599
X40.093 Y47.614
X37.747
G3 X37.544 Y47.062 I0.011 J-0.317
G1 X37.569 Y47.039
X47.12 Y38.308
X47.166 Y38.265
G3 X47.698 Y38.489 I0.214 J0.234
G1 Y40.667
X47.686 Y40.906
X47.656 Y41.134
X47.596 Y41.411
X47.504 Y41.72
X47.351 Y42.112
X47.126 Y42.576
X46.78 Y43.164
X46.356 Y43.768
X45.895 Y44.344
X45.409 Y44.899
X44.901 Y45.434
X44.376 Y45.952
X43.834 Y46.454
X43.278 Y46.938
X42.708 Y47.407
X42.641 Y47.459
X42.503 Y47.544
X42.349 Y47.596
X42.188 Y47.614
X40.093
G3 X39.89 Y47.062 I0.011 J-0.317
G1 X39.915 Y47.039
X47.12 Y40.486
X47.167 Y40.443
G3 X47.698 Y40.667 I0.214 J0.235
G1 Y42.678
X47.687 Y42.891
X47.658 Y43.109
X47.609 Y43.339
X47.525 Y43.619
X47.396 Y43.951
X47.205 Y44.344
X46.925 Y44.821
X46.5 Y45.424
X46.029 Y45.992
X45.528 Y46.533
X45.003 Y47.052
X44.606 Y47.418
X44.457 Y47.525
X44.286 Y47.591
X44.104 Y47.614
G3 X43.856 Y47.113 I0.011 J-0.317
G1 X43.915 Y47.03
X47.121 Y42.506
G3 X47.698 Y42.678 I0.259 J0.184
G1 Y44.522
X47.686 Y44.755
X47.661 Y44.942
X47.615 Y45.157
X47.536 Y45.422
X47.424 Y45.709
X47.253 Y46.062
X47.014 Y46.468
X46.655 Y46.979
X46.35 Y47.346
X46.19 Y47.491
X45.994 Y47.582
X45.78 Y47.614
G3 X45.516 Y47.138 I0.011 J-0.317
G1 X45.582 Y47.024
X47.105 Y44.375
G3 X47.38 Y44.215 I0.275 J0.158
X47.698 Y44.522 I0. J0.318
G1 Y46.365
X47.69 Y46.515
X47.665 Y46.697
X47.619 Y46.899
X47.562 Y47.084
X47.536 Y47.148
X47.425 Y47.338
X47.264 Y47.486
X47.066 Y47.581
X46.849 Y47.614
G3 X46.583 Y47.14 I0.011 J-0.317
G1 X46.649 Y47.023
X47.104 Y46.22
G3 X47.698 Y46.365 I0.276 J0.156
G1 Y47.287
X47.694 Y47.329
X47.685 Y47.371
X47.675 Y47.4
X47.661 Y47.429
X47.644 Y47.458
X47.622 Y47.487
X47.571 Y47.538
X47.542 Y47.56
X47.513 Y47.578
X47.484 Y47.591
X47.455 Y47.601
X47.413 Y47.61
X47.371 Y47.614
X42.188
G3 X42.011 Y47.041 I0.011 J-0.317
G1 X42.068 Y46.999 Z36.517
X42.122 Y46.959 Z36.541
X42.17 Y46.923 Z36.578
X42.211 Y46.894 Z36.629
X42.241 Y46.871 Z36.689
X42.26 Y46.857 Z36.756
X42.267 Y46.853 Z36.827
G0 Z43.009
X29.837 Y6.452
Z37.144
G1 Z36.827 F1016.
X29.844 Y6.448 Z36.756
X29.864 Y6.436 Z36.689
X29.896 Y6.417 Z36.629
X29.94 Y6.391 Z36.578
X29.991 Y6.361 Z36.541
X30.049 Y6.326 Z36.517
X30.11 Y6.29 Z36.509
G3 X30.863 Y6.069 I0.809 J1.36
G1 X34.718
X35.066 Y6.086
X35.437 Y6.135
X35.906 Y6.235
X36.49 Y6.41
X37.178 Y6.678
X37.845 Y6.994
X38.494 Y7.344
X39.128 Y7.721
X39.748 Y8.121
X40.353 Y8.543
X40.944 Y8.986
X41.519 Y9.447
X42.08 Y9.927
X42.625 Y10.424
X43.153 Y10.939
X43.665 Y11.47
X44.16 Y12.018
X44.637 Y12.58
X45.097 Y13.158
X45.537 Y13.75
X45.958 Y14.355
X46.36 Y14.974
X46.742 Y15.605
X47.105 Y16.248
X47.446 Y16.902
X47.624 Y17.27
X47.665 Y17.374
X47.689 Y17.482
X47.698 Y17.592
Y20.96
G3 X47.124 Y21.137 I-0.317 J-0.011
G1 X47.083 Y21.08 Z36.517
X47.043 Y21.026 Z36.541
X47.007 Y20.977 Z36.578
X46.977 Y20.937 Z36.629
X46.955 Y20.906 Z36.689
X46.941 Y20.887 Z36.756
X46.936 Y20.881 Z36.827
G0 Z43.009
X33.691 Y6.452
Z37.144
G1 Z36.827 F1016.
X33.698 Y6.448 Z36.756
X33.718 Y6.436 Z36.689
X33.751 Y6.417 Z36.629
X33.794 Y6.391 Z36.578
X33.846 Y6.361 Z36.541
X33.904 Y6.326 Z36.517
X33.964 Y6.29 Z36.509
G3 X34.718 Y6.069 I0.809 J1.36
G1 X37.399
X37.71 Y6.084
X37.98 Y6.12
X38.324 Y6.193
X38.728 Y6.314
X39.249 Y6.517
X39.913 Y6.84
X40.549 Y7.214
X41.163 Y7.623
X41.758 Y8.059
X42.336 Y8.518
X42.899 Y8.995
X43.445 Y9.491
X43.976 Y10.004
X44.49 Y10.533
X44.988 Y11.077
X45.469 Y11.636
X45.933 Y12.21
X46.38 Y12.797
X46.808 Y13.398
X47.219 Y14.011
X47.584 Y14.594
X47.647 Y14.718
X47.685 Y14.85
X47.698 Y14.988
Y17.592
G3 X47.144 Y17.793 I-0.317 J-0.011
G1 X47.123 Y17.77
X36.673 Y6.111
G2 X36.498 Y6.268 I-0.088 J0.078
X36.646 Y6.29 I0.088 J-0.078
G3 X37.399 Y6.069 I0.809 J1.36
G1 X39.746
X39.957 Y6.079
X40.19 Y6.11
X40.479 Y6.172
X40.801 Y6.268
X41.216 Y6.43
X41.708 Y6.669
X42.344 Y7.043
X42.947 Y7.467
X43.526 Y7.924
X44.085 Y8.406
X44.625 Y8.909
X45.149 Y9.429
X45.656 Y9.965
X46.147 Y10.516
X46.621 Y11.081
X47.079 Y11.659
X47.52 Y12.251
X47.563 Y12.313
X47.637 Y12.445
X47.682 Y12.588
X47.698 Y12.739
Y14.988
G3 X47.143 Y15.188 I-0.317 J-0.011
G1 X47.123 Y15.165
X39.564 Y6.647
X39.519 Y6.597
G3 X39.746 Y6.069 I0.237 J-0.211
G1 X41.757
X41.992 Y6.081
X42.21 Y6.109
X42.455 Y6.162
X42.739 Y6.247
X43.087 Y6.382
X43.494 Y6.58
X43.998 Y6.876
X44.601 Y7.3
X45.172 Y7.768
X45.716 Y8.266
X46.24 Y8.786
X46.745 Y9.324
X47.233 Y9.877
X47.527 Y10.231
X47.62 Y10.374
X47.678 Y10.534
X47.698 Y10.704
G3 X47.187 Y10.945 I-0.317 J-0.011
G1 X47.116 Y10.89
X41.58 Y6.642
X41.574 Y6.638
G3 X41.757 Y6.069 I0.193 J-0.252
G1 X43.692
X43.88 Y6.078
X44.077 Y6.104
X44.295 Y6.151
X44.564 Y6.231
X44.863 Y6.348
X45.226 Y6.524
X45.65 Y6.774
X46.185 Y7.149
X46.753 Y7.621
X47.288 Y8.128
X47.491 Y8.34
X47.603 Y8.491
X47.674 Y8.666
X47.698 Y8.853
G3 X47.204 Y9.106 I-0.317 J-0.011
G1 X47.112 Y9.044
X43.527 Y6.65
G3 X43.692 Y6.069 I0.176 J-0.264
G1 X45.443
X45.663 Y6.08
X45.841 Y6.103
X46.056 Y6.149
X46.306 Y6.224
X46.574 Y6.329
X46.912 Y6.492
X47.265 Y6.7
X47.383 Y6.783
X47.514 Y6.901
X47.614 Y7.048
X47.676 Y7.213
X47.698 Y7.389
G3 X47.235 Y7.66 I-0.317 J-0.011
G1 X47.104 Y7.593
X45.309 Y6.668
G3 X45.443 Y6.069 I0.145 J-0.282
G1 X47.119
X47.147
X47.189
X47.339 Y6.076
X47.482 Y6.139
X47.597 Y6.245
X47.672 Y6.383
X47.698 Y6.537
G3 X47.559 Y6.874 I-0.524 J-0.018
X46.853 Y6.223 I-0.353 J-0.325
X47.189 Y6.069 I0.353 J0.325
G1 X47.371
X47.413 Y6.072
X47.455 Y6.082
X47.484 Y6.092
X47.513 Y6.105
X47.542 Y6.122
X47.571 Y6.144
X47.622 Y6.195
X47.644 Y6.225
X47.661 Y6.254
X47.675 Y6.283
X47.685 Y6.312
X47.694 Y6.354
X47.698 Y6.396
Y12.739
G3 X47.124 Y12.915 I-0.317 J-0.011
G1 X47.083 Y12.858 Z36.517
X47.043 Y12.804 Z36.541
X47.007 Y12.756 Z36.578
X46.977 Y12.715 Z36.629
X46.955 Y12.685 Z36.689
X46.941 Y12.666 Z36.756
X46.936 Y12.659 Z36.827
G0 Z43.009
X24.684 Y47.23
Z37.144
G1 Z36.827 F1016.
X24.677 Y47.234 Z36.756
X24.657 Y47.246 Z36.689
X24.624 Y47.266 Z36.629
X24.581 Y47.291 Z36.578
X24.529 Y47.322 Z36.541
X24.471 Y47.356 Z36.517
X24.411 Y47.393 Z36.509
G3 X23.657 Y47.614 I-0.809 J-1.36
G1 X19.467
X19.133 Y47.597
X18.736 Y47.545
X18.231 Y47.437
X17.598 Y47.247
X16.911 Y46.98
X16.242 Y46.668
X15.589 Y46.324
X14.952 Y45.953
X14.328 Y45.558
X13.719 Y45.141
X13.125 Y44.704
X12.545 Y44.247
X11.982 Y43.771
X11.434 Y43.277
X10.903 Y42.765
X10.389 Y42.236
X9.892 Y41.69
X9.414 Y41.128
X8.954 Y40.551
X8.513 Y39.96
X8.092 Y39.354
X7.691 Y38.734
X7.311 Y38.102
X6.952 Y37.458
X6.614 Y36.802
X6.298 Y36.135
X6.214 Y35.943
X6.18 Y35.848
X6.16 Y35.749
X6.153 Y35.648
Y31.87
G3 X6.726 Y31.693 I0.317 J0.011
G1 X6.768 Y31.75 Z36.517
X6.807 Y31.804 Z36.541
X6.843 Y31.853 Z36.578
X6.873 Y31.893 Z36.629
X6.895 Y31.924 Z36.689
X6.909 Y31.943 Z36.756
X6.914 Y31.949 Z36.827
G0 Z43.009
X20.494 Y47.23
Z37.144
G1 Z36.827 F1016.
X20.487 Y47.234 Z36.756
X20.467 Y47.246 Z36.689
X20.434 Y47.266 Z36.629
X20.391 Y47.291 Z36.578
X20.339 Y47.322 Z36.541
X20.282 Y47.356 Z36.517
X20.221 Y47.393 Z36.509
G3 X19.467 Y47.614 I-0.809 J-1.36
G1 X16.786
X16.393 Y47.594
X16.115 Y47.558
X15.759 Y47.482
X15.341 Y47.356
X14.801 Y47.146
X14.137 Y46.824
X13.5 Y46.452
X12.884 Y46.045
X12.286 Y45.612
X11.706 Y45.157
X11.141 Y44.682
X10.592 Y44.189
X10.06 Y43.678
X9.544 Y43.151
X9.045 Y42.607
X8.563 Y42.049
X8.099 Y41.475
X7.653 Y40.888
X7.225 Y40.286
X6.816 Y39.672
X6.427 Y39.046
X6.252 Y38.744
X6.198 Y38.627
X6.164 Y38.502
X6.153 Y38.373
Y35.648
G3 X6.726 Y35.471 I0.317 J0.011
G1 X6.768 Y35.528 Z36.517
X6.807 Y35.582 Z36.541
X6.843 Y35.631 Z36.578
X6.873 Y35.671 Z36.629
X6.895 Y35.702 Z36.689
X6.909 Y35.721 Z36.756
X6.914 Y35.727 Z36.827
G0 Z43.009
X17.813 Y47.23
Z37.144
G1 Z36.827 F1016.
X17.806 Y47.234 Z36.756
X17.786 Y47.246 Z36.689
X17.753 Y47.266 Z36.629
X17.71 Y47.291 Z36.578
X17.658 Y47.322 Z36.541
X17.6 Y47.356 Z36.517
X17.54 Y47.393 Z36.509
G3 X16.786 Y47.614 I-0.809 J-1.36
G1 X14.44
X14.108 Y47.597
X13.871 Y47.566
X13.577 Y47.503
X13.248 Y47.405
X12.826 Y47.24
X12.321 Y46.995
X11.685 Y46.621
X11.081 Y46.198
X10.5 Y45.742
X9.94 Y45.262
X9.399 Y44.761
X8.874 Y44.242
X8.367 Y43.706
X7.875 Y43.156
X7.401 Y42.591
X6.944 Y42.012
X6.504 Y41.419
X6.286 Y41.107
X6.213 Y40.976
X6.168 Y40.833
X6.153 Y40.683
Y38.373
G3 X6.707 Y38.173 I0.317 J0.011
G1 X6.727 Y38.195
X14.621 Y47.036
X14.666 Y47.085
G3 X14.44 Y47.614 I-0.237 J0.211
G1 X12.261
X12.065 Y47.604
X11.846 Y47.575
X11.596 Y47.522
X11.309 Y47.436
X10.955 Y47.298
X10.544 Y47.098
X10.032 Y46.797
X9.428 Y46.373
X8.857 Y45.905
X8.312 Y45.409
X7.787 Y44.89
X7.282 Y44.352
X6.793 Y43.799
X6.322 Y43.231
X6.31 Y43.216
X6.224 Y43.077
X6.171 Y42.922
X6.153 Y42.759
G3 X6.666 Y42.52 I0.317 J0.011
G1 X6.734 Y42.574
X12.438 Y47.04
X12.446 Y47.047
G3 X12.261 Y47.614 I-0.196 J0.25
G1 X10.418
X10.158 Y47.601
X9.959 Y47.575
X9.74 Y47.528
X9.471 Y47.447
X9.17 Y47.33
X8.805 Y47.153
X8.378 Y46.901
X7.84 Y46.524
X7.272 Y46.052
X6.736 Y45.545
X6.359 Y45.152
X6.247 Y45.
X6.177 Y44.826
X6.153 Y44.639
G3 X6.647 Y44.386 I0.317 J0.011
G1 X6.738 Y44.448
X10.584 Y47.033
G3 X10.418 Y47.614 I-0.177 J0.263
G1 X8.574
X8.375 Y47.604
X8.197 Y47.581
X7.982 Y47.535
X7.73 Y47.459
X7.461 Y47.354
X7.122 Y47.19
X6.752 Y46.972
X6.468 Y46.772
X6.336 Y46.654
X6.236 Y46.508
X6.174 Y46.342
X6.153 Y46.166
G3 X6.62 Y45.897 I0.317 J0.011
G1 X6.745 Y45.964
X8.713 Y47.017
G3 X8.574 Y47.614 I-0.15 J0.28
G1 X6.898
X6.742 Y47.606
X6.555 Y47.553
X6.39 Y47.45
X6.262 Y47.303
X6.181 Y47.127
X6.153 Y46.934
G3 X6.674 Y46.702 I0.317 J0.011
G1 X6.732 Y46.751
X7.076 Y47.04
X7.092 Y47.054
G3 X6.898 Y47.614 I-0.204 J0.243
G1 X6.479
X6.438 Y47.61
X6.396 Y47.601
X6.367 Y47.591
X6.337 Y47.578
X6.308 Y47.56
X6.279 Y47.538
X6.228 Y47.487
X6.206 Y47.458
X6.189 Y47.429
X6.175 Y47.4
X6.165 Y47.371
X6.156 Y47.329
X6.153 Y47.287
Y40.683
G3 X6.726 Y40.506 I0.317 J0.011
G1 X6.768 Y40.563 Z36.517
X6.807 Y40.618 Z36.541
X6.843 Y40.666 Z36.578
X6.873 Y40.707 Z36.629
X6.895 Y40.737 Z36.689
X6.909 Y40.756 Z36.756
X6.914 Y40.762 Z36.827
G0 Z43.009
X6.536 Y23.93
Z37.144
G1 Z36.827 F1016.
X6.532 Y23.923 Z36.756
X6.52 Y23.903 Z36.689
X6.501 Y23.87 Z36.629
X6.475 Y23.827 Z36.578
X6.444 Y23.775 Z36.541
X6.41 Y23.717 Z36.517
X6.374 Y23.657 Z36.509
G3 X6.153 Y22.903 I1.36 J-0.809
G1 Y19.216
X6.177 Y18.731
X6.225 Y18.363
X6.322 Y17.908
X6.499 Y17.318
X6.767 Y16.631
X7.083 Y15.964
X7.434 Y15.315
X7.812 Y14.682
X8.214 Y14.063
X8.637 Y13.459
X9.081 Y12.87
X9.545 Y12.296
X10.027 Y11.737
X10.527 Y11.195
X11.045 Y10.669
X11.579 Y10.16
X12.13 Y9.669
X12.696 Y9.196
X13.277 Y8.742
X13.874 Y8.307
X14.484 Y7.892
X15.107 Y7.497
X15.743 Y7.123
X16.391 Y6.77
X17.049 Y6.437
X17.694 Y6.138
X17.794 Y6.1
X17.899 Y6.077
X18.006 Y6.069
X21.763
G3 X21.939 Y6.642 I-0.011 J0.317
G1 X21.882 Y6.684 Z36.517
X21.828 Y6.724 Z36.541
X21.78 Y6.759 Z36.578
X21.739 Y6.789 Z36.629
X21.709 Y6.811 Z36.689
X21.69 Y6.825 Z36.756
X21.683 Y6.83 Z36.827
G0 Z43.009
X6.536 Y20.243
Z37.144
G1 Z36.827 F1016.
X6.532 Y20.236 Z36.756
X6.52 Y20.216 Z36.689
X6.501 Y20.183 Z36.629
X6.475 Y20.14 Z36.578
X6.444 Y20.088 Z36.541
X6.41 Y20.03 Z36.517
X6.374 Y19.97 Z36.509
G3 X6.153 Y19.216 I1.36 J-0.809
G1 Y16.367
X6.165 Y16.116
X6.201 Y15.847
X6.274 Y15.504
X6.395 Y15.1
X6.597 Y14.58
X6.917 Y13.921
X7.291 Y13.285
X7.701 Y12.672
X8.139 Y12.078
X8.598 Y11.5
X9.077 Y10.939
X9.575 Y10.395
X10.09 Y9.866
X10.621 Y9.354
X11.168 Y8.859
X11.73 Y8.381
X12.307 Y7.921
X12.898 Y7.479
X13.502 Y7.056
X14.119 Y6.651
X14.748 Y6.266
X14.922 Y6.166
X15.038 Y6.113
X15.161 Y6.08
X15.289 Y6.069
X18.006
G3 X18.204 Y6.626 I-0.011 J0.317
G1 X18.184 Y6.643
X6.196 Y17.092
G2 X6.35 Y17.269 I0.077 J0.089
X6.374 Y17.121 I-0.077 J-0.089
G3 X6.153 Y16.367 I1.36 J-0.809
G1 Y14.021
X6.16 Y13.871
X6.191 Y13.638
X6.253 Y13.349
X6.349 Y13.028
X6.51 Y12.616
X6.748 Y12.127
X7.119 Y11.499
X7.543 Y10.895
X8.002 Y10.317
X8.485 Y9.76
X8.989 Y9.221
X9.511 Y8.7
X10.05 Y8.195
X10.603 Y7.707
X11.171 Y7.236
X11.752 Y6.782
X12.347 Y6.345
X12.558 Y6.2
X12.688 Y6.128
X12.83 Y6.084
X12.978 Y6.069
X15.289
G3 X15.486 Y6.626 I-0.011 J0.317
G1 X15.466 Y6.643
X6.732 Y14.203
X6.678 Y14.25
G3 X6.153 Y14.021 I-0.208 J-0.24
G1 Y12.01
X6.161 Y11.845
X6.189 Y11.627
X6.241 Y11.384
X6.326 Y11.101
X6.461 Y10.756
X6.656 Y10.354
X6.949 Y9.856
X7.373 Y9.252
X7.842 Y8.683
X8.341 Y8.139
X8.862 Y7.617
X9.402 Y7.114
X9.957 Y6.629
X10.434 Y6.237
X10.576 Y6.145
X10.735 Y6.088
X10.904 Y6.069
G3 X11.142 Y6.583 I-0.011 J0.317
G1 X11.089 Y6.65
X6.726 Y12.187
X6.719 Y12.195
G3 X6.153 Y12.01 I-0.249 J-0.197
G1 Y10.166
X6.163 Y9.957
X6.189 Y9.763
X6.235 Y9.545
X6.315 Y9.278
X6.43 Y8.982
X6.605 Y8.622
X6.851 Y8.204
X7.22 Y7.678
X7.692 Y7.111
X8.2 Y6.576
X8.517 Y6.273
X8.668 Y6.162
X8.842 Y6.093
X9.028 Y6.069
G3 X9.28 Y6.564 I-0.011 J0.317
G1 X9.219 Y6.654
X6.733 Y10.333
G3 X6.153 Y10.166 I-0.263 J-0.178
G1 Y8.323
X6.16 Y8.173
X6.186 Y7.992
X6.235 Y7.772
X6.312 Y7.523
X6.421 Y7.249
X6.589 Y6.911
X6.813 Y6.539
X6.927 Y6.378
X7.092 Y6.212
X7.299 Y6.106
X7.53 Y6.069
G3 X7.798 Y6.538 I-0.011 J0.317
G1 X7.731 Y6.66
X6.749 Y8.464
G3 X6.153 Y8.323 I-0.279 J-0.152
G1 Y6.723
X6.16 Y6.573
X6.228 Y6.374
X6.36 Y6.212
X6.541 Y6.106
X6.747 Y6.069
G3 X6.982 Y6.587 I-0.011 J0.317
G1 X6.931 Y6.649
X6.726 Y6.9
X6.716 Y6.913
G3 X6.153 Y6.723 I-0.246 J-0.201
G1 Y6.396
X6.156 Y6.354
X6.165 Y6.312
X6.175 Y6.283
X6.189 Y6.254
X6.206 Y6.225
X6.228 Y6.195
X6.279 Y6.144
X6.308 Y6.122
X6.337 Y6.105
X6.367 Y6.092
X6.396 Y6.082
X6.438 Y6.072
X6.479 Y6.069
X12.978
G3 X13.284 Y6.366 I-0.011 J0.317
G1 X13.285 Y6.386 Z36.51
X13.271 Y6.44 Z36.518
X13.258 Y6.491 Z36.537
X13.246 Y6.538 Z36.564
X13.215 Y6.573 Z36.603
X13.19 Y6.603 Z36.651
X13.171 Y6.624 Z36.706
X13.159 Y6.638 Z36.765
X13.155 Y6.642 Z36.826
G0 Z43.009
X28.208 Y26.048
Z39.009
G3 X25.642 Y27.634 Z38.844 I-1.283 J0.793 F1016.
X28.208 Y26.048 Z38.678 I1.283 J-0.793
X25.642 Y27.634 Z38.513 I-1.283 J0.793
X28.208 Y26.048 Z38.347 I1.283 J-0.793
X25.642 Y27.634 Z38.182 I-1.283 J0.793
X28.208 Y26.048 Z38.016 I1.283 J-0.793
X25.642 Y27.634 Z37.851 I-1.283 J0.793
X28.208 Y26.048 Z37.685 I1.283 J-0.793
X25.642 Y27.634 Z37.52 I-1.283 J0.793
X28.208 Y26.048 Z37.355 I1.283 J-0.793
X25.642 Y27.634 Z37.189 I-1.283 J0.793
X28.208 Y26.048 Z37.024 I1.283 J-0.793
X25.642 Y27.634 Z36.858 I-1.283 J0.793
X28.208 Y26.048 Z36.693 I1.283 J-0.793
X25.642 Y27.634 Z36.527 I-1.283 J0.793
X28.208 Y26.048 Z36.362 I1.283 J-0.793
X25.642 Y27.634 Z36.196 I-1.283 J0.793
X28.208 Y26.048 Z36.031 I1.283 J-0.793
X25.642 Y27.634 Z35.866 I-1.283 J0.793
X28.208 Y26.048 Z35.7 I1.283 J-0.793
X25.642 Y27.634 Z35.535 I-1.283 J0.793
X28.208 Y26.048 Z35.369 I1.283 J-0.793
X25.642 Y27.634 Z35.204 I-1.283 J0.793
X28.208 Y26.048 Z35.038 I1.283 J-0.793
X28.433 Y26.841 Z35.009 I-1.283 J0.793
X25.417 I-1.508 J0.
X28.433 I1.508 J0.
G1 X28.452 Y27.579
X28.474 Y27.668
X28.489 Y27.817
X28.477 Y27.967
X28.441 Y28.113
X28.386 Y28.252
X28.315 Y28.384
X28.229 Y28.507
X28.131 Y28.621
X28.022 Y28.724
X27.904 Y28.817
X27.779 Y28.899
X27.647 Y28.97
X27.508 Y29.03
X27.362 Y29.081
X27.208 Y29.12
X27.047 Y29.147
X26.882 Y29.162
X26.714 Y29.164
X26.543 Y29.152
X26.371 Y29.126
X26.2 Y29.085
X26.03 Y29.03
X25.864 Y28.962
X25.702 Y28.879
X25.546 Y28.783
X25.398 Y28.674
X25.258 Y28.552
X25.127 Y28.419
X25.007 Y28.275
X24.898 Y28.122
X24.801 Y27.959
X24.718 Y27.789
X24.648 Y27.612
X24.593 Y27.43
X24.552 Y27.243
X24.527 Y27.053
X24.517 Y26.862
X24.522 Y26.67
X24.542 Y26.479
X24.578 Y26.29
X24.629 Y26.104
X24.695 Y25.923
X24.775 Y25.747
X24.869 Y25.579
X24.976 Y25.418
X25.096 Y25.266
X25.228 Y25.125
X25.371 Y24.994
X25.524 Y24.876
X25.686 Y24.769
X25.856 Y24.677
X26.033 Y24.598
X26.215 Y24.533
X26.403 Y24.484
X26.593 Y24.449
X26.786 Y24.431
X26.98 Y24.427
X27.173 Y24.439
X27.365 Y24.467
X27.554 Y24.51
X27.739 Y24.568
X27.919 Y24.641
X28.093 Y24.727
X28.258 Y24.828
X28.416 Y24.941
X28.563 Y25.067
X28.7 Y25.204
X28.826 Y25.352
X28.939 Y25.509
X29.044 Y25.682
X29.155 Y25.904
X29.302 Y26.269
X29.409 Y26.612
X29.473 Y26.895
X29.51 Y27.15
X29.524 Y27.387
X29.52 Y27.611
X29.499 Y27.824
X29.462 Y28.031
X29.408 Y28.233
X29.338 Y28.43
X29.253 Y28.62
X29.153 Y28.803
X29.038 Y28.978
X28.909 Y29.145
X28.765 Y29.302
X28.607 Y29.449
X28.435 Y29.585
X28.251 Y29.708
X28.054 Y29.817
X27.846 Y29.912
X27.628 Y29.991
X27.402 Y30.053
X27.168 Y30.097
X26.928 Y30.122
X26.684 Y30.129
X26.438 Y30.115
X26.191 Y30.082
X25.945 Y30.028
X25.702 Y29.954
X25.464 Y29.86
X25.233 Y29.747
X25.011 Y29.614
X24.798 Y29.464
X24.597 Y29.295
X24.409 Y29.11
X24.236 Y28.91
X24.079 Y28.695
X23.939 Y28.468
X23.817 Y28.229
X23.714 Y27.981
X23.632 Y27.724
X23.57 Y27.461
X23.529 Y27.194
X23.51 Y26.923
X23.513 Y26.651
X23.538 Y26.38
X23.584 Y26.111
X23.652 Y25.847
X23.741 Y25.588
X23.85 Y25.338
X23.98 Y25.097
X24.128 Y24.866
X24.295 Y24.649
X24.478 Y24.445
X24.678 Y24.256
X24.892 Y24.085
X25.119 Y23.93
X25.358 Y23.795
X25.607 Y23.679
X25.865 Y23.583
X26.129 Y23.508
X26.399 Y23.455
X26.672 Y23.424
X26.947 Y23.414
X27.222 Y23.427
X27.495 Y23.462
X27.764 Y23.518
X28.028 Y23.596
X28.285 Y23.695
X28.533 Y23.815
X28.77 Y23.953
X28.996 Y24.111
X29.21 Y24.287
X29.416 Y24.486
X29.63 Y24.73
X29.832 Y25.001
X30.018 Y25.298
X30.183 Y25.614
X30.32 Y25.939
X30.428 Y26.266
X30.507 Y26.589
X30.558 Y26.909
X30.583 Y27.226
Y27.538
X30.557 Y27.846
X30.508 Y28.147
X30.435 Y28.441
X30.339 Y28.727
X30.221 Y29.003
X30.082 Y29.268
X29.921 Y29.522
X29.74 Y29.763
X29.539 Y29.989
X29.32 Y30.2
X29.083 Y30.394
X28.829 Y30.569
X28.559 Y30.725
X28.275 Y30.86
X27.979 Y30.973
X27.672 Y31.062
X27.357 Y31.127
X27.034 Y31.167
X26.707 Y31.181
X26.377 Y31.168
X26.047 Y31.129
X25.719 Y31.063
X25.396 Y30.97
X25.079 Y30.851
X24.77 Y30.706
X24.473 Y30.536
X24.189 Y30.341
X23.92 Y30.123
X23.668 Y29.883
X23.435 Y29.623
X23.224 Y29.344
X23.034 Y29.047
X22.869 Y28.736
X22.728 Y28.411
X22.614 Y28.075
X22.527 Y27.73
X22.468 Y27.379
X22.437 Y27.023
X22.435 Y26.665
X22.461 Y26.308
X22.517 Y25.954
X22.6 Y25.605
X22.711 Y25.263
X22.85 Y24.931
X23.015 Y24.611
X23.205 Y24.305
X23.419 Y24.015
X23.656 Y23.743
X23.915 Y23.491
X24.192 Y23.261
X24.488 Y23.053
X24.799 Y22.869
X25.124 Y22.712
X25.46 Y22.58
X25.807 Y22.476
X26.16 Y22.401
X26.519 Y22.353
X26.88 Y22.335
X27.242 Y22.346
X27.601 Y22.386
X27.956 Y22.454
X28.305 Y22.551
X28.645 Y22.675
X28.974 Y22.827
X29.292 Y23.006
X29.604 Y23.216
X29.908 Y23.458
X30.2 Y23.731
X30.476 Y24.036
X30.732 Y24.367
X30.962 Y24.721
X31.163 Y25.092
X31.333 Y25.476
X31.47 Y25.87
X31.575 Y26.269
X31.646 Y26.672
X31.685 Y27.076
X31.69 Y27.478
X31.664 Y27.877
X31.606 Y28.269
X31.518 Y28.654
X31.399 Y29.028
X31.251 Y29.391
X31.074 Y29.741
X30.87 Y30.076
X30.639 Y30.393
X30.383 Y30.692
X30.103 Y30.97
X29.8 Y31.226
X29.475 Y31.458
X29.132 Y31.665
X28.77 Y31.844
X28.393 Y31.995
X28.003 Y32.115
X27.602 Y32.205
X27.193 Y32.262
X26.778 Y32.286
X26.36 Y32.277
X25.942 Y32.234
X25.526 Y32.158
X25.115 Y32.047
X24.713 Y31.904
X24.322 Y31.727
X23.944 Y31.519
X23.583 Y31.281
X23.24 Y31.012
X22.919 Y30.717
X22.622 Y30.395
X22.351 Y30.049
X22.108 Y29.682
X21.894 Y29.295
X21.712 Y28.891
X21.562 Y28.473
X21.446 Y28.044
X21.365 Y27.606
X21.319 Y27.161
X21.308 Y26.714
X21.334 Y26.267
X21.396 Y25.823
X21.493 Y25.385
X21.625 Y24.955
X21.792 Y24.537
X21.991 Y24.134
X22.223 Y23.748
X22.485 Y23.381
X22.775 Y23.036
X23.093 Y22.716
X23.435 Y22.421
X23.8 Y22.156
X24.186 Y21.92
X24.589 Y21.716
X25.007 Y21.545
X25.437 Y21.408
X25.878 Y21.306
X26.325 Y21.24
X26.776 Y21.209
X27.228 Y21.215
X27.679 Y21.258
X28.124 Y21.336
X28.563 Y21.45
X28.993 Y21.6
X29.413 Y21.785
X29.822 Y22.006
X30.218 Y22.263
X30.599 Y22.556
X30.962 Y22.886
X31.303 Y23.248
X31.616 Y23.641
X31.899 Y24.06
X32.148 Y24.502
X32.36 Y24.961
X32.534 Y25.435
X32.669 Y25.919
X32.764 Y26.409
X32.819 Y26.903
X32.834 Y27.397
X32.81 Y27.888
X32.747 Y28.374
X32.645 Y28.851
X32.506 Y29.317
X32.33 Y29.769
X32.118 Y30.206
X31.873 Y30.624
X31.594 Y31.021
X31.283 Y31.395
X30.943 Y31.745
X30.575 Y32.066
X30.18 Y32.359
X29.762 Y32.619
X29.322 Y32.847
X28.863 Y33.039
X28.388 Y33.194
X27.899 Y33.312
X27.401 Y33.39
X26.895 Y33.428
X26.385 Y33.425
X25.875 Y33.382
X25.368 Y33.297
X24.867 Y33.171
X24.376 Y33.004
X23.897 Y32.798
X23.436 Y32.554
X22.993 Y32.272
X22.573 Y31.954
X22.179 Y31.602
X21.813 Y31.219
X21.479 Y30.807
X21.177 Y30.368
X20.912 Y29.905
X20.683 Y29.421
X20.494 Y28.919
X20.346 Y28.403
X20.239 Y27.876
X20.175 Y27.341
X20.154 Y26.802
X20.176 Y26.262
X20.241 Y25.725
X20.35 Y25.195
X20.501 Y24.675
X20.693 Y24.168
X20.926 Y23.677
X21.197 Y23.207
X21.505 Y22.76
X21.849 Y22.338
X22.225 Y21.946
X22.632 Y21.585
X23.067 Y21.257
X23.526 Y20.966
X24.008 Y20.712
X24.508 Y20.497
X25.025 Y20.324
X25.553 Y20.192
X26.091 Y20.103
X26.634 Y20.058
X27.179 Y20.056
X27.723 Y20.098
X28.262 Y20.184
X28.795 Y20.313
X29.318 Y20.486
X29.83 Y20.701
X30.329 Y20.96
X30.81 Y21.262
X31.272 Y21.605
X31.709 Y21.989
X32.118 Y22.41
X32.495 Y22.866
X32.835 Y23.354
X33.136 Y23.868
X33.395 Y24.404
X33.609 Y24.959
X33.778 Y25.529
X33.9 Y26.108
X33.975 Y26.693
X34.003 Y27.281
X33.984 Y27.866
X33.918 Y28.447
X33.806 Y29.018
X33.648 Y29.578
X33.447 Y30.122
X33.203 Y30.648
X32.917 Y31.153
X32.592 Y31.634
X32.228 Y32.087
X31.829 Y32.511
X31.395 Y32.902
X30.931 Y33.258
X30.438 Y33.577
X29.919 Y33.856
X29.377 Y34.093
X28.816 Y34.287
X28.239 Y34.436
X27.649 Y34.538
X27.051 Y34.593
X26.447 Y34.6
X25.843 Y34.558
X25.242 Y34.468
X24.648 Y34.329
X24.065 Y34.142
X23.497 Y33.908
X22.947 Y33.628
X22.421 Y33.305
X21.92 Y32.938
X21.449 Y32.532
X21.011 Y32.088
X20.609 Y31.609
X20.246 Y31.099
X19.925 Y30.559
X19.647 Y29.995
X19.415 Y29.409
X19.23 Y28.805
X19.095 Y28.188
X19.009 Y27.56
X18.974 Y26.928
X18.989 Y26.293
X19.056 Y25.661
X19.173 Y25.036
X19.34 Y24.422
X19.557 Y23.823
X19.82 Y23.243
X20.13 Y22.685
X20.483 Y22.154
X20.878 Y21.653
X21.313 Y21.185
X21.783 Y20.753
X22.287 Y20.36
X22.821 Y20.009
X23.382 Y19.701
X23.965 Y19.44
X24.568 Y19.226
X25.186 Y19.061
X25.816 Y18.947
X26.452 Y18.883
X27.093 Y18.87
X27.733 Y18.909
X28.369 Y19.
X28.999 Y19.142
X29.618 Y19.334
X30.224 Y19.578
X30.814 Y19.872
X31.383 Y20.215
X31.926 Y20.606
X32.441 Y21.043
X32.922 Y21.522
X33.366 Y22.042
X33.768 Y22.598
X34.125 Y23.187
X34.435 Y23.802
X34.693 Y24.441
X34.9 Y25.098
X35.053 Y25.768
X35.152 Y26.446
X35.195 Y27.128
X35.184 Y27.81
X35.118 Y28.487
X34.998 Y29.156
X34.826 Y29.811
X34.601 Y30.45
X34.326 Y31.069
X34.003 Y31.663
X33.632 Y32.23
X33.217 Y32.765
X32.76 Y33.267
X32.262 Y33.731
X31.729 Y34.154
X31.161 Y34.534
X30.563 Y34.868
X29.938 Y35.155
X29.291 Y35.39
X28.624 Y35.574
X27.942 Y35.704
X27.25 Y35.779
X26.552 Y35.798
X25.852 Y35.762
X25.155 Y35.668
X24.465 Y35.519
X23.788 Y35.314
X23.127 Y35.055
X22.487 Y34.742
X21.873 Y34.378
X21.288 Y33.965
X20.737 Y33.506
X20.223 Y33.002
X19.751 Y32.457
X19.323 Y31.875
X18.942 Y31.26
X18.611 Y30.615
X18.333 Y29.944
X18.109 Y29.252
X17.941 Y28.543
X17.83 Y27.823
X17.777 Y27.094
X17.784 Y26.364
X17.848 Y25.635
X17.971 Y24.914
X18.152 Y24.204
X18.39 Y23.51
X18.682 Y22.837
X19.028 Y22.19
X19.424 Y21.572
X19.87 Y20.988
X20.36 Y20.441
X20.894 Y19.935
X21.466 Y19.473
X22.074 Y19.059
X22.713 Y18.694
X23.379 Y18.383
X24.069 Y18.125
X24.777 Y17.924
X25.499 Y17.78
X26.231 Y17.695
X26.967 Y17.668
X27.704 Y17.701
X28.436 Y17.793
X29.159 Y17.943
X29.867 Y18.15
X30.556 Y18.413
X31.223 Y18.729
X31.863 Y19.096
X32.472 Y19.513
X33.047 Y19.975
X33.585 Y20.479
X34.083 Y21.024
X34.539 Y21.604
X34.949 Y22.217
X35.312 Y22.86
X35.626 Y23.528
X35.888 Y24.217
X36.098 Y24.924
X36.254 Y25.645
X36.356 Y26.376
X36.401 Y27.113
X36.39 Y27.85
X36.322 Y28.585
X36.197 Y29.312
X36.018 Y30.028
X35.784 Y30.728
X35.497 Y31.408
X35.159 Y32.064
X34.772 Y32.692
X34.339 Y33.289
X33.861 Y33.851
X33.341 Y34.375
X32.783 Y34.858
X32.191 Y35.297
X31.566 Y35.69
X30.914 Y36.035
X30.238 Y36.33
X29.541 Y36.573
X28.828 Y36.764
X28.103 Y36.9
X27.37 Y36.98
X26.632 Y37.005
X25.895 Y36.975
X25.162 Y36.889
X24.438 Y36.75
X23.725 Y36.559
X23.029 Y36.315
X22.352 Y36.022
X21.698 Y35.68
X21.07 Y35.292
X20.473 Y34.86
X19.908 Y34.385
X19.381 Y33.869
X18.893 Y33.315
X18.446 Y32.728
X18.044 Y32.11
X17.686 Y31.464
X17.375 Y30.795
X17.113 Y30.106
X16.9 Y29.399
X16.737 Y28.679
X16.628 Y27.95
X16.573 Y27.214
X16.572 Y26.476
X16.623 Y25.74
X16.726 Y25.01
X16.881 Y24.288
X17.086 Y23.579
X17.34 Y22.887
X17.643 Y22.214
X17.993 Y21.564
X18.39 Y20.943
X18.831 Y20.351
X19.314 Y19.793
X19.834 Y19.27
X20.39 Y18.785
X20.978 Y18.34
X21.597 Y17.937
X22.241 Y17.579
X22.911 Y17.268
X23.601 Y17.008
X24.308 Y16.798
X25.029 Y16.638
X25.759 Y16.53
X26.494 Y16.473
X27.232 Y16.467
X27.968 Y16.513
X28.7 Y16.611
X29.422 Y16.762
X30.131 Y16.965
X30.825 Y17.217
X31.499 Y17.517
X32.15 Y17.863
X32.777 Y18.252
X33.376 Y18.683
X33.945 Y19.154
X34.48 Y19.662
X34.978 Y20.206
X35.438 Y20.783
X35.857 Y21.39
X36.235 Y22.024
X36.57 Y22.681
X36.861 Y23.359
X37.107 Y24.055
X37.306 Y24.765
X37.457 Y25.487
X37.558 Y26.218
X37.607 Y26.954
X37.606 Y27.692
X37.555 Y28.428
X37.455 Y29.159
X37.306 Y29.882
X37.108 Y30.593
X36.864 Y31.289
X36.573 Y31.967
X36.235 Y32.622
X35.852 Y33.253
X35.427 Y33.856
X34.962 Y34.43
X34.46 Y34.97
X33.924 Y35.476
X33.354 Y35.946
X32.755 Y36.376
X32.128 Y36.765
X31.476 Y37.11
X30.801 Y37.409
X30.108 Y37.662
X29.4 Y37.869
X28.679 Y38.028
X27.95 Y38.138
X27.215 Y38.2
X26.477 Y38.214
X25.74 Y38.178
X25.007 Y38.093
X24.282 Y37.958
X23.567 Y37.775
X22.865 Y37.547
X22.18 Y37.273
X21.514 Y36.956
X20.869 Y36.598
X20.249 Y36.198
X19.655 Y35.76
X19.092 Y35.283
X18.563 Y34.769
X18.07 Y34.22
X17.613 Y33.641
X17.194 Y33.034
X16.814 Y32.401
X16.475 Y31.746
X16.178 Y31.07
X15.924 Y30.378
X15.715 Y29.67
X15.553 Y28.95
X15.439 Y28.221
X15.373 Y27.487
X15.355 Y26.749
X15.384 Y26.012
X15.459 Y25.278
X15.58 Y24.55
X15.746 Y23.831
X15.957 Y23.124
X16.213 Y22.432
X16.514 Y21.758
X16.858 Y21.106
X17.244 Y20.477
X17.669 Y19.874
X18.132 Y19.299
X18.63 Y18.755
X19.161 Y18.242
X19.722 Y17.764
X20.313 Y17.322
X20.931 Y16.919
X21.574 Y16.557
X22.239 Y16.238
X22.924 Y15.963
X23.624 Y15.731
X24.338 Y15.544
X25.062 Y15.403
X25.794 Y15.306
X26.53 Y15.256
X27.268 Y15.252
X28.004 Y15.296
X28.736 Y15.388
X29.461 Y15.527
X30.175 Y15.712
X30.876 Y15.941
X31.562 Y16.213
X32.23 Y16.527
X32.877 Y16.881
X33.502 Y17.274
X34.101 Y17.705
X34.671 Y18.173
X35.211 Y18.675
X35.719 Y19.21
X36.194 Y19.775
X36.633 Y20.368
X37.036 Y20.986
X37.402 Y21.627
X37.729 Y22.288
X38.016 Y22.968
X38.261 Y23.664
X38.463 Y24.373
X38.621 Y25.094
X38.734 Y25.823
X38.803 Y26.558
X38.826 Y27.295
X38.805 Y28.033
X38.739 Y28.768
X38.63 Y29.497
X38.477 Y30.219
X38.279 Y30.93
X38.037 Y31.627
X37.753 Y32.308
X37.427 Y32.97
X37.061 Y33.61
X36.657 Y34.228
X36.216 Y34.819
X35.74 Y35.383
X35.232 Y35.918
X34.693 Y36.422
X34.123 Y36.891
X33.526 Y37.324
X32.903 Y37.719
X32.257 Y38.076
X31.591 Y38.393
X30.907 Y38.669
X30.207 Y38.904
X29.495 Y39.097
X28.773 Y39.247
X28.043 Y39.354
X27.308 Y39.416
X26.57 Y39.433
X25.833 Y39.405
X25.098 Y39.332
X24.37 Y39.215
X23.649 Y39.056
X22.94 Y38.855
X22.243 Y38.613
X21.561 Y38.33
X20.896 Y38.01
X20.252 Y37.65
X19.63 Y37.253
X19.034 Y36.819
X18.464 Y36.35
X17.923 Y35.848
X17.413 Y35.315
X16.935 Y34.753
X16.49 Y34.165
X16.08 Y33.551
X15.705 Y32.916
X15.368 Y32.26
X15.07 Y31.585
X14.811 Y30.894
X14.594 Y30.189
X14.418 Y29.472
X14.285 Y28.746
X14.195 Y28.014
X14.147 Y27.278
X14.141 Y26.54
X14.178 Y25.803
X14.256 Y25.069
X14.377 Y24.342
X14.54 Y23.622
X14.744 Y22.913
X14.989 Y22.217
X15.275 Y21.537
X15.599 Y20.874
X15.962 Y20.232
X16.36 Y19.611
X16.794 Y19.014
X17.26 Y18.442
X17.759 Y17.898
X18.289 Y17.385
X18.847 Y16.903
X19.433 Y16.453
X20.043 Y16.039
X20.676 Y15.66
X21.331 Y15.319
X22.003 Y15.017
X22.692 Y14.753
X23.395 Y14.529
X24.11 Y14.345
X24.834 Y14.203
X25.565 Y14.103
X26.301 Y14.045
X27.038 Y14.03
X27.775 Y14.058
X28.51 Y14.128
X29.239 Y14.241
X29.961 Y14.394
X30.673 Y14.589
X31.372 Y14.823
X32.058 Y15.096
X32.726 Y15.409
X33.376 Y15.758
X34.005 Y16.144
X34.611 Y16.564
X35.193 Y17.018
X35.748 Y17.504
X36.276 Y18.02
X36.774 Y18.564
X37.241 Y19.135
X37.677 Y19.73
X38.08 Y20.348
X38.447 Y20.988
X38.779 Y21.647
X39.074 Y22.324
X39.331 Y23.015
X39.55 Y23.72
X39.73 Y24.435
X39.869 Y25.16
X39.969 Y25.891
X40.028 Y26.626
X40.047 Y27.364
X40.026 Y28.101
X39.962 Y28.836
X39.858 Y29.567
X39.713 Y30.29
X39.529 Y31.005
X39.304 Y31.708
X39.042 Y32.397
X38.741 Y33.071
X38.403 Y33.727
X38.03 Y34.363
X37.622 Y34.978
X37.181 Y35.57
X36.708 Y36.135
X36.204 Y36.674
X35.67 Y37.184
X35.11 Y37.664
X34.524 Y38.112
X33.914 Y38.527
X33.282 Y38.908
X32.63 Y39.253
X31.96 Y39.563
X31.275 Y39.836
X30.575 Y40.07
X29.864 Y40.265
X29.142 Y40.421
X28.414 Y40.537
X27.68 Y40.613
X26.943 Y40.649
X26.205 Y40.644
X25.469 Y40.598
X24.736 Y40.513
X24.008 Y40.389
X23.289 Y40.226
X22.579 Y40.024
X21.881 Y39.784
X21.198 Y39.507
X20.53 Y39.194
X19.879 Y38.846
X19.248 Y38.463
X18.639 Y38.047
X18.053 Y37.598
X17.492 Y37.119
X16.958 Y36.61
X16.451 Y36.074
X15.974 Y35.511
X15.528 Y34.924
X15.114 Y34.313
X14.733 Y33.681
X14.385 Y33.03
X14.073 Y32.362
X13.796 Y31.678
X13.556 Y30.981
X13.353 Y30.271
X13.188 Y29.552
X13.061 Y28.825
X12.973 Y28.093
X12.924 Y27.356
X12.915 Y26.619
X12.945 Y25.882
X13.014 Y25.147
X13.121 Y24.417
X13.266 Y23.694
X13.449 Y22.979
X13.67 Y22.275
X13.927 Y21.583
X14.22 Y20.906
X14.548 Y20.245
X14.911 Y19.603
X15.308 Y18.981
X15.737 Y18.381
X16.197 Y17.804
X16.687 Y17.252
X17.206 Y16.727
X17.75 Y16.23
X18.321 Y15.762
X18.915 Y15.324
X19.531 Y14.918
X20.167 Y14.545
X20.822 Y14.205
X21.495 Y13.902
X22.183 Y13.635
X22.883 Y13.404
X23.595 Y13.21
X24.316 Y13.054
X25.045 Y12.936
X25.778 Y12.857
X26.515 Y12.815
X27.253 Y12.812
X27.99 Y12.848
X28.724 Y12.922
X29.453 Y13.034
X30.175 Y13.186
X30.888 Y13.376
X31.59 Y13.602
X32.28 Y13.864
X32.955 Y14.162
X33.614 Y14.493
X34.255 Y14.859
X34.877 Y15.256
X35.477 Y15.685
X36.055 Y16.144
X36.609 Y16.631
X37.137 Y17.147
X37.637 Y17.689
X38.109 Y18.256
X38.552 Y18.846
X38.965 Y19.457
X39.347 Y20.089
X39.696 Y20.739
X40.012 Y21.405
X40.295 Y22.087
X40.543 Y22.781
X40.757 Y23.488
X40.934 Y24.204
X41.074 Y24.928
X41.177 Y25.659
X41.242 Y26.394
X41.27 Y27.131
X41.261 Y27.869
X41.214 Y28.605
X41.13 Y29.338
X41.009 Y30.066
X40.852 Y30.787
X40.659 Y31.499
X40.429 Y32.2
X40.165 Y32.889
X39.864 Y33.563
X39.53 Y34.221
X39.162 Y34.86
X38.763 Y35.481
X38.333 Y36.08
X37.872 Y36.657
X37.384 Y37.21
X36.868 Y37.737
X36.326 Y38.238
X35.76 Y38.711
X35.171 Y39.155
X34.56 Y39.569
X33.929 Y39.951
X33.279 Y40.3
X32.612 Y40.615
X31.93 Y40.897
X31.235 Y41.145
X30.528 Y41.357
X29.812 Y41.533
X29.087 Y41.673
X28.357 Y41.777
X27.622 Y41.845
X26.885 Y41.875
X26.147 Y41.869
X25.411 Y41.825
X24.677 Y41.744
X23.949 Y41.626
X23.227 Y41.472
X22.514 Y41.284
X21.811 Y41.06
X21.12 Y40.802
X20.442 Y40.51
X19.779 Y40.186
X19.133 Y39.83
X18.505 Y39.442
X17.897 Y39.024
X17.311 Y38.576
X16.748 Y38.099
X16.209 Y37.595
X15.696 Y37.065
X15.21 Y36.51
X14.751 Y35.933
X14.321 Y35.333
X13.92 Y34.714
X13.55 Y34.075
X13.211 Y33.42
X12.904 Y32.749
X12.63 Y32.064
X12.39 Y31.366
X12.185 Y30.658
X12.015 Y29.94
X11.88 Y29.214
X11.781 Y28.483
X11.718 Y27.748
X11.691 Y27.011
X11.699 Y26.273
X11.743 Y25.536
X11.822 Y24.803
X11.937 Y24.074
X12.086 Y23.351
X12.27 Y22.637
X12.489 Y21.932
X12.742 Y21.239
X13.029 Y20.56
X13.349 Y19.895
X13.7 Y19.246
X14.083 Y18.615
X14.496 Y18.004
X14.937 Y17.413
X15.407 Y16.843
X15.903 Y16.298
X16.425 Y15.776
X16.971 Y15.28
X17.541 Y14.811
X18.134 Y14.372
X18.747 Y13.961
X19.379 Y13.581
X20.029 Y13.231
X20.695 Y12.914
X21.376 Y12.629
X22.069 Y12.378
X22.774 Y12.16
X23.489 Y11.976
X24.211 Y11.827
X24.94 Y11.712
X25.674 Y11.632
X26.41 Y11.589
X27.148 Y11.582
X27.885 Y11.611
X28.62 Y11.675
X29.351 Y11.774
X30.077 Y11.909
X30.795 Y12.079
X31.504 Y12.282
X32.203 Y12.519
X32.889 Y12.789
X33.563 Y13.091
X34.221 Y13.424
X34.862 Y13.789
X35.485 Y14.184
X36.089 Y14.609
X36.672 Y15.061
X37.233 Y15.54
X37.77 Y16.045
X38.284 Y16.575
X38.772 Y17.129
X39.234 Y17.704
X39.669 Y18.3
X40.075 Y18.916
X40.453 Y19.549
X40.802 Y20.2
X41.119 Y20.866
X41.404 Y21.546
X41.658 Y22.239
X41.879 Y22.943
X42.067 Y23.656
X42.221 Y24.378
X42.342 Y25.106
X42.428 Y25.839
X42.48 Y26.575
X42.498 Y27.312
X42.482 Y28.05
X42.431 Y28.786
X42.347 Y29.519
X42.227 Y30.247
X42.073 Y30.968
X41.885 Y31.682
X41.664 Y32.386
X41.41 Y33.079
X41.124 Y33.759
X40.807 Y34.425
X40.458 Y35.075
X40.08 Y35.708
X39.672 Y36.323
X39.237 Y36.919
X38.774 Y37.494
X38.285 Y38.046
X37.77 Y38.575
X37.231 Y39.079
X36.669 Y39.557
X36.086 Y40.008
X35.482 Y40.432
X34.859 Y40.827
X34.218 Y41.193
X33.561 Y41.528
X32.889 Y41.833
X32.203 Y42.106
X31.506 Y42.348
X30.799 Y42.557
X30.082 Y42.733
X29.358 Y42.875
X28.628 Y42.983
X27.894 Y43.057
X27.157 Y43.097
X26.42 Y43.103
X25.682 Y43.074
X24.947 Y43.012
X24.216 Y42.916
X23.489 Y42.787
X22.769 Y42.625
X22.058 Y42.43
X21.356 Y42.203
X20.665 Y41.945
X19.986 Y41.655
X19.322 Y41.334
X18.673 Y40.983
X18.04 Y40.603
X17.426 Y40.195
X16.83 Y39.759
X16.256 Y39.296
X15.703 Y38.808
X15.173 Y38.295
X14.666 Y37.758
X14.184 Y37.199
X13.728 Y36.619
X13.299 Y36.02
X12.897 Y35.401
X12.524 Y34.764
X12.18 Y34.111
X11.866 Y33.444
X11.582 Y32.763
X11.329 Y32.07
X11.107 Y31.366
X10.918 Y30.653
X10.761 Y29.932
X10.636 Y29.205
X10.545 Y28.473
X10.486 Y27.737
X10.46 Y27.
X10.467 Y26.262
X10.509 Y25.525
X10.583 Y24.791
X10.69 Y24.061
X10.83 Y23.337
X11.001 Y22.619
X11.205 Y21.91
X11.441 Y21.211
X11.707 Y20.523
X12.005 Y19.848
X12.332 Y19.186
X12.688 Y18.54
X13.073 Y17.911
X13.486 Y17.299
X13.926 Y16.707
X14.392 Y16.136
X14.884 Y15.585
X15.399 Y15.057
X15.938 Y14.553
X16.498 Y14.073
X17.08 Y13.619
X17.681 Y13.192
X18.301 Y12.791
X18.938 Y12.419
X19.591 Y12.076
X20.259 Y11.762
X20.94 Y11.478
X21.633 Y11.225
X22.337 Y11.005
X23.05 Y10.815
X23.771 Y10.658
X24.498 Y10.533
X25.23 Y10.441
X25.966 Y10.381
X26.703 Y10.354
X27.441 Y10.361
X28.177 Y10.4
X28.912 Y10.472
X29.642 Y10.576
X30.367 Y10.713
X31.085 Y10.882
X31.795 Y11.083
X32.495 Y11.316
X33.184 Y11.58
X33.861 Y11.873
X34.525 Y12.196
X35.173 Y12.548
X35.806 Y12.928
X36.421 Y13.335
X37.018 Y13.769
X37.595 Y14.228
X38.152 Y14.713
X38.687 Y15.22
X39.2 Y15.751
X39.689 Y16.304
X40.153 Y16.877
X40.591 Y17.47
X41.004 Y18.082
X41.39 Y18.711
X41.749 Y19.355
X42.08 Y20.015
X42.382 Y20.688
X42.655 Y21.374
X42.897 Y22.07
X43.11 Y22.777
X43.292 Y23.492
X43.443 Y24.214
X43.563 Y24.942
X43.651 Y25.674
X43.706 Y26.41
X43.729 Y27.148
X43.72 Y27.885
X43.68 Y28.622
X43.607 Y29.356
X43.503 Y30.087
X43.367 Y30.812
X43.2 Y31.531
X43.002 Y32.241
X42.773 Y32.943
X42.514 Y33.634
X42.225 Y34.313
X41.908 Y34.978
X41.56 Y35.629
X41.185 Y36.265
X40.782 Y36.883
X40.353 Y37.483
X39.899 Y38.065
X39.42 Y38.626
X38.917 Y39.165
X38.391 Y39.683
X37.843 Y40.177
X37.275 Y40.648
X36.687 Y41.093
X36.08 Y41.513
X35.455 Y41.906
X34.814 Y42.271
X34.158 Y42.608
X33.488 Y42.916
X32.805 Y43.195
X32.11 Y43.445
X31.406 Y43.664
X30.693 Y43.854
X29.972 Y44.012
X29.245 Y44.138
X28.514 Y44.234
X27.779 Y44.298
X27.042 Y44.331
X26.304 Y44.332
X25.567 Y44.302
X24.831 Y44.24
X24.1 Y44.146
X23.372 Y44.02
X22.651 Y43.864
X21.938 Y43.678
X21.232 Y43.461
X20.537 Y43.215
X19.852 Y42.94
X19.18 Y42.636
X18.521 Y42.304
X17.876 Y41.945
X17.248 Y41.558
X16.636 Y41.146
X16.042 Y40.708
X15.468 Y40.245
X14.914 Y39.758
X14.381 Y39.247
X13.87 Y38.715
X13.383 Y38.161
X12.918 Y37.588
X12.479 Y36.995
X12.064 Y36.385
X11.676 Y35.758
X11.314 Y35.115
X10.979 Y34.457
X10.671 Y33.786
X10.392 Y33.103
X10.142 Y32.409
X9.921 Y31.705
X9.731 Y30.993
X9.571 Y30.272
X9.441 Y29.546
X9.342 Y28.815
X9.274 Y28.08
X9.236 Y27.343
X9.229 Y26.606
X9.253 Y25.868
X9.308 Y25.132
X9.393 Y24.399
X9.508 Y23.671
X9.654 Y22.947
X9.829 Y22.231
X10.034 Y21.522
X10.269 Y20.823
X10.534 Y20.134
X10.827 Y19.457
X11.148 Y18.793
X11.497 Y18.142
X11.872 Y17.507
X12.273 Y16.888
X12.7 Y16.286
X13.152 Y15.703
X13.627 Y15.139
X14.126 Y14.595
X14.646 Y14.072
X15.188 Y13.571
X15.75 Y13.092
X16.331 Y12.638
X16.931 Y12.209
X17.549 Y11.806
X18.183 Y11.429
X18.833 Y11.078
X19.496 Y10.755
X20.172 Y10.46
X20.86 Y10.193
X21.558 Y9.955
X22.266 Y9.746
X22.982 Y9.567
X23.704 Y9.417
X24.432 Y9.297
X25.164 Y9.208
X25.9 Y9.149
X26.637 Y9.121
X27.375 Y9.125
X28.112 Y9.159
X28.847 Y9.224
X29.579 Y9.319
X30.306 Y9.444
X31.027 Y9.599
X31.741 Y9.784
X32.447 Y9.999
X33.144 Y10.242
X33.83 Y10.513
X34.504 Y10.813
X35.166 Y11.139
X35.814 Y11.492
X36.446 Y11.872
X37.062 Y12.278
X37.661 Y12.709
X38.242 Y13.164
X38.804 Y13.642
X39.347 Y14.142
X39.868 Y14.664
X40.368 Y15.206
X40.845 Y15.769
X41.3 Y16.35
X41.73 Y16.949
X42.137 Y17.565
X42.518 Y18.197
X42.874 Y18.843
X43.204 Y19.503
X43.507 Y20.176
X43.781 Y20.861
X44.028 Y21.556
X44.247 Y22.261
X44.437 Y22.974
X44.598 Y23.694
X44.73 Y24.42
X44.833 Y25.15
X44.905 Y25.884
X44.949 Y26.621
X44.962 Y27.359
X44.946 Y28.096
X44.9 Y28.833
X44.825 Y29.567
X44.72 Y30.297
X44.585 Y31.022
X44.42 Y31.742
X44.226 Y32.453
X44.004 Y33.157
X43.753 Y33.851
X43.475 Y34.534
X43.169 Y35.205
X42.836 Y35.864
X42.476 Y36.508
X42.091 Y37.137
X41.681 Y37.751
X41.246 Y38.347
X40.788 Y38.925
X40.307 Y39.485
X39.804 Y40.025
X39.279 Y40.543
X38.734 Y41.04
X38.168 Y41.514
X37.584 Y41.965
X36.983 Y42.392
X36.364 Y42.794
X35.73 Y43.172
X35.082 Y43.523
X34.419 Y43.848
X33.744 Y44.146
X33.058 Y44.417
X32.362 Y44.661
X31.656 Y44.876
X30.942 Y45.063
X30.222 Y45.221
X29.495 Y45.35
X28.764 Y45.449
X28.029 Y45.518
X27.293 Y45.558
X26.555 Y45.569
X25.817 Y45.55
X25.081 Y45.502
X24.347 Y45.424
X23.617 Y45.317
X22.892 Y45.181
X22.173 Y45.017
X21.461 Y44.824
X20.756 Y44.604
X20.061 Y44.356
X19.377 Y44.081
X18.704 Y43.778
X18.044 Y43.449
X17.397 Y43.094
X16.765 Y42.714
X16.148 Y42.309
X15.547 Y41.88
X14.965 Y41.428
X14.4 Y40.953
X13.855 Y40.455
X13.33 Y39.937
X12.825 Y39.399
X12.342 Y38.841
X11.882 Y38.265
X11.443 Y37.671
X11.029 Y37.061
X10.639 Y36.434
X10.275 Y35.793
X9.936 Y35.137
X9.623 Y34.469
X9.336 Y33.79
X9.075 Y33.099
X8.842 Y32.399
X8.637 Y31.69
X8.46 Y30.974
X8.311 Y30.252
X8.191 Y29.524
X8.098 Y28.792
X8.035 Y28.057
X8. Y27.32
X7.993 Y26.582
X8.016 Y25.844
X8.068 Y25.108
X8.149 Y24.375
X8.259 Y23.645
X8.396 Y22.92
X8.562 Y22.201
X8.755 Y21.489
X8.977 Y20.786
X9.225 Y20.091
X9.501 Y19.407
X9.803 Y18.733
X10.131 Y18.072
X10.484 Y17.425
X10.862 Y16.791
X11.265 Y16.173
X11.691 Y15.571
X12.142 Y14.986
X12.614 Y14.42
X13.109 Y13.872
X13.624 Y13.344
X14.159 Y12.836
X14.713 Y12.349
X15.286 Y11.884
X15.877 Y11.442
X16.485 Y11.024
X17.108 Y10.629
X17.747 Y10.259
X18.399 Y9.914
X19.064 Y9.595
X19.741 Y9.301
X20.429 Y9.034
X21.126 Y8.795
X21.833 Y8.583
X22.548 Y8.399
X23.269 Y8.243
X23.995 Y8.115
X24.726 Y8.014
X25.461 Y7.943
X26.197 Y7.9
X26.935 Y7.886
X27.673 Y7.9
X28.409 Y7.943
X29.144 Y8.015
X29.875 Y8.115
X30.601 Y8.243
X31.322 Y8.398
X32.037 Y8.583
X32.744 Y8.795
X33.441 Y9.034
X34.13 Y9.3
X34.807 Y9.592
X35.473 Y9.91
X36.126 Y10.253
X36.766 Y10.621
X37.391 Y11.013
X38.001 Y11.428
X38.594 Y11.867
X39.17 Y12.328
X39.728 Y12.81
X40.268 Y13.314
X40.788 Y13.837
X41.288 Y14.379
X41.767 Y14.941
X42.223 Y15.52
X42.658 Y16.117
X43.069 Y16.729
X43.458 Y17.356
X43.823 Y17.997
X44.163 Y18.652
X44.479 Y19.319
X44.769 Y19.997
X45.033 Y20.686
X45.271 Y21.385
X45.482 Y22.092
X45.667 Y22.806
X45.825 Y23.527
X45.956 Y24.253
X46.059 Y24.983
X46.133 Y25.717
X46.18 Y26.454
X46.198 Y27.191
X46.189 Y27.929
X46.152 Y28.666
X46.087 Y29.401
X45.994 Y30.133
X45.874 Y30.861
X45.726 Y31.584
X45.551 Y32.3
X45.348 Y33.01
X45.119 Y33.711
X44.864 Y34.404
X44.583 Y35.086
X44.276 Y35.757
X43.944 Y36.415
X43.586 Y37.061
X43.204 Y37.692
X42.798 Y38.308
X42.37 Y38.909
X41.919 Y39.493
X41.447 Y40.06
X40.953 Y40.608
X40.439 Y41.137
X39.905 Y41.647
X39.353 Y42.136
X38.782 Y42.603
X38.194 Y43.049
X37.59 Y43.473
X36.971 Y43.873
X36.336 Y44.25
X35.688 Y44.603
X35.027 Y44.93
X34.353 Y45.232
X33.669 Y45.508
X32.975 Y45.759
X32.273 Y45.983
X31.562 Y46.181
X30.844 Y46.353
X30.121 Y46.496
X29.392 Y46.613
X28.66 Y46.702
X27.924 Y46.763
X27.187 Y46.797
X26.45 Y46.804
X25.712 Y46.783
X24.976 Y46.735
X24.242 Y46.658
X23.512 Y46.554
X22.786 Y46.422
X22.065 Y46.263
X21.351 Y46.078
X20.644 Y45.867
X19.945 Y45.63
X19.256 Y45.367
X18.577 Y45.079
X17.909 Y44.765
X17.253 Y44.428
X16.61 Y44.066
X15.981 Y43.68
X15.366 Y43.272
X14.767 Y42.841
X14.184 Y42.389
X13.619 Y41.914
X13.072 Y41.419
X12.544 Y40.903
X12.036 Y40.369
X11.547 Y39.816
X11.079 Y39.246
X10.632 Y38.659
X10.207 Y38.056
X9.805 Y37.437
X9.425 Y36.804
X9.07 Y36.158
X8.738 Y35.499
X8.43 Y34.829
X8.147 Y34.147
X7.889 Y33.456
X7.657 Y32.756
X7.451 Y32.047
X7.272 Y31.331
X7.119 Y30.61
X6.993 Y29.883
X6.894 Y29.151
X6.822 Y28.417
X6.776 Y27.681
X6.757 Y26.943
X6.766 Y26.205
X6.801 Y25.468
X6.864 Y24.733
X6.953 Y24.001
X7.069 Y23.272
X7.211 Y22.548
X7.38 Y21.83
X7.574 Y21.118
X7.795 Y20.414
X8.042 Y19.719
X8.315 Y19.033
X8.612 Y18.358
X8.934 Y17.695
X9.28 Y17.043
X9.65 Y16.404
X10.042 Y15.779
X10.457 Y15.169
X10.895 Y14.575
X11.353 Y13.997
X11.833 Y13.437
X12.333 Y12.894
X12.852 Y12.369
X13.389 Y11.864
X13.945 Y11.378
X14.518 Y10.914
X15.108 Y10.471
X15.714 Y10.05
X16.335 Y9.652
X16.97 Y9.276
X17.619 Y8.924
X18.279 Y8.596
X18.952 Y8.292
X19.635 Y8.013
X20.327 Y7.759
X21.029 Y7.531
X21.739 Y7.328
X22.455 Y7.152
X23.177 Y7.001
X23.904 Y6.877
X24.636 Y6.779
X25.37 Y6.708
X26.107 Y6.664
X26.844 Y6.648
X27.582 Y6.658
X28.319 Y6.696
X29.054 Y6.76
X29.786 Y6.851
X30.515 Y6.969
X31.238 Y7.112
X31.956 Y7.282
X32.667 Y7.478
X33.371 Y7.7
X34.066 Y7.947
X34.752 Y8.219
X35.428 Y8.516
X36.093 Y8.836
X36.745 Y9.18
X37.385 Y9.547
X38.011 Y9.938
X38.622 Y10.351
X39.218 Y10.786
X39.798 Y11.242
X40.362 Y11.718
X40.908 Y12.215
X41.436 Y12.73
X41.946 Y13.263
X42.436 Y13.815
X42.906 Y14.384
X43.355 Y14.969
X43.783 Y15.569
X44.19 Y16.185
X44.576 Y16.814
X44.938 Y17.457
X45.278 Y18.112
X45.594 Y18.778
X45.886 Y19.456
X46.153 Y20.144
X46.396 Y20.84
X46.614 Y21.545
X46.807 Y22.257
X46.974 Y22.976
X47.117 Y23.7
X47.233 Y24.429
X47.323 Y25.161
X47.386 Y25.896
X47.424 Y26.633
X47.435 Y27.371
X47.421 Y28.108
X47.38 Y28.845
X47.313 Y29.58
X47.221 Y30.312
X47.101 Y31.04
X46.955 Y31.763
X46.784 Y32.481
X46.587 Y33.192
X46.364 Y33.895
X46.117 Y34.59
X45.846 Y35.276
X45.55 Y35.952
X45.23 Y36.617
X44.887 Y37.27
X44.52 Y37.911
X44.131 Y38.537
X43.72 Y39.15
X43.288 Y39.748
X42.834 Y40.33
X42.361 Y40.896
X41.868 Y41.444
X41.354 Y41.975
X40.823 Y42.486
X40.273 Y42.978
X39.706 Y43.45
X39.123 Y43.902
X38.524 Y44.333
X37.91 Y44.743
X37.283 Y45.131
X36.641 Y45.496
X35.987 Y45.838
X35.322 Y46.156
X34.646 Y46.451
X33.959 Y46.721
X33.264 Y46.968
X32.56 Y47.19
X31.849 Y47.387
X31.131 Y47.558
X30.928 Y47.599
X30.879 Y47.607
X30.831 Y47.612
X30.782 Y47.614
X23.657
X22.92 Y47.577
X22.187 Y47.493
X21.463 Y47.353
X20.747 Y47.174
X20.04 Y46.962
X19.343 Y46.722
X18.654 Y46.456
X17.976 Y46.165
X17.309 Y45.85
X16.653 Y45.512
X16.01 Y45.151
X15.38 Y44.767
X14.764 Y44.362
X14.162 Y43.935
X13.575 Y43.487
X13.005 Y43.019
X12.452 Y42.531
X11.916 Y42.024
X11.398 Y41.498
X10.898 Y40.955
X10.418 Y40.395
X9.957 Y39.819
X9.516 Y39.228
X9.096 Y38.621
X8.697 Y38.001
X8.32 Y37.367
X7.964 Y36.72
X7.632 Y36.061
X7.323 Y35.391
X7.037 Y34.711
X6.775 Y34.021
X6.537 Y33.323
X6.324 Y32.616
X6.177 Y32.06
X6.164 Y31.997
X6.155 Y31.934
X6.153 Y31.871
Y22.903
X6.189 Y22.172
X6.279 Y21.484
X6.434 Y20.763
X6.633 Y20.052
X6.868 Y19.353
X7.133 Y18.664
X7.423 Y17.986
X7.739 Y17.319
X8.077 Y16.664
X8.438 Y16.02
X8.822 Y15.39
X9.226 Y14.773
X9.652 Y14.17
X10.099 Y13.583
X10.565 Y13.011
X11.05 Y12.455
X11.554 Y11.917
X12.077 Y11.395
X12.616 Y10.892
X13.173 Y10.408
X13.746 Y9.943
X14.335 Y9.499
X14.94 Y9.076
X15.559 Y8.675
X16.191 Y8.295
X16.836 Y7.937
X17.493 Y7.601
X18.161 Y7.287
X18.84 Y6.997
X19.528 Y6.731
X20.224 Y6.488
X20.929 Y6.269
X21.567 Y6.095
X21.631 Y6.081
X21.696 Y6.072
X21.762 Y6.069
X30.863
X31.6 Y6.106
X31.967 Y6.15
X32.694 Y6.271
X33.41 Y6.45
X34.115 Y6.668
X34.809 Y6.917
X35.493 Y7.195
X36.166 Y7.497
X36.828 Y7.823
X37.479 Y8.171
X38.116 Y8.542
X38.741 Y8.935
X39.352 Y9.348
X39.948 Y9.783
X40.529 Y10.237
X41.095 Y10.712
X41.644 Y11.205
X42.176 Y11.716
X42.69 Y12.245
X43.187 Y12.79
X43.664 Y13.353
X44.123 Y13.93
X44.562 Y14.523
X44.982 Y15.13
X45.381 Y15.751
X45.759 Y16.385
X46.116 Y17.03
X46.451 Y17.688
X46.763 Y18.356
X47.053 Y19.034
X47.32 Y19.722
X47.564 Y20.419
X47.664 Y20.74
X47.683 Y20.812
X47.694 Y20.886
X47.698 Y20.96
Y32.456
X47.667 Y33.071
X47.595 Y33.622
X47.443 Y34.33
X47.231 Y35.037
X46.978 Y35.73
X46.693 Y36.411
X46.38 Y37.079
X46.043 Y37.735
X45.682 Y38.379
X45.299 Y39.009
X44.895 Y39.627
X44.471 Y40.231
X44.027 Y40.82
X43.563 Y41.394
X43.081 Y41.952
X42.58 Y42.493
X42.06 Y43.017
X41.524 Y43.524
X40.971 Y44.012
X40.401 Y44.481
X39.817 Y44.932
X39.218 Y45.362
X38.604 Y45.772
X37.977 Y46.161
X37.338 Y46.529
X36.686 Y46.874
X36.023 Y47.198
X35.349 Y47.499
X35.203 Y47.559
X35.112 Y47.589
X35.018 Y47.608
X34.923 Y47.614
X30.782
G3 X30.605 Y47.041 I0.011 J-0.317
G1 X30.662 Y46.999 Z35.017
X30.716 Y46.959 Z35.041
X30.765 Y46.923 Z35.078
X30.805 Y46.894 Z35.129
X30.836 Y46.871 Z35.189
X30.855 Y46.857 Z35.256
X30.861 Y46.853 Z35.327
G0 Z43.009
X47.314 Y31.429
Z35.644
G1 Z35.327 F1016.
X47.318 Y31.436 Z35.256
X47.33 Y31.456 Z35.189
X47.349 Y31.489 Z35.129
X47.375 Y31.532 Z35.078
X47.406 Y31.584 Z35.041
X47.44 Y31.641 Z35.017
X47.476 Y31.702 Z35.009
G3 X47.698 Y32.456 I-1.36 J0.809
G1 Y35.807
X47.677 Y36.227
X47.634 Y36.554
X47.543 Y36.977
X47.387 Y37.497
X47.125 Y38.171
X46.803 Y38.835
X46.443 Y39.479
X46.054 Y40.106
X45.641 Y40.718
X45.208 Y41.314
X44.754 Y41.896
X44.281 Y42.463
X43.791 Y43.014
X43.283 Y43.549
X42.758 Y44.068
X42.217 Y44.569
X41.66 Y45.054
X41.089 Y45.52
X40.503 Y45.969
X39.903 Y46.398
X39.29 Y46.808
X38.663 Y47.198
X38.117 Y47.514
X38. Y47.569
X37.875 Y47.603
X37.746 Y47.614
X34.923
G3 X34.746 Y47.041 I0.011 J-0.317
G1 X34.803 Y46.999 Z35.017
X34.857 Y46.959 Z35.041
X34.906 Y46.923 Z35.078
X34.946 Y46.894 Z35.129
X34.977 Y46.871 Z35.189
X34.996 Y46.857 Z35.256
X35.002 Y46.853 Z35.327
G0 Z43.009
X47.314 Y34.781
Z35.644
G1 Z35.327 F1016.
X47.318 Y34.788 Z35.256
X47.33 Y34.808 Z35.189
X47.349 Y34.84 Z35.129
X47.375 Y34.884 Z35.078
X47.406 Y34.935 Z35.041
X47.44 Y34.993 Z35.017
X47.476 Y35.054 Z35.009
G3 X47.698 Y35.807 I-1.36 J0.809
G1 Y38.489
X47.686 Y38.721
X47.652 Y38.977
X47.583 Y39.301
X47.47 Y39.68
X47.28 Y40.166
X46.983 Y40.778
X46.609 Y41.414
X46.195 Y42.025
X45.753 Y42.615
X45.288 Y43.188
X44.802 Y43.744
X44.299 Y44.283
X43.779 Y44.807
X43.244 Y45.314
X42.693 Y45.805
X42.127 Y46.279
X41.548 Y46.736
X40.955 Y47.175
X40.515 Y47.481
X40.384 Y47.554
X40.241 Y47.599
X40.092 Y47.614
X37.746
G3 X37.543 Y47.062 I0.011 J-0.317
G1 X37.568 Y47.039
X47.12 Y38.308
X47.166 Y38.265
G3 X47.698 Y38.489 I0.214 J0.234
G1 Y40.667
X47.686 Y40.905
X47.656 Y41.134
X47.596 Y41.411
X47.504 Y41.72
X47.351 Y42.112
X47.126 Y42.575
X46.78 Y43.164
X46.356 Y43.767
X45.895 Y44.344
X45.409 Y44.898
X44.901 Y45.434
X44.376 Y45.952
X43.834 Y46.453
X43.278 Y46.938
X42.708 Y47.407
X42.641 Y47.459
X42.502 Y47.544
X42.349 Y47.596
X42.187 Y47.614
X40.092
G3 X39.89 Y47.062 I0.011 J-0.317
G1 X39.914 Y47.039
X47.12 Y40.486
X47.167 Y40.443
G3 X47.698 Y40.667 I0.214 J0.235
G1 Y42.678
X47.687 Y42.89
X47.658 Y43.108
X47.609 Y43.339
X47.525 Y43.618
X47.396 Y43.951
X47.205 Y44.344
X46.925 Y44.82
X46.5 Y45.424
X46.029 Y45.992
X45.528 Y46.533
X45.003 Y47.052
X44.605 Y47.418
X44.456 Y47.525
X44.285 Y47.591
X44.104 Y47.614
G3 X43.856 Y47.113 I0.011 J-0.317
G1 X43.915 Y47.03
X47.121 Y42.506
G3 X47.698 Y42.678 I0.259 J0.184
G1 Y44.522
X47.686 Y44.754
X47.661 Y44.942
X47.615 Y45.157
X47.536 Y45.422
X47.424 Y45.709
X47.253 Y46.061
X47.014 Y46.468
X46.655 Y46.979
X46.35 Y47.346
X46.189 Y47.491
X45.994 Y47.582
X45.78 Y47.614
G3 X45.516 Y47.138 I0.011 J-0.317
G1 X45.582 Y47.024
X47.105 Y44.375
G3 X47.38 Y44.215 I0.275 J0.158
X47.698 Y44.522 I0. J0.318
G1 Y46.365
X47.69 Y46.515
X47.665 Y46.697
X47.619 Y46.899
X47.562 Y47.084
X47.536 Y47.148
X47.425 Y47.338
X47.264 Y47.487
X47.066 Y47.581
X46.848 Y47.614
G3 X46.583 Y47.14 I0.011 J-0.317
G1 X46.649 Y47.023
X47.104 Y46.22
G3 X47.698 Y46.365 I0.276 J0.156
G1 Y47.287
X47.694 Y47.329
X47.685 Y47.371
X47.675 Y47.4
X47.661 Y47.429
X47.644 Y47.458
X47.622 Y47.487
X47.571 Y47.538
X47.542 Y47.56
X47.513 Y47.578
X47.484 Y47.591
X47.455 Y47.601
X47.413 Y47.61
X47.371 Y47.614
X42.187
G3 X42.01 Y47.041 I0.011 J-0.317
G1 X42.067 Y46.999 Z35.017
X42.122 Y46.959 Z35.041
X42.17 Y46.923 Z35.078
X42.211 Y46.894 Z35.129
X42.241 Y46.871 Z35.189
X42.26 Y46.857 Z35.256
X42.266 Y46.853 Z35.327
G0 Z43.009
X29.837 Y6.452
Z35.644
G1 Z35.327 F1016.
X29.844 Y6.448 Z35.256
X29.864 Y6.436 Z35.189
X29.896 Y6.417 Z35.129
X29.94 Y6.391 Z35.078
X29.991 Y6.361 Z35.041
X30.049 Y6.326 Z35.017
X30.11 Y6.29 Z35.009
G3 X30.863 Y6.069 I0.809 J1.36
G1 X34.718
X35.066 Y6.086
X35.437 Y6.135
X35.906 Y6.235
X36.49 Y6.41
X37.178 Y6.678
X37.845 Y6.994
X38.494 Y7.344
X39.128 Y7.721
X39.748 Y8.121
X40.353 Y8.543
X40.944 Y8.986
X41.519 Y9.447
X42.08 Y9.927
X42.625 Y10.424
X43.153 Y10.939
X43.665 Y11.47
X44.16 Y12.018
X44.637 Y12.58
X45.097 Y13.158
X45.537 Y13.75
X45.958 Y14.356
X46.36 Y14.974
X46.742 Y15.605
X47.105 Y16.248
X47.446 Y16.902
X47.624 Y17.271
X47.665 Y17.374
X47.689 Y17.482
X47.698 Y17.593
Y20.96
G3 X47.124 Y21.137 I-0.317 J-0.011
G1 X47.083 Y21.08 Z35.017
X47.043 Y21.026 Z35.041
X47.007 Y20.978 Z35.078
X46.977 Y20.937 Z35.129
X46.955 Y20.907 Z35.189
X46.941 Y20.888 Z35.256
X46.936 Y20.881 Z35.327
G0 Z43.009
X33.691 Y6.452
Z35.644
G1 Z35.327 F1016.
X33.698 Y6.448 Z35.256
X33.718 Y6.436 Z35.189
X33.751 Y6.417 Z35.129
X33.794 Y6.391 Z35.078
X33.846 Y6.361 Z35.041
X33.904 Y6.326 Z35.017
X33.964 Y6.29 Z35.009
G3 X34.718 Y6.069 I0.809 J1.36
G1 X37.399
X37.71 Y6.084
X37.98 Y6.12
X38.324 Y6.193
X38.728 Y6.314
X39.249 Y6.517
X39.913 Y6.839
X40.549 Y7.214
X41.163 Y7.623
X41.758 Y8.059
X42.336 Y8.518
X42.899 Y8.995
X43.445 Y9.491
X43.976 Y10.004
X44.49 Y10.533
X44.988 Y11.077
X45.469 Y11.636
X45.933 Y12.21
X46.38 Y12.797
X46.808 Y13.398
X47.219 Y14.011
X47.584 Y14.595
X47.647 Y14.718
X47.685 Y14.851
X47.698 Y14.988
Y17.593
G3 X47.144 Y17.793 I-0.317 J-0.011
G1 X47.123 Y17.77
X36.673 Y6.111
G2 X36.498 Y6.268 I-0.088 J0.078
X36.646 Y6.29 I0.088 J-0.078
G3 X37.399 Y6.069 I0.809 J1.36
G1 X39.746
X39.957 Y6.079
X40.19 Y6.11
X40.479 Y6.172
X40.801 Y6.268
X41.216 Y6.43
X41.708 Y6.669
X42.344 Y7.043
X42.947 Y7.467
X43.526 Y7.924
X44.085 Y8.406
X44.625 Y8.909
X45.149 Y9.429
X45.656 Y9.965
X46.147 Y10.516
X46.621 Y11.081
X47.079 Y11.659
X47.52 Y12.251
X47.563 Y12.313
X47.637 Y12.445
X47.682 Y12.589
X47.698 Y12.739
Y14.988
G3 X47.143 Y15.188 I-0.317 J-0.011
G1 X47.123 Y15.166
X39.564 Y6.647
X39.519 Y6.597
G3 X39.746 Y6.069 I0.237 J-0.211
G1 X41.757
X41.992 Y6.081
X42.21 Y6.109
X42.455 Y6.162
X42.739 Y6.247
X43.087 Y6.382
X43.494 Y6.58
X43.998 Y6.876
X44.601 Y7.3
X45.172 Y7.768
X45.716 Y8.266
X46.24 Y8.786
X46.745 Y9.324
X47.233 Y9.877
X47.527 Y10.231
X47.62 Y10.374
X47.678 Y10.534
X47.698 Y10.704
G3 X47.187 Y10.945 I-0.317 J-0.011
G1 X47.116 Y10.89
X41.58 Y6.642
X41.574 Y6.638
G3 X41.757 Y6.069 I0.193 J-0.252
G1 X43.692
X43.88 Y6.078
X44.077 Y6.104
X44.295 Y6.151
X44.564 Y6.231
X44.863 Y6.348
X45.226 Y6.524
X45.65 Y6.774
X46.185 Y7.149
X46.753 Y7.621
X47.288 Y8.128
X47.491 Y8.34
X47.603 Y8.491
X47.674 Y8.666
X47.698 Y8.853
G3 X47.204 Y9.106 I-0.317 J-0.011
G1 X47.112 Y9.044
X43.527 Y6.65
G3 X43.692 Y6.069 I0.176 J-0.264
G1 X45.443
X45.663 Y6.08
X45.84 Y6.103
X46.056 Y6.149
X46.306 Y6.224
X46.574 Y6.329
X46.912 Y6.492
X47.265 Y6.7
X47.383 Y6.783
X47.514 Y6.901
X47.614 Y7.048
X47.676 Y7.213
X47.698 Y7.389
G3 X47.235 Y7.66 I-0.317 J-0.011
G1 X47.104 Y7.593
X45.309 Y6.668
G3 X45.443 Y6.069 I0.145 J-0.282
G1 X47.119
X47.147
X47.189
X47.339 Y6.076
X47.482 Y6.139
X47.597 Y6.245
X47.672 Y6.383
X47.698 Y6.537
G3 X47.559 Y6.874 I-0.524 J-0.018
X46.853 Y6.223 I-0.353 J-0.325
X47.189 Y6.069 I0.353 J0.325
G1 X47.371
X47.413 Y6.072
X47.455 Y6.082
X47.484 Y6.092
X47.513 Y6.105
X47.542 Y6.122
X47.571 Y6.144
X47.622 Y6.195
X47.644 Y6.225
X47.661 Y6.254
X47.675 Y6.283
X47.685 Y6.312
X47.694 Y6.354
X47.698 Y6.396
Y12.739
G3 X47.124 Y12.915 I-0.317 J-0.011
G1 X47.083 Y12.858 Z35.017
X47.043 Y12.804 Z35.041
X47.007 Y12.756 Z35.078
X46.977 Y12.715 Z35.129
X46.955 Y12.685 Z35.189
X46.941 Y12.666 Z35.256
X46.936 Y12.659 Z35.327
G0 Z43.009
X24.684 Y47.23
Z35.644
G1 Z35.327 F1016.
X24.677 Y47.234 Z35.256
X24.657 Y47.246 Z35.189
X24.624 Y47.266 Z35.129
X24.581 Y47.291 Z35.078
X24.529 Y47.322 Z35.041
X24.471 Y47.356 Z35.017
X24.411 Y47.393 Z35.009
G3 X23.657 Y47.614 I-0.809 J-1.36
G1 X19.467
X19.133 Y47.597
X18.737 Y47.545
X18.232 Y47.437
X17.598 Y47.247
X16.911 Y46.98
X16.242 Y46.668
X15.589 Y46.324
X14.952 Y45.953
X14.328 Y45.558
X13.719 Y45.141
X13.125 Y44.704
X12.546 Y44.247
X11.982 Y43.771
X11.434 Y43.277
X10.903 Y42.765
X10.389 Y42.236
X9.892 Y41.69
X9.414 Y41.128
X8.954 Y40.551
X8.513 Y39.96
X8.092 Y39.354
X7.691 Y38.735
X7.311 Y38.102
X6.952 Y37.458
X6.614 Y36.802
X6.297 Y36.135
X6.214 Y35.943
X6.18 Y35.848
X6.16 Y35.749
X6.153 Y35.648
Y31.871
G3 X6.726 Y31.694 I0.317 J0.011
G1 X6.768 Y31.751 Z35.017
X6.807 Y31.805 Z35.041
X6.843 Y31.853 Z35.078
X6.873 Y31.894 Z35.129
X6.895 Y31.924 Z35.189
X6.909 Y31.943 Z35.256
X6.914 Y31.95 Z35.327
G0 Z43.009
X20.494 Y47.23
Z35.644
G1 Z35.327 F1016.
X20.487 Y47.234 Z35.256
X20.467 Y47.246 Z35.189
X20.434 Y47.266 Z35.129
X20.391 Y47.291 Z35.078
X20.339 Y47.322 Z35.041
X20.282 Y47.356 Z35.017
X20.221 Y47.393 Z35.009
G3 X19.467 Y47.614 I-0.809 J-1.36
G1 X16.786
X16.394 Y47.594
X16.116 Y47.558
X15.76 Y47.482
X15.341 Y47.356
X14.801 Y47.146
X14.137 Y46.824
X13.5 Y46.452
X12.884 Y46.045
X12.286 Y45.612
X11.706 Y45.157
X11.141 Y44.682
X10.592 Y44.189
X10.06 Y43.678
X9.544 Y43.151
X9.045 Y42.607
X8.563 Y42.049
X8.099 Y41.475
X7.653 Y40.888
X7.225 Y40.286
X6.816 Y39.672
X6.427 Y39.046
X6.252 Y38.745
X6.198 Y38.627
X6.164 Y38.502
X6.153 Y38.373
Y35.648
G3 X6.726 Y35.471 I0.317 J0.011
G1 X6.768 Y35.528 Z35.017
X6.807 Y35.582 Z35.041
X6.843 Y35.631 Z35.078
X6.873 Y35.671 Z35.129
X6.895 Y35.702 Z35.189
X6.909 Y35.721 Z35.256
X6.914 Y35.727 Z35.327
G0 Z43.009
X17.813 Y47.23
Z35.644
G1 Z35.327 F1016.
X17.806 Y47.234 Z35.256
X17.786 Y47.246 Z35.189
X17.753 Y47.266 Z35.129
X17.71 Y47.291 Z35.078
X17.658 Y47.322 Z35.041
X17.6 Y47.356 Z35.017
X17.54 Y47.393 Z35.009
G3 X16.786 Y47.614 I-0.809 J-1.36
G1 X14.44
X14.108 Y47.597
X13.871 Y47.566
X13.577 Y47.503
X13.249 Y47.405
X12.826 Y47.24
X12.321 Y46.995
X11.685 Y46.621
X11.081 Y46.198
X10.5 Y45.742
X9.94 Y45.262
X9.399 Y44.761
X8.874 Y44.242
X8.367 Y43.706
X7.875 Y43.156
X7.401 Y42.591
X6.944 Y42.012
X6.504 Y41.419
X6.286 Y41.107
X6.213 Y40.976
X6.168 Y40.833
X6.153 Y40.683
Y38.373
G3 X6.707 Y38.173 I0.317 J0.011
G1 X6.727 Y38.195
X14.621 Y47.036
X14.666 Y47.085
G3 X14.44 Y47.614 I-0.237 J0.211
G1 X12.261
X12.065 Y47.604
X11.846 Y47.575
X11.596 Y47.522
X11.309 Y47.436
X10.955 Y47.298
X10.544 Y47.098
X10.032 Y46.797
X9.428 Y46.373
X8.857 Y45.905
X8.312 Y45.409
X7.787 Y44.89
X7.282 Y44.352
X6.793 Y43.799
X6.322 Y43.231
X6.31 Y43.216
X6.224 Y43.077
X6.171 Y42.922
X6.153 Y42.759
G3 X6.666 Y42.521 I0.317 J0.011
G1 X6.734 Y42.574
X12.438 Y47.04
X12.446 Y47.047
G3 X12.261 Y47.614 I-0.196 J0.25
G1 X10.418
X10.158 Y47.601
X9.959 Y47.575
X9.74 Y47.528
X9.471 Y47.447
X9.17 Y47.33
X8.805 Y47.153
X8.378 Y46.901
X7.84 Y46.523
X7.272 Y46.052
X6.736 Y45.545
X6.359 Y45.152
X6.247 Y45.
X6.177 Y44.826
X6.153 Y44.639
G3 X6.647 Y44.386 I0.317 J0.011
G1 X6.738 Y44.448
X10.584 Y47.033
G3 X10.418 Y47.614 I-0.177 J0.263
G1 X8.574
X8.375 Y47.604
X8.197 Y47.581
X7.982 Y47.535
X7.73 Y47.459
X7.461 Y47.354
X7.122 Y47.19
X6.752 Y46.972
X6.468 Y46.772
X6.336 Y46.654
X6.236 Y46.508
X6.174 Y46.342
X6.153 Y46.166
G3 X6.62 Y45.897 I0.317 J0.011
G1 X6.745 Y45.964
X8.713 Y47.017
G3 X8.574 Y47.614 I-0.15 J0.28
G1 X6.898
X6.742 Y47.606
X6.555 Y47.553
X6.39 Y47.45
X6.262 Y47.303
X6.181 Y47.127
X6.153 Y46.934
G3 X6.674 Y46.702 I0.317 J0.011
G1 X6.732 Y46.751
X7.076 Y47.04
X7.092 Y47.054
G3 X6.898 Y47.614 I-0.204 J0.243
G1 X6.479
X6.438 Y47.61
X6.396 Y47.601
X6.367 Y47.591
X6.337 Y47.578
X6.308 Y47.56
X6.279 Y47.538
X6.228 Y47.487
X6.206 Y47.458
X6.189 Y47.429
X6.175 Y47.4
X6.165 Y47.371
X6.156 Y47.329
X6.153 Y47.287
Y40.683
G3 X6.726 Y40.507 I0.317 J0.011
G1 X6.768 Y40.564 Z35.017
X6.807 Y40.618 Z35.041
X6.843 Y40.666 Z35.078
X6.873 Y40.707 Z35.129
X6.895 Y40.737 Z35.189
X6.909 Y40.756 Z35.256
X6.914 Y40.763 Z35.327
G0 Z43.009
X6.536 Y23.93
Z35.644
G1 Z35.327 F1016.
X6.532 Y23.923 Z35.256
X6.52 Y23.903 Z35.189
X6.501 Y23.87 Z35.129
X6.475 Y23.827 Z35.078
X6.444 Y23.775 Z35.041
X6.41 Y23.717 Z35.017
X6.374 Y23.657 Z35.009
G3 X6.153 Y22.903 I1.36 J-0.809
G1 Y19.216
X6.177 Y18.73
X6.225 Y18.362
X6.322 Y17.907
X6.499 Y17.318
X6.767 Y16.63
X7.083 Y15.964
X7.434 Y15.315
X7.812 Y14.681
X8.214 Y14.062
X8.637 Y13.458
X9.081 Y12.869
X9.545 Y12.295
X10.027 Y11.737
X10.528 Y11.194
X11.045 Y10.668
X11.579 Y10.159
X12.13 Y9.668
X12.696 Y9.195
X13.277 Y8.741
X13.874 Y8.307
X14.484 Y7.892
X15.107 Y7.497
X15.743 Y7.123
X16.391 Y6.769
X17.049 Y6.437
X17.693 Y6.138
X17.794 Y6.1
X17.899 Y6.077
X18.006 Y6.069
X21.762
G3 X21.939 Y6.642 I-0.011 J0.317
G1 X21.882 Y6.684 Z35.017
X21.827 Y6.724 Z35.041
X21.779 Y6.759 Z35.078
X21.738 Y6.789 Z35.129
X21.708 Y6.811 Z35.189
X21.689 Y6.825 Z35.256
X21.683 Y6.83 Z35.327
G0 Z43.009
X6.536 Y20.243
Z35.644
G1 Z35.327 F1016.
X6.532 Y20.236 Z35.256
X6.52 Y20.216 Z35.189
X6.501 Y20.183 Z35.129
X6.475 Y20.14 Z35.078
X6.444 Y20.088 Z35.041
X6.41 Y20.03 Z35.017
X6.374 Y19.97 Z35.009
G3 X6.153 Y19.216 I1.36 J-0.809
G1 Y16.367
X6.165 Y16.116
X6.201 Y15.846
X6.274 Y15.504
X6.395 Y15.1
X6.597 Y14.58
X6.917 Y13.921
X7.291 Y13.285
X7.701 Y12.672
X8.138 Y12.077
X8.598 Y11.5
X9.077 Y10.939
X9.575 Y10.394
X10.09 Y9.866
X10.621 Y9.354
X11.168 Y8.859
X11.73 Y8.381
X12.307 Y7.921
X12.898 Y7.479
X13.502 Y7.055
X14.119 Y6.651
X14.748 Y6.265
X14.921 Y6.166
X15.037 Y6.113
X15.161 Y6.08
X15.288 Y6.069
X18.006
G3 X18.203 Y6.625 I-0.011 J0.317
G1 X18.183 Y6.643
X6.196 Y17.092
G2 X6.35 Y17.269 I0.077 J0.089
X6.374 Y17.121 I-0.077 J-0.089
G3 X6.153 Y16.367 I1.36 J-0.809
G1 Y14.021
X6.16 Y13.871
X6.191 Y13.638
X6.253 Y13.349
X6.349 Y13.029
X6.51 Y12.616
X6.747 Y12.128
X7.118 Y11.5
X7.542 Y10.897
X8. Y10.319
X8.484 Y9.761
X8.988 Y9.222
X9.51 Y8.701
X10.048 Y8.196
X10.601 Y7.708
X11.169 Y7.237
X11.751 Y6.783
X12.345 Y6.346
X12.557 Y6.2
X12.688 Y6.128
X12.83 Y6.084
X12.978 Y6.069
X15.288
G3 X15.485 Y6.626 I-0.011 J0.317
G1 X15.466 Y6.643
X6.732 Y14.203
X6.678 Y14.25
G3 X6.153 Y14.021 I-0.208 J-0.24
G1 Y12.01
X6.161 Y11.845
X6.189 Y11.627
X6.241 Y11.384
X6.326 Y11.101
X6.461 Y10.755
X6.656 Y10.353
X6.949 Y9.856
X7.373 Y9.252
X7.842 Y8.682
X8.341 Y8.139
X8.862 Y7.617
X9.402 Y7.114
X9.957 Y6.628
X10.433 Y6.237
X10.576 Y6.145
X10.735 Y6.088
X10.903 Y6.069
G3 X11.142 Y6.583 I-0.011 J0.317
G1 X11.089 Y6.65
X6.726 Y12.187
X6.719 Y12.195
G3 X6.153 Y12.01 I-0.249 J-0.197
G1 Y10.166
X6.163 Y9.956
X6.189 Y9.762
X6.235 Y9.545
X6.315 Y9.277
X6.43 Y8.982
X6.605 Y8.622
X6.851 Y8.204
X7.22 Y7.678
X7.692 Y7.11
X8.2 Y6.576
X8.517 Y6.273
X8.668 Y6.162
X8.842 Y6.093
X9.028 Y6.069
G3 X9.28 Y6.564 I-0.011 J0.317
G1 X9.219 Y6.654
X6.733 Y10.333
G3 X6.153 Y10.166 I-0.263 J-0.178
G1 Y8.323
X6.16 Y8.173
X6.186 Y7.992
X6.235 Y7.772
X6.311 Y7.523
X6.421 Y7.249
X6.589 Y6.911
X6.812 Y6.539
X6.927 Y6.378
X7.091 Y6.212
X7.299 Y6.106
X7.53 Y6.069
G3 X7.797 Y6.538 I-0.011 J0.317
G1 X7.731 Y6.66
X6.749 Y8.464
G3 X6.153 Y8.323 I-0.279 J-0.152
G1 Y6.723
X6.16 Y6.573
X6.228 Y6.374
X6.36 Y6.212
X6.541 Y6.106
X6.747 Y6.069
G3 X6.982 Y6.587 I-0.011 J0.317
G1 X6.931 Y6.649
X6.726 Y6.9
X6.716 Y6.912
G3 X6.153 Y6.723 I-0.246 J-0.201
G1 Y6.396
X6.156 Y6.354
X6.165 Y6.312
X6.175 Y6.283
X6.189 Y6.254
X6.206 Y6.225
X6.228 Y6.195
X6.279 Y6.144
X6.308 Y6.122
X6.337 Y6.105
X6.367 Y6.092
X6.396 Y6.082
X6.438 Y6.072
X6.479 Y6.069
X12.978
G3 X13.284 Y6.366 I-0.011 J0.317
G1 Y6.386 Z35.01
X13.271 Y6.44 Z35.018
X13.258 Y6.491 Z35.037
X13.246 Y6.538 Z35.064
X13.215 Y6.573 Z35.103
X13.189 Y6.603 Z35.151
X13.17 Y6.624 Z35.206
X13.159 Y6.638 Z35.265
X13.155 Y6.642 Z35.326
G0 Z43.009
X28.208 Y26.048
Z37.509
G3 X25.642 Y27.634 Z37.344 I-1.283 J0.793 F1016.
X28.208 Y26.048 Z37.178 I1.283 J-0.793
X25.642 Y27.634 Z37.013 I-1.283 J0.793
X28.208 Y26.048 Z36.847 I1.283 J-0.793
X25.642 Y27.634 Z36.682 I-1.283 J0.793
X28.208 Y26.048 Z36.516 I1.283 J-0.793
X25.642 Y27.634 Z36.351 I-1.283 J0.793
X28.208 Y26.048 Z36.185 I1.283 J-0.793
X25.642 Y27.634 Z36.02 I-1.283 J0.793
X28.208 Y26.048 Z35.855 I1.283 J-0.793
X25.642 Y27.634 Z35.689 I-1.283 J0.793
X28.208 Y26.048 Z35.524 I1.283 J-0.793
X25.642 Y27.634 Z35.358 I-1.283 J0.793
X28.208 Y26.048 Z35.193 I1.283 J-0.793
X25.642 Y27.634 Z35.027 I-1.283 J0.793
X28.208 Y26.048 Z34.862 I1.283 J-0.793
X25.642 Y27.634 Z34.696 I-1.283 J0.793
X28.208 Y26.048 Z34.531 I1.283 J-0.793
X25.642 Y27.634 Z34.366 I-1.283 J0.793
X28.208 Y26.048 Z34.2 I1.283 J-0.793
X25.642 Y27.634 Z34.035 I-1.283 J0.793
X28.208 Y26.048 Z33.869 I1.283 J-0.793
X25.642 Y27.634 Z33.704 I-1.283 J0.793
X28.208 Y26.048 Z33.538 I1.283 J-0.793
X28.433 Y26.841 Z33.509 I-1.283 J0.793
X25.417 I-1.508 J0.
X28.433 I1.508 J0.
G1 X28.453 Y27.579
X28.474 Y27.668
X28.49 Y27.818
X28.477 Y27.967
X28.442 Y28.113
X28.387 Y28.252
X28.315 Y28.384
X28.23 Y28.507
X28.131 Y28.621
X28.023 Y28.724
X27.905 Y28.817
X27.779 Y28.899
X27.647 Y28.97
X27.509 Y29.03
X27.362 Y29.081
X27.208 Y29.12
X27.048 Y29.148
X26.883 Y29.163
X26.714 Y29.164
X26.543 Y29.152
X26.372 Y29.126
X26.2 Y29.085
X26.031 Y29.031
X25.864 Y28.962
X25.703 Y28.879
X25.547 Y28.783
X25.398 Y28.674
X25.258 Y28.552
X25.127 Y28.419
X25.007 Y28.276
X24.898 Y28.122
X24.802 Y27.96
X24.719 Y27.789
X24.649 Y27.612
X24.594 Y27.43
X24.553 Y27.243
X24.527 Y27.054
X24.517 Y26.862
X24.522 Y26.67
X24.543 Y26.479
X24.579 Y26.29
X24.63 Y26.104
X24.695 Y25.923
X24.775 Y25.747
X24.869 Y25.579
X24.977 Y25.418
X25.097 Y25.267
X25.229 Y25.125
X25.371 Y24.994
X25.524 Y24.876
X25.686 Y24.77
X25.856 Y24.677
X26.033 Y24.598
X26.216 Y24.534
X26.403 Y24.484
X26.594 Y24.45
X26.787 Y24.431
X26.98 Y24.427
X27.174 Y24.44
X27.366 Y24.467
X27.555 Y24.51
X27.74 Y24.568
X27.92 Y24.641
X28.093 Y24.728
X28.259 Y24.828
X28.416 Y24.942
X28.564 Y25.067
X28.701 Y25.205
X28.826 Y25.352
X28.94 Y25.51
X29.044 Y25.682
X29.155 Y25.905
X29.302 Y26.269
X29.41 Y26.612
X29.474 Y26.895
X29.51 Y27.15
X29.525 Y27.388
X29.521 Y27.611
X29.5 Y27.824
X29.462 Y28.031
X29.408 Y28.233
X29.339 Y28.43
X29.254 Y28.621
X29.154 Y28.804
X29.039 Y28.979
X28.909 Y29.145
X28.765 Y29.302
X28.607 Y29.449
X28.435 Y29.585
X28.251 Y29.708
X28.054 Y29.817
X27.847 Y29.912
