(1001)
(T1  D=3.175 CR=0. - ZMIN=13.328 - FLAT END MILL)
G0 G90 G94 G17
G21
G53 Z0.

(ADAPTIVE1)
M5
M9
T1
S16500 M3
G55
M9
G0 X28.072 Y26.323
Z53.227
Z43.227
Z40.727
G3 X25.507 Y27.909 Z40.561 I-1.283 J0.793 F1016.
X28.072 Y26.323 Z40.396 I1.283 J-0.793
X25.507 Y27.909 Z40.23 I-1.283 J0.793
X28.072 Y26.323 Z40.065 I1.283 J-0.793
X25.507 Y27.909 Z39.899 I-1.283 J0.793
X28.072 Y26.323 Z39.734 I1.283 J-0.793
X25.507 Y27.909 Z39.569 I-1.283 J0.793
X28.072 Y26.323 Z39.403 I1.283 J-0.793
X25.507 Y27.909 Z39.238 I-1.283 J0.793
X28.072 Y26.323 Z39.072 I1.283 J-0.793
X25.507 Y27.909 Z38.907 I-1.283 J0.793
X28.072 Y26.323 Z38.741 I1.283 J-0.793
X25.507 Y27.909 Z38.576 I-1.283 J0.793
X28.072 Y26.323 Z38.41 I1.283 J-0.793
X25.507 Y27.909 Z38.245 I-1.283 J0.793
X28.072 Y26.323 Z38.079 I1.283 J-0.793
X25.507 Y27.909 Z37.914 I-1.283 J0.793
X28.072 Y26.323 Z37.749 I1.283 J-0.793
X25.507 Y27.909 Z37.583 I-1.283 J0.793
X28.072 Y26.323 Z37.418 I1.283 J-0.793
X25.507 Y27.909 Z37.252 I-1.283 J0.793
X28.072 Y26.323 Z37.087 I1.283 J-0.793
X25.507 Y27.909 Z36.921 I-1.283 J0.793
X28.072 Y26.323 Z36.756 I1.283 J-0.793
X28.297 Y27.116 Z36.727 I-1.283 J0.793
X25.281 I-1.508 J0.
X28.297 I1.508 J0.
G1 X28.317 Y27.854
X28.339 Y27.943
X28.354 Y28.092
X28.341 Y28.242
X28.306 Y28.388
X28.251 Y28.527
X28.18 Y28.659
X28.094 Y28.782
X27.996 Y28.896
X27.887 Y28.999
X27.769 Y29.092
X27.643 Y29.174
X27.511 Y29.245
X27.373 Y29.305
X27.226 Y29.356
X27.072 Y29.395
X26.912 Y29.423
X26.747 Y29.437
X26.578 Y29.439
X26.408 Y29.427
X26.236 Y29.401
X26.064 Y29.36
X25.895 Y29.305
X25.729 Y29.237
X25.567 Y29.154
X25.411 Y29.058
X25.263 Y28.949
X25.122 Y28.827
X24.992 Y28.694
X24.871 Y28.551
X24.763 Y28.397
X24.666 Y28.234
X24.583 Y28.064
X24.513 Y27.887
X24.458 Y27.705
X24.417 Y27.518
X24.392 Y27.329
X24.381 Y27.137
X24.386 Y26.945
X24.407 Y26.754
X24.443 Y26.565
X24.494 Y26.379
X24.559 Y26.198
X24.64 Y26.022
X24.734 Y25.854
X24.841 Y25.693
X24.961 Y25.541
X25.093 Y25.4
X25.236 Y25.269
X25.388 Y25.151
X25.55 Y25.045
X25.72 Y24.952
X25.897 Y24.873
X26.08 Y24.808
X26.267 Y24.759
X26.458 Y24.725
X26.651 Y24.706
X26.845 Y24.702
X27.038 Y24.714
X27.23 Y24.742
X27.419 Y24.785
X27.604 Y24.843
X27.784 Y24.916
X27.957 Y25.002
X28.123 Y25.103
X28.28 Y25.216
X28.428 Y25.342
X28.565 Y25.479
X28.691 Y25.627
X28.804 Y25.785
X28.908 Y25.957
X29.02 Y26.18
X29.167 Y26.544
X29.274 Y26.887
X29.338 Y27.17
X29.374 Y27.425
X29.389 Y27.662
X29.385 Y27.886
X29.364 Y28.099
X29.326 Y28.306
X29.273 Y28.508
X29.203 Y28.705
X29.118 Y28.896
X29.018 Y29.078
X28.903 Y29.253
X28.773 Y29.42
X28.629 Y29.577
X28.471 Y29.724
X28.3 Y29.86
X28.115 Y29.983
X27.919 Y30.092
X27.711 Y30.187
X27.493 Y30.266
X27.266 Y30.328
X27.032 Y30.372
X26.792 Y30.397
X26.548 Y30.404
X26.302 Y30.39
X26.055 Y30.357
X25.809 Y30.303
X25.567 Y30.229
X25.329 Y30.135
X25.098 Y30.022
X24.875 Y29.889
X24.663 Y29.739
X24.462 Y29.57
X24.274 Y29.385
X24.101 Y29.185
X23.943 Y28.97
X23.803 Y28.743
X23.682 Y28.505
X23.579 Y28.256
X23.496 Y27.999
X23.435 Y27.736
X23.394 Y27.469
X23.375 Y27.198
X23.378 Y26.926
X23.402 Y26.655
X23.449 Y26.386
X23.517 Y26.122
X23.606 Y25.864
X23.715 Y25.613
X23.845 Y25.372
X23.993 Y25.141
X24.159 Y24.924
X24.343 Y24.72
X24.542 Y24.532
X24.756 Y24.36
X24.984 Y24.205
X25.223 Y24.07
X25.472 Y23.954
X25.729 Y23.858
X25.994 Y23.784
X26.264 Y23.73
X26.537 Y23.699
X26.812 Y23.69
X27.086 Y23.702
X27.359 Y23.737
X27.629 Y23.794
X27.892 Y23.872
X28.149 Y23.97
X28.397 Y24.09
X28.635 Y24.228
X28.861 Y24.386
X29.074 Y24.562
X29.281 Y24.762
X29.495 Y25.005
X29.697 Y25.276
X29.883 Y25.573
X30.048 Y25.889
X30.185 Y26.214
X30.293 Y26.541
X30.372 Y26.864
X30.423 Y27.184
X30.448 Y27.501
X30.447 Y27.813
X30.422 Y28.121
X30.372 Y28.422
X30.3 Y28.716
X30.204 Y29.002
X30.086 Y29.278
X29.946 Y29.543
X29.786 Y29.797
X29.605 Y30.038
X29.404 Y30.264
X29.185 Y30.475
X28.947 Y30.669
X28.693 Y30.844
X28.424 Y31.
X28.14 Y31.135
X27.844 Y31.248
X27.537 Y31.337
X27.221 Y31.402
X26.899 Y31.442
X26.571 Y31.456
X26.242 Y31.443
X25.912 Y31.404
X25.584 Y31.338
X25.26 Y31.245
X24.943 Y31.126
X24.635 Y30.981
X24.338 Y30.811
X24.053 Y30.616
X23.784 Y30.398
X23.533 Y30.158
X23.3 Y29.898
X23.088 Y29.619
X22.899 Y29.323
X22.733 Y29.011
X22.593 Y28.686
X22.479 Y28.35
X22.392 Y28.005
X22.333 Y27.654
X22.302 Y27.298
X22.299 Y26.941
X22.326 Y26.583
X22.381 Y26.229
X22.465 Y25.88
X22.576 Y25.538
X22.715 Y25.206
X22.88 Y24.886
X23.07 Y24.58
X23.284 Y24.29
X23.521 Y24.018
X23.779 Y23.766
X24.057 Y23.536
X24.352 Y23.328
X24.663 Y23.145
X24.988 Y22.987
X25.325 Y22.855
X25.671 Y22.751
X26.025 Y22.676
X26.383 Y22.628
X26.745 Y22.61
X27.106 Y22.621
X27.466 Y22.661
X27.821 Y22.729
X28.17 Y22.826
X28.509 Y22.951
X28.838 Y23.102
X29.157 Y23.281
X29.469 Y23.491
X29.772 Y23.733
X30.065 Y24.006
X30.341 Y24.311
X30.597 Y24.642
X30.827 Y24.996
X31.028 Y25.367
X31.198 Y25.751
X31.335 Y26.145
X31.439 Y26.544
X31.511 Y26.947
X31.549 Y27.351
X31.555 Y27.753
X31.529 Y28.152
X31.471 Y28.544
X31.382 Y28.929
X31.264 Y29.303
X31.115 Y29.666
X30.939 Y30.016
X30.735 Y30.351
X30.504 Y30.668
X30.248 Y30.967
X29.967 Y31.245
X29.664 Y31.501
X29.34 Y31.733
X28.996 Y31.94
X28.635 Y32.119
X28.258 Y32.27
X27.868 Y32.39
X27.467 Y32.48
X27.058 Y32.537
X26.643 Y32.561
X26.225 Y32.552
X25.806 Y32.51
X25.39 Y32.433
X24.98 Y32.323
X24.578 Y32.179
X24.186 Y32.003
X23.809 Y31.794
X23.447 Y31.556
X23.105 Y31.288
X22.784 Y30.992
X22.487 Y30.67
X22.216 Y30.324
X21.972 Y29.957
X21.759 Y29.57
X21.576 Y29.167
X21.426 Y28.749
X21.31 Y28.319
X21.229 Y27.881
X21.183 Y27.436
X21.173 Y26.989
X21.199 Y26.542
X21.261 Y26.098
X21.358 Y25.66
X21.49 Y25.23
X21.657 Y24.812
X21.856 Y24.409
X22.088 Y24.023
X22.349 Y23.656
X22.64 Y23.311
X22.958 Y22.991
X23.3 Y22.697
X23.665 Y22.431
X24.05 Y22.195
X24.453 Y21.991
X24.871 Y21.82
X25.302 Y21.683
X25.742 Y21.581
X26.19 Y21.515
X26.641 Y21.484
X27.093 Y21.49
X27.543 Y21.533
X27.989 Y21.611
X28.427 Y21.725
X28.857 Y21.875
X29.278 Y22.06
X29.687 Y22.281
X30.083 Y22.538
X30.464 Y22.832
X30.827 Y23.161
X31.167 Y23.523
X31.481 Y23.916
X31.764 Y24.335
X32.012 Y24.777
X32.224 Y25.236
X32.399 Y25.71
X32.533 Y26.194
X32.629 Y26.684
X32.684 Y27.178
X32.699 Y27.672
X32.675 Y28.163
X32.611 Y28.649
X32.51 Y29.126
X32.37 Y29.592
X32.194 Y30.044
X31.983 Y30.481
X31.737 Y30.899
X31.458 Y31.296
X31.148 Y31.67
X30.808 Y32.02
X30.439 Y32.341
X30.045 Y32.634
X29.626 Y32.894
X29.186 Y33.122
X28.727 Y33.314
X28.252 Y33.469
X27.764 Y33.587
X27.265 Y33.665
X26.759 Y33.703
X26.25 Y33.7
X25.74 Y33.657
X25.233 Y33.572
X24.732 Y33.446
X24.24 Y33.28
X23.762 Y33.073
X23.3 Y32.829
X22.858 Y32.547
X22.438 Y32.229
X22.044 Y31.877
X21.678 Y31.494
X21.343 Y31.082
X21.042 Y30.643
X20.776 Y30.18
X20.548 Y29.696
X20.359 Y29.194
X20.21 Y28.678
X20.103 Y28.151
X20.039 Y27.616
X20.018 Y27.077
X20.04 Y26.537
X20.106 Y26.
X20.215 Y25.47
X20.365 Y24.95
X20.558 Y24.443
X20.79 Y23.952
X21.062 Y23.482
X21.37 Y23.035
X21.714 Y22.614
X22.09 Y22.221
X22.497 Y21.86
X22.931 Y21.532
X23.391 Y21.241
X23.872 Y20.987
X24.373 Y20.772
X24.889 Y20.599
X25.418 Y20.467
X25.956 Y20.378
X26.499 Y20.333
X27.044 Y20.331
X27.587 Y20.373
X28.127 Y20.459
X28.659 Y20.588
X29.183 Y20.761
X29.695 Y20.976
X30.193 Y21.235
X30.675 Y21.537
X31.136 Y21.88
X31.574 Y22.264
X31.983 Y22.685
X32.36 Y23.142
X32.7 Y23.629
X33.001 Y24.143
X33.259 Y24.679
X33.474 Y25.235
X33.643 Y25.804
X33.765 Y26.383
X33.84 Y26.968
X33.868 Y27.556
X33.849 Y28.141
X33.783 Y28.722
X33.67 Y29.293
X33.513 Y29.853
X33.312 Y30.397
X33.067 Y30.923
X32.782 Y31.428
X32.456 Y31.909
X32.093 Y32.362
X31.693 Y32.786
X31.26 Y33.177
X30.795 Y33.533
X30.302 Y33.852
X29.783 Y34.131
X29.242 Y34.368
X28.68 Y34.562
X28.103 Y34.711
X27.514 Y34.813
X26.915 Y34.868
X26.312 Y34.875
X25.708 Y34.833
X25.107 Y34.743
X24.513 Y34.604
X23.93 Y34.417
X23.361 Y34.183
X22.812 Y33.904
X22.285 Y33.58
X21.785 Y33.214
X21.314 Y32.807
X20.876 Y32.363
X20.474 Y31.885
X20.111 Y31.374
X19.789 Y30.835
X19.511 Y30.27
X19.279 Y29.684
X19.095 Y29.08
X18.959 Y28.463
X18.873 Y27.836
X18.838 Y27.203
X18.854 Y26.568
X18.921 Y25.936
X19.038 Y25.311
X19.205 Y24.697
X19.421 Y24.098
X19.685 Y23.518
X19.994 Y22.961
X20.348 Y22.429
X20.743 Y21.928
X21.177 Y21.46
X21.648 Y21.028
X22.152 Y20.635
X22.686 Y20.284
X23.246 Y19.976
X23.83 Y19.715
X24.433 Y19.501
X25.051 Y19.336
X25.68 Y19.222
X26.317 Y19.158
X26.957 Y19.145
X27.597 Y19.184
X28.234 Y19.275
X28.863 Y19.417
X29.483 Y19.61
X30.089 Y19.853
X30.679 Y20.147
X31.247 Y20.49
X31.791 Y20.881
X32.305 Y21.318
X32.787 Y21.797
X33.23 Y22.317
X33.633 Y22.873
X33.99 Y23.462
X34.299 Y24.077
X34.558 Y24.716
X34.765 Y25.373
X34.918 Y26.043
X35.016 Y26.721
X35.06 Y27.403
X35.048 Y28.085
X34.983 Y28.763
X34.863 Y29.431
X34.69 Y30.086
X34.466 Y30.725
X34.191 Y31.344
X33.867 Y31.938
X33.497 Y32.505
X33.082 Y33.04
X32.624 Y33.542
X32.127 Y34.006
X31.593 Y34.429
X31.026 Y34.809
X30.428 Y35.144
X29.803 Y35.43
X29.155 Y35.665
X28.488 Y35.849
X27.807 Y35.979
X27.115 Y36.054
X26.416 Y36.073
X25.716 Y36.037
X25.019 Y35.943
X24.33 Y35.794
X23.652 Y35.589
X22.992 Y35.33
X22.352 Y35.017
X21.737 Y34.654
X21.153 Y34.24
X20.602 Y33.781
X20.088 Y33.277
X19.615 Y32.732
X19.187 Y32.151
X18.806 Y31.535
X18.476 Y30.89
X18.197 Y30.219
X17.973 Y29.527
X17.805 Y28.818
X17.695 Y28.098
X17.642 Y27.37
X17.648 Y26.639
X17.713 Y25.91
X17.836 Y25.189
X18.017 Y24.479
X18.254 Y23.785
X18.547 Y23.112
X18.892 Y22.465
X19.289 Y21.847
X19.734 Y21.263
X20.225 Y20.716
X20.758 Y20.21
X21.331 Y19.748
X21.938 Y19.334
X22.578 Y18.97
X23.244 Y18.658
X23.934 Y18.4
X24.642 Y18.199
X25.364 Y18.055
X26.095 Y17.97
X26.832 Y17.943
X27.569 Y17.976
X28.301 Y18.068
X29.023 Y18.218
X29.731 Y18.425
X30.421 Y18.688
X31.087 Y19.004
X31.727 Y19.372
X32.336 Y19.788
X32.912 Y20.25
X33.45 Y20.754
X33.948 Y21.299
X34.403 Y21.879
X34.814 Y22.492
X35.177 Y23.135
X35.49 Y23.803
X35.753 Y24.492
X35.963 Y25.199
X36.119 Y25.921
X36.22 Y26.651
X36.266 Y27.388
X36.254 Y28.125
X36.186 Y28.86
X36.062 Y29.587
X35.882 Y30.303
X35.648 Y31.003
X35.362 Y31.683
X35.024 Y32.339
X34.637 Y32.967
X34.203 Y33.564
X33.725 Y34.126
X33.206 Y34.65
X32.648 Y35.133
X32.055 Y35.572
X31.431 Y35.965
X30.779 Y36.31
X30.102 Y36.605
X29.406 Y36.848
X28.693 Y37.039
X27.968 Y37.175
X27.234 Y37.256
X26.497 Y37.28
X25.76 Y37.25
X25.027 Y37.165
X24.302 Y37.026
X23.59 Y36.834
X22.893 Y36.59
X22.216 Y36.297
X21.563 Y35.955
X20.935 Y35.567
X20.337 Y35.135
X19.773 Y34.66
X19.245 Y34.144
X18.757 Y33.59
X18.311 Y33.003
X17.908 Y32.385
X17.551 Y31.739
X17.24 Y31.07
X16.977 Y30.381
X16.764 Y29.674
X16.602 Y28.954
X16.493 Y28.225
X16.438 Y27.489
X16.436 Y26.751
X16.487 Y26.015
X16.591 Y25.285
X16.745 Y24.563
X16.951 Y23.854
X17.205 Y23.162
X17.507 Y22.489
X17.858 Y21.839
X18.255 Y21.218
X18.696 Y20.626
X19.178 Y20.068
X19.699 Y19.545
X20.254 Y19.06
X20.843 Y18.615
X21.461 Y18.212
X22.106 Y17.854
X22.775 Y17.543
X23.466 Y17.283
X24.173 Y17.073
X24.893 Y16.913
X25.623 Y16.805
X26.359 Y16.748
X27.097 Y16.742
X27.833 Y16.789
X28.564 Y16.886
X29.287 Y17.037
X29.996 Y17.24
X30.689 Y17.493
X31.363 Y17.793
X32.015 Y18.138
X32.642 Y18.528
X33.241 Y18.958
X33.809 Y19.429
X34.344 Y19.937
X34.843 Y20.481
X35.302 Y21.058
X35.722 Y21.665
X36.1 Y22.299
X36.435 Y22.956
X36.726 Y23.634
X36.971 Y24.33
X37.171 Y25.04
X37.322 Y25.762
X37.422 Y26.493
X37.472 Y27.229
X37.471 Y27.967
X37.42 Y28.703
X37.32 Y29.434
X37.17 Y30.157
X36.973 Y30.868
X36.728 Y31.564
X36.437 Y32.242
X36.099 Y32.898
X35.717 Y33.528
X35.292 Y34.131
X34.827 Y34.705
X34.325 Y35.245
X33.788 Y35.751
X33.219 Y36.221
X32.619 Y36.651
X31.993 Y37.04
X31.34 Y37.385
X30.666 Y37.684
X29.973 Y37.937
X29.264 Y38.144
X28.544 Y38.303
X27.815 Y38.413
X27.079 Y38.475
X26.342 Y38.489
X25.605 Y38.454
X24.872 Y38.368
X24.146 Y38.233
X23.432 Y38.05
X22.73 Y37.822
X22.045 Y37.548
X21.379 Y37.231
X20.734 Y36.873
X20.113 Y36.473
X19.52 Y36.035
X18.957 Y35.558
X18.428 Y35.044
X17.934 Y34.495
X17.477 Y33.916
X17.058 Y33.309
X16.679 Y32.676
X16.34 Y32.021
X16.043 Y31.346
X15.789 Y30.653
X15.579 Y29.945
X15.417 Y29.226
X15.304 Y28.496
X15.238 Y27.762
X15.22 Y27.024
X15.249 Y26.287
X15.324 Y25.553
X15.445 Y24.825
X15.611 Y24.106
X15.822 Y23.399
X16.077 Y22.707
X16.378 Y22.033
X16.723 Y21.381
X17.109 Y20.752
X17.534 Y20.149
X17.997 Y19.574
X18.494 Y19.03
X19.025 Y18.517
X19.587 Y18.039
X20.177 Y17.597
X20.796 Y17.194
X21.439 Y16.832
X22.104 Y16.513
X22.788 Y16.238
X23.489 Y16.006
X24.203 Y15.819
X24.927 Y15.678
X25.658 Y15.581
X26.394 Y15.531
X27.132 Y15.527
X27.869 Y15.571
X28.601 Y15.663
X29.325 Y15.802
X30.04 Y15.987
X30.741 Y16.216
X31.427 Y16.488
X32.095 Y16.802
X32.742 Y17.156
X33.367 Y17.549
X33.965 Y17.98
X34.536 Y18.448
X35.076 Y18.95
X35.584 Y19.485
X36.058 Y20.05
X36.498 Y20.643
X36.901 Y21.261
X37.266 Y21.902
X37.593 Y22.563
X37.881 Y23.243
X38.126 Y23.939
X38.328 Y24.648
X38.486 Y25.369
X38.599 Y26.098
X38.667 Y26.833
X38.691 Y27.57
X38.669 Y28.308
X38.604 Y29.043
X38.494 Y29.772
X38.341 Y30.494
X38.144 Y31.205
X37.902 Y31.902
X37.618 Y32.583
X37.292 Y33.245
X36.926 Y33.885
X36.521 Y34.503
X36.081 Y35.094
X35.605 Y35.658
X35.097 Y36.193
X34.557 Y36.697
X33.988 Y37.166
X33.391 Y37.599
X32.768 Y37.995
X32.122 Y38.351
X31.456 Y38.668
X30.771 Y38.944
X30.072 Y39.179
X29.36 Y39.372
X28.637 Y39.522
X27.907 Y39.629
X27.172 Y39.691
X26.435 Y39.708
X25.697 Y39.68
X24.963 Y39.607
X24.234 Y39.491
X23.514 Y39.331
X22.804 Y39.13
X22.107 Y38.888
X21.426 Y38.606
X20.761 Y38.285
X20.117 Y37.925
X19.495 Y37.528
X18.898 Y37.094
X18.329 Y36.625
X17.788 Y36.123
X17.278 Y35.59
X16.8 Y35.028
X16.355 Y34.44
X15.945 Y33.826
X15.57 Y33.191
X15.232 Y32.535
X14.934 Y31.86
X14.676 Y31.169
X14.458 Y30.464
X14.283 Y29.747
X14.15 Y29.021
X14.059 Y28.289
X14.011 Y27.553
X14.006 Y26.815
X14.042 Y26.078
X14.12 Y25.345
X14.241 Y24.617
X14.404 Y23.897
X14.609 Y23.188
X14.854 Y22.492
X15.139 Y21.812
X15.464 Y21.149
X15.826 Y20.507
X16.225 Y19.886
X16.658 Y19.289
X17.125 Y18.717
X17.624 Y18.174
X18.153 Y17.66
X18.712 Y17.178
X19.297 Y16.728
X19.908 Y16.314
X20.541 Y15.936
X21.195 Y15.595
X21.868 Y15.292
X22.557 Y15.028
X23.26 Y14.804
X23.975 Y14.62
X24.699 Y14.478
X25.43 Y14.378
X26.165 Y14.321
X26.903 Y14.306
X27.64 Y14.333
X28.375 Y14.403
X29.104 Y14.516
X29.825 Y14.669
X30.537 Y14.864
X31.237 Y15.098
X31.922 Y15.371
X32.591 Y15.684
X33.24 Y16.033
X33.869 Y16.419
X34.476 Y16.84
X35.057 Y17.293
X35.613 Y17.779
X36.14 Y18.295
X36.638 Y18.839
X37.106 Y19.41
X37.542 Y20.005
X37.944 Y20.623
X38.312 Y21.263
X38.643 Y21.922
X38.938 Y22.599
X39.196 Y23.29
X39.415 Y23.995
X39.594 Y24.71
X39.734 Y25.435
X39.834 Y26.166
X39.893 Y26.901
X39.912 Y27.639
X39.89 Y28.376
X39.827 Y29.111
X39.722 Y29.842
X39.578 Y30.565
X39.393 Y31.28
X39.169 Y31.983
X38.906 Y32.672
X38.605 Y33.346
X38.268 Y34.002
X37.894 Y34.638
X37.487 Y35.253
X37.046 Y35.845
X36.572 Y36.411
X36.068 Y36.949
X35.535 Y37.459
X34.975 Y37.939
X34.388 Y38.387
X33.778 Y38.802
X33.146 Y39.183
X32.495 Y39.529
X31.825 Y39.838
X31.139 Y40.111
X30.44 Y40.345
X29.728 Y40.541
X29.007 Y40.696
X28.278 Y40.812
X27.544 Y40.888
X26.807 Y40.924
X26.07 Y40.919
X25.333 Y40.873
X24.6 Y40.788
X23.873 Y40.664
X23.153 Y40.501
X22.444 Y40.3
X21.746 Y40.059
X21.062 Y39.782
X20.394 Y39.469
X19.744 Y39.121
X19.113 Y38.738
X18.504 Y38.322
X17.918 Y37.873
X17.357 Y37.394
X16.823 Y36.885
X16.316 Y36.349
X15.839 Y35.787
X15.393 Y35.199
X14.978 Y34.588
X14.597 Y33.956
X14.25 Y33.306
X13.937 Y32.637
X13.66 Y31.953
X13.42 Y31.256
X13.217 Y30.546
X13.052 Y29.827
X12.926 Y29.1
X12.837 Y28.368
X12.789 Y27.632
X12.78 Y26.894
X12.81 Y26.157
X12.878 Y25.422
X12.986 Y24.692
X13.131 Y23.969
X13.314 Y23.254
X13.534 Y22.55
X13.791 Y21.858
X14.084 Y21.181
X14.413 Y20.52
X14.775 Y19.878
X15.173 Y19.256
X15.602 Y18.656
X16.062 Y18.079
X16.552 Y17.528
X17.07 Y17.002
X17.615 Y16.505
X18.185 Y16.037
X18.779 Y15.599
X19.395 Y15.193
X20.032 Y14.82
X20.687 Y14.48
X21.359 Y14.177
X22.047 Y13.91
X22.748 Y13.679
X23.46 Y13.486
X24.181 Y13.33
X24.909 Y13.211
X25.643 Y13.132
X26.38 Y13.09
X27.117 Y13.087
X27.854 Y13.123
X28.588 Y13.197
X29.318 Y13.31
X30.04 Y13.461
X30.753 Y13.651
X31.455 Y13.877
X32.145 Y14.139
X32.82 Y14.437
X33.479 Y14.768
X34.12 Y15.134
X34.741 Y15.531
X35.342 Y15.96
X35.92 Y16.419
X36.474 Y16.906
X37.001 Y17.422
X37.502 Y17.964
X37.974 Y18.531
X38.417 Y19.121
X38.83 Y19.732
X39.211 Y20.364
X39.561 Y21.014
X39.877 Y21.68
X40.16 Y22.362
X40.408 Y23.057
X40.621 Y23.763
X40.799 Y24.479
X40.939 Y25.203
X41.041 Y25.934
X41.107 Y26.669
X41.135 Y27.406
X41.126 Y28.144
X41.079 Y28.88
X40.995 Y29.613
X40.874 Y30.341
X40.717 Y31.062
X40.523 Y31.774
X40.294 Y32.475
X40.029 Y33.164
X39.729 Y33.838
X39.394 Y34.496
X39.027 Y35.135
X38.628 Y35.756
X38.197 Y36.355
X37.737 Y36.932
X37.248 Y37.485
X36.733 Y38.012
X36.191 Y38.513
X35.625 Y38.986
X35.036 Y39.431
X34.425 Y39.844
X33.793 Y40.226
X33.143 Y40.575
X32.476 Y40.891
X31.795 Y41.172
X31.099 Y41.42
X30.393 Y41.632
X29.676 Y41.808
X28.952 Y41.948
X28.221 Y42.052
X27.487 Y42.12
X26.75 Y42.15
X26.012 Y42.144
X25.275 Y42.1
X24.542 Y42.019
X23.814 Y41.901
X23.092 Y41.748
X22.379 Y41.559
X21.676 Y41.335
X20.984 Y41.077
X20.307 Y40.785
X19.644 Y40.461
X18.998 Y40.105
X18.37 Y39.717
X17.762 Y39.299
X17.176 Y38.851
X16.613 Y38.374
X16.074 Y37.87
X15.561 Y37.34
X15.074 Y36.786
X14.615 Y36.208
X14.185 Y35.608
X13.785 Y34.989
X13.415 Y34.35
X13.076 Y33.695
X12.769 Y33.024
X12.494 Y32.339
X12.254 Y31.642
X12.049 Y30.933
X11.88 Y30.215
X11.745 Y29.489
X11.646 Y28.758
X11.583 Y28.023
X11.556 Y27.286
X11.564 Y26.548
X11.608 Y25.811
X11.687 Y25.078
X11.801 Y24.349
X11.95 Y23.626
X12.134 Y22.912
X12.353 Y22.207
X12.607 Y21.514
X12.894 Y20.835
X13.213 Y20.17
X13.565 Y19.521
X13.948 Y18.89
X14.36 Y18.279
X14.802 Y17.688
X15.272 Y17.119
X15.768 Y16.573
X16.29 Y16.051
X16.836 Y15.555
X17.406 Y15.086
X17.998 Y14.647
X18.611 Y14.236
X19.244 Y13.856
X19.893 Y13.506
X20.56 Y13.189
X21.24 Y12.904
X21.934 Y12.653
X22.639 Y12.435
X23.353 Y12.251
X24.076 Y12.102
X24.805 Y11.987
X25.538 Y11.908
X26.275 Y11.865
X27.013 Y11.857
X27.75 Y11.886
X28.485 Y11.95
X29.216 Y12.05
X29.941 Y12.184
X30.659 Y12.354
X31.369 Y12.557
X32.067 Y12.794
X32.754 Y13.064
X33.427 Y13.366
X34.085 Y13.699
X34.727 Y14.064
X35.35 Y14.459
X35.953 Y14.884
X36.536 Y15.336
X37.097 Y15.815
X37.635 Y16.32
X38.148 Y16.85
X38.637 Y17.404
X39.098 Y17.979
X39.533 Y18.575
X39.94 Y19.191
X40.318 Y19.824
X40.666 Y20.475
X40.983 Y21.141
X41.269 Y21.821
X41.522 Y22.514
X41.743 Y23.218
X41.932 Y23.931
X42.086 Y24.653
X42.206 Y25.381
X42.293 Y26.114
X42.345 Y26.85
X42.363 Y27.587
X42.347 Y28.325
X42.296 Y29.061
X42.211 Y29.794
X42.092 Y30.522
X41.937 Y31.243
X41.75 Y31.957
X41.529 Y32.661
X41.275 Y33.354
X40.989 Y34.034
X40.671 Y34.7
X40.323 Y35.35
X39.944 Y35.983
X39.537 Y36.599
X39.101 Y37.194
X38.639 Y37.769
X38.15 Y38.321
X37.635 Y38.85
X37.096 Y39.354
X36.534 Y39.832
X35.95 Y40.283
X35.346 Y40.707
X34.723 Y41.102
X34.082 Y41.468
X33.425 Y41.803
X32.753 Y42.108
X32.068 Y42.381
X31.371 Y42.623
X30.663 Y42.832
X29.947 Y43.008
X29.223 Y43.15
X28.493 Y43.258
X27.759 Y43.332
X27.022 Y43.372
X26.284 Y43.378
X25.547 Y43.349
X24.812 Y43.287
X24.08 Y43.191
X23.354 Y43.062
X22.634 Y42.9
X21.922 Y42.705
X21.22 Y42.478
X20.529 Y42.22
X19.851 Y41.93
X19.186 Y41.609
X18.537 Y41.258
X17.905 Y40.879
X17.29 Y40.47
X16.695 Y40.034
X16.12 Y39.571
X15.568 Y39.083
X15.037 Y38.57
X14.531 Y38.033
X14.049 Y37.474
X13.593 Y36.894
X13.163 Y36.295
X12.762 Y35.676
X12.389 Y35.039
X12.045 Y34.386
X11.73 Y33.719
X11.446 Y33.038
X11.193 Y32.345
X10.972 Y31.641
X10.783 Y30.928
X10.625 Y30.207
X10.501 Y29.48
X10.409 Y28.748
X10.35 Y28.012
X10.324 Y27.275
X10.332 Y26.537
X10.373 Y25.801
X10.448 Y25.066
X10.555 Y24.336
X10.694 Y23.612
X10.866 Y22.894
X11.07 Y22.185
X11.305 Y21.486
X11.572 Y20.798
X11.869 Y20.123
X12.196 Y19.461
X12.553 Y18.815
X12.937 Y18.186
X13.35 Y17.574
X13.79 Y16.982
X14.257 Y16.411
X14.749 Y15.86
X15.264 Y15.333
X15.802 Y14.828
X16.363 Y14.348
X16.945 Y13.894
X17.546 Y13.467
X18.166 Y13.066
X18.803 Y12.694
X19.456 Y12.351
X20.123 Y12.037
X20.804 Y11.753
X21.498 Y11.5
X22.202 Y11.28
X22.915 Y11.091
X23.636 Y10.933
X24.363 Y10.808
X25.095 Y10.716
X25.83 Y10.656
X26.568 Y10.63
X27.305 Y10.636
X28.042 Y10.675
X28.776 Y10.747
X29.507 Y10.851
X30.232 Y10.988
X30.95 Y11.157
X31.66 Y11.358
X32.36 Y11.591
X33.049 Y11.855
X33.726 Y12.148
X34.389 Y12.471
X35.038 Y12.823
X35.67 Y13.203
X36.285 Y13.61
X36.882 Y14.044
X37.46 Y14.504
X38.016 Y14.988
X38.552 Y15.495
X39.064 Y16.026
X39.553 Y16.579
X40.017 Y17.152
X40.456 Y17.745
X40.869 Y18.357
X41.255 Y18.986
X41.614 Y19.63
X41.945 Y20.29
X42.247 Y20.963
X42.519 Y21.649
X42.762 Y22.345
X42.975 Y23.052
X43.157 Y23.767
X43.308 Y24.489
X43.428 Y25.217
X43.515 Y25.95
X43.57 Y26.685
X43.594 Y27.423
X43.585 Y28.161
X43.544 Y28.897
X43.472 Y29.631
X43.368 Y30.362
X43.232 Y31.087
X43.065 Y31.806
X42.866 Y32.516
X42.638 Y33.218
X42.379 Y33.909
X42.09 Y34.588
X41.772 Y35.254
X41.425 Y35.905
X41.05 Y36.54
X40.647 Y37.158
X40.218 Y37.758
X39.764 Y38.34
X39.285 Y38.901
X38.782 Y39.441
X38.256 Y39.958
X37.708 Y40.452
X37.139 Y40.923
X36.551 Y41.368
X35.944 Y41.788
X35.32 Y42.181
X34.679 Y42.546
X34.023 Y42.883
X33.352 Y43.191
X32.669 Y43.47
X31.975 Y43.72
X31.271 Y43.94
X30.557 Y44.129
X29.837 Y44.287
X29.11 Y44.413
X28.378 Y44.509
X27.643 Y44.573
X26.906 Y44.606
X26.168 Y44.607
X25.431 Y44.577
X24.696 Y44.515
X23.964 Y44.421
X23.237 Y44.295
X22.516 Y44.139
X21.802 Y43.953
X21.097 Y43.736
X20.401 Y43.49
X19.717 Y43.215
X19.044 Y42.911
X18.385 Y42.579
X17.741 Y42.22
X17.112 Y41.833
X16.501 Y41.421
X15.907 Y40.983
X15.332 Y40.52
X14.778 Y40.033
X14.246 Y39.522
X13.735 Y38.99
X13.247 Y38.436
X12.783 Y37.863
X12.343 Y37.27
X11.929 Y36.66
X11.54 Y36.033
X11.178 Y35.39
X10.843 Y34.732
X10.536 Y34.062
X10.257 Y33.379
X10.007 Y32.684
X9.786 Y31.981
X9.595 Y31.268
X9.435 Y30.547
X9.306 Y29.821
X9.207 Y29.09
X9.138 Y28.355
X9.101 Y27.618
X9.094 Y26.881
X9.118 Y26.143
X9.172 Y25.407
X9.257 Y24.675
X9.373 Y23.946
X9.518 Y23.222
X9.694 Y22.506
X9.899 Y21.797
X10.134 Y21.098
X10.398 Y20.409
X10.691 Y19.732
X11.013 Y19.068
X11.361 Y18.417
X11.736 Y17.782
X12.138 Y17.163
X12.565 Y16.561
X13.017 Y15.978
X13.492 Y15.414
X13.99 Y14.87
X14.511 Y14.347
X15.052 Y13.846
X15.614 Y13.368
X16.196 Y12.913
X16.796 Y12.484
X17.414 Y12.081
X18.048 Y11.704
X18.697 Y11.354
X19.361 Y11.03
X20.037 Y10.735
X20.724 Y10.468
X21.423 Y10.23
X22.131 Y10.021
X22.846 Y9.842
X23.569 Y9.692
X24.297 Y9.572
X25.029 Y9.483
X25.765 Y9.424
X26.502 Y9.396
X27.24 Y9.4
X27.977 Y9.434
X28.712 Y9.499
X29.443 Y9.594
X30.17 Y9.719
X30.892 Y9.874
X31.606 Y10.059
X32.312 Y10.274
X33.008 Y10.517
X33.695 Y10.788
X34.369 Y11.088
X35.031 Y11.414
X35.678 Y11.767
X36.311 Y12.147
X36.927 Y12.553
X37.526 Y12.984
X38.107 Y13.439
X38.669 Y13.917
X39.211 Y14.417
X39.733 Y14.939
X40.233 Y15.482
X40.71 Y16.044
X41.164 Y16.625
X41.595 Y17.224
X42.002 Y17.84
X42.383 Y18.472
X42.739 Y19.118
X43.069 Y19.778
X43.371 Y20.451
X43.646 Y21.136
X43.893 Y21.831
X44.111 Y22.536
X44.301 Y23.249
X44.463 Y23.969
X44.595 Y24.695
X44.697 Y25.425
X44.77 Y26.159
X44.813 Y26.896
X44.827 Y27.634
X44.811 Y28.371
X44.765 Y29.108
X44.69 Y29.842
X44.585 Y30.572
X44.45 Y31.297
X44.285 Y32.017
X44.091 Y32.728
X43.869 Y33.432
X43.618 Y34.126
X43.339 Y34.809
X43.033 Y35.481
X42.7 Y36.139
X42.341 Y36.783
X41.956 Y37.412
X41.545 Y38.026
X41.111 Y38.622
X40.653 Y39.2
X40.172 Y39.76
X39.669 Y40.3
X39.144 Y40.818
X38.598 Y41.315
X38.033 Y41.789
X37.449 Y42.24
X36.847 Y42.667
X36.229 Y43.07
X35.595 Y43.447
X34.946 Y43.798
X34.284 Y44.123
X33.609 Y44.421
X32.923 Y44.692
X32.226 Y44.936
X31.521 Y45.151
X30.807 Y45.338
X30.086 Y45.496
X29.36 Y45.625
X28.629 Y45.724
X27.894 Y45.793
X27.157 Y45.833
X26.419 Y45.844
X25.682 Y45.825
X24.946 Y45.777
X24.212 Y45.699
X23.482 Y45.592
X22.757 Y45.456
X22.037 Y45.292
X21.325 Y45.099
X20.621 Y44.879
X19.926 Y44.631
X19.242 Y44.356
X18.569 Y44.053
X17.908 Y43.724
X17.262 Y43.369
X16.629 Y42.989
X16.012 Y42.584
X15.412 Y42.155
X14.829 Y41.703
X14.265 Y41.228
X13.72 Y40.73
X13.194 Y40.212
X12.69 Y39.674
X12.207 Y39.116
X11.746 Y38.54
X11.308 Y37.946
X10.894 Y37.336
X10.504 Y36.709
X10.14 Y36.068
X9.801 Y35.412
X9.487 Y34.744
X9.2 Y34.065
X8.94 Y33.374
X8.707 Y32.674
X8.502 Y31.965
X8.325 Y31.249
X8.176 Y30.527
X8.055 Y29.799
X7.963 Y29.067
X7.899 Y28.332
X7.864 Y27.595
X7.858 Y26.857
X7.881 Y26.119
X7.933 Y25.383
X8.014 Y24.65
X8.123 Y23.92
X8.261 Y23.196
X8.427 Y22.477
X8.62 Y21.765
X8.841 Y21.061
X9.09 Y20.366
X9.366 Y19.682
X9.668 Y19.008
X9.996 Y18.348
X10.349 Y17.7
X10.727 Y17.066
X11.13 Y16.448
X11.556 Y15.846
X12.006 Y15.261
X12.479 Y14.695
X12.973 Y14.147
X13.488 Y13.619
X14.024 Y13.111
X14.578 Y12.624
X15.151 Y12.16
X15.742 Y11.718
X16.35 Y11.299
X16.973 Y10.905
X17.611 Y10.534
X18.263 Y10.189
X18.928 Y9.87
X19.605 Y9.576
X20.293 Y9.309
X20.991 Y9.07
X21.698 Y8.858
X22.412 Y8.674
X23.133 Y8.518
X23.86 Y8.39
X24.591 Y8.29
X25.325 Y8.218
X26.062 Y8.175
X26.8 Y8.161
X27.537 Y8.175
X28.274 Y8.218
X29.008 Y8.29
X29.739 Y8.39
X30.466 Y8.518
X31.187 Y8.674
X31.901 Y8.858
X32.608 Y9.07
X33.306 Y9.309
X33.994 Y9.575
X34.672 Y9.867
X35.338 Y10.185
X35.991 Y10.528
X36.631 Y10.896
X37.256 Y11.288
X37.865 Y11.703
X38.458 Y12.142
X39.035 Y12.603
X39.593 Y13.085
X40.132 Y13.589
X40.653 Y14.112
X41.153 Y14.654
X41.631 Y15.216
X42.088 Y15.795
X42.522 Y16.392
X42.934 Y17.004
X43.323 Y17.631
X43.687 Y18.273
X44.028 Y18.927
X44.343 Y19.594
X44.633 Y20.273
X44.897 Y20.961
X45.135 Y21.66
X45.347 Y22.367
X45.532 Y23.081
X45.69 Y23.802
X45.821 Y24.528
X45.923 Y25.258
X45.998 Y25.992
X46.044 Y26.729
X46.063 Y27.466
X46.053 Y28.204
X46.016 Y28.941
X45.952 Y29.676
X45.859 Y30.408
X45.739 Y31.136
X45.591 Y31.859
X45.415 Y32.575
X45.213 Y33.285
X44.984 Y33.986
X44.729 Y34.679
X44.448 Y35.361
X44.141 Y36.032
X43.808 Y36.69
X43.451 Y37.336
X43.069 Y37.967
X42.663 Y38.583
X42.234 Y39.184
X41.784 Y39.768
X41.311 Y40.335
X40.818 Y40.883
X40.304 Y41.412
X39.77 Y41.922
X39.217 Y42.411
X38.647 Y42.878
X38.059 Y43.324
X37.455 Y43.748
X36.835 Y44.149
X36.201 Y44.526
X35.553 Y44.878
X34.891 Y45.205
X34.218 Y45.507
X33.534 Y45.783
X32.84 Y46.034
X32.137 Y46.258
X31.427 Y46.456
X30.709 Y46.628
X29.985 Y46.771
X29.257 Y46.888
X28.524 Y46.977
X27.789 Y47.038
X27.052 Y47.073
X26.314 Y47.079
X25.577 Y47.058
X24.84 Y47.01
X24.107 Y46.933
X23.376 Y46.829
X22.65 Y46.697
X21.93 Y46.538
X21.215 Y46.353
X20.508 Y46.142
X19.81 Y45.905
X19.12 Y45.642
X18.441 Y45.354
X17.773 Y45.041
X17.117 Y44.703
X16.474 Y44.341
X15.845 Y43.955
X15.231 Y43.547
X14.632 Y43.116
X14.049 Y42.664
X13.484 Y42.189
X12.937 Y41.694
X12.409 Y41.179
X11.901 Y40.644
X11.412 Y40.091
X10.944 Y39.521
X10.497 Y38.934
X10.072 Y38.331
X9.669 Y37.712
X9.29 Y37.08
X8.934 Y36.433
X8.602 Y35.774
X8.295 Y35.104
X8.012 Y34.422
X7.754 Y33.731
X7.522 Y33.031
X7.316 Y32.322
X7.136 Y31.606
X6.984 Y30.885
X6.858 Y30.158
X6.759 Y29.427
X6.686 Y28.692
X6.64 Y27.956
X6.622 Y27.218
X6.63 Y26.481
X6.666 Y25.744
X6.728 Y25.008
X6.818 Y24.276
X6.934 Y23.547
X7.076 Y22.823
X7.244 Y22.105
X7.439 Y21.393
X7.66 Y20.689
X7.907 Y19.994
X8.179 Y19.309
X8.477 Y18.633
X8.799 Y17.97
X9.145 Y17.318
X9.514 Y16.679
X9.907 Y16.055
X10.322 Y15.445
X10.759 Y14.85
X11.218 Y14.272
X11.698 Y13.712
X12.197 Y13.169
X12.716 Y12.644
X13.254 Y12.139
X13.809 Y11.653
X14.382 Y11.189
X14.972 Y10.746
X15.578 Y10.325
X16.2 Y9.927
X16.835 Y9.551
X17.483 Y9.199
X18.144 Y8.871
X18.816 Y8.567
X19.499 Y8.288
X20.192 Y8.034
X20.894 Y7.806
X21.603 Y7.604
X22.32 Y7.427
X23.042 Y7.276
X23.769 Y7.152
X24.5 Y7.054
X25.235 Y6.983
X25.971 Y6.939
X26.709 Y6.923
X27.447 Y6.934
X28.184 Y6.971
X28.919 Y7.035
X29.651 Y7.126
X30.379 Y7.244
X31.103 Y7.387
X31.821 Y7.557
X32.532 Y7.754
X33.236 Y7.975
X33.931 Y8.222
X34.617 Y8.494
X35.293 Y8.791
X35.957 Y9.111
X36.61 Y9.455
X37.25 Y9.822
X37.876 Y10.213
X38.487 Y10.626
X39.083 Y11.061
X39.663 Y11.517
X40.226 Y11.994
X40.773 Y12.49
X41.301 Y13.005
X41.81 Y13.538
X42.3 Y14.09
X42.77 Y14.659
X43.22 Y15.244
X43.648 Y15.845
X44.055 Y16.46
X44.44 Y17.089
X44.803 Y17.732
X45.143 Y18.387
X45.459 Y19.053
X45.751 Y19.731
X46.018 Y20.419
X46.261 Y21.115
X46.479 Y21.82
X46.671 Y22.532
X46.839 Y23.251
X46.981 Y23.975
X47.097 Y24.704
X47.187 Y25.436
X47.251 Y26.171
X47.289 Y26.908
X47.3 Y27.646
X47.285 Y28.383
X47.245 Y29.12
X47.178 Y29.855
X47.085 Y30.587
X46.966 Y31.315
X46.82 Y32.038
X46.648 Y32.756
X46.451 Y33.467
X46.229 Y34.17
X45.982 Y34.865
X45.711 Y35.551
X45.415 Y36.227
X45.095 Y36.892
X44.752 Y37.545
X44.385 Y38.186
X43.996 Y38.812
X43.585 Y39.425
X43.152 Y40.023
X42.699 Y40.605
X42.226 Y41.171
X41.732 Y41.72
X41.219 Y42.25
X40.687 Y42.761
X40.137 Y43.253
X39.57 Y43.725
X38.987 Y44.177
X38.389 Y44.608
X37.775 Y45.018
X37.147 Y45.406
X36.506 Y45.771
X35.852 Y46.113
X35.187 Y46.431
X34.51 Y46.726
X33.824 Y46.996
X33.128 Y47.243
X32.425 Y47.465
X31.714 Y47.662
X30.996 Y47.833
X30.792 Y47.874
X30.744 Y47.882
X30.695 Y47.887
X30.646 Y47.889
X23.522
X22.785 Y47.852
X22.052 Y47.768
X21.327 Y47.629
X20.612 Y47.449
X19.905 Y47.238
X19.207 Y46.998
X18.519 Y46.731
X17.841 Y46.44
X17.174 Y46.125
X16.518 Y45.787
X15.875 Y45.426
X15.245 Y45.043
X14.628 Y44.637
X14.027 Y44.21
X13.44 Y43.762
X12.87 Y43.294
X12.317 Y42.806
X11.781 Y42.299
X11.263 Y41.773
X10.763 Y41.23
X10.282 Y40.671
X9.821 Y40.095
X9.381 Y39.503
X8.96 Y38.896
X8.561 Y38.276
X8.184 Y37.642
X7.829 Y36.995
X7.497 Y36.336
X7.187 Y35.666
X6.902 Y34.986
X6.64 Y34.296
X6.402 Y33.598
X6.189 Y32.892
X6.042 Y32.335
X6.028 Y32.273
X6.02 Y32.21
X6.017 Y32.146
Y23.178
X6.054 Y22.447
X6.102 Y22.081
X6.229 Y21.354
X6.41 Y20.639
X6.629 Y19.935
X6.881 Y19.241
X7.16 Y18.558
X7.464 Y17.886
X7.791 Y17.225
X8.142 Y16.576
X8.515 Y15.939
X8.91 Y15.316
X9.326 Y14.706
X9.763 Y14.112
X10.221 Y13.533
X10.698 Y12.97
X11.195 Y12.425
X11.709 Y11.896
X12.242 Y11.386
X12.792 Y10.894
X13.359 Y10.421
X13.941 Y9.968
X14.539 Y9.536
X15.152 Y9.125
X15.778 Y8.735
X16.417 Y8.367
X17.069 Y8.02
X17.732 Y7.696
X18.405 Y7.396
X19.089 Y7.118
X19.782 Y6.864
X20.483 Y6.635
X21.192 Y6.43
X21.444 Y6.366
X21.504 Y6.354
X21.564 Y6.346
X21.625 Y6.344
X30.728
X31.465 Y6.381
X31.831 Y6.425
X32.559 Y6.547
X33.275 Y6.725
X33.98 Y6.943
X34.674 Y7.193
X35.358 Y7.47
X36.031 Y7.772
X36.693 Y8.098
X37.343 Y8.446
X37.981 Y8.817
X38.606 Y9.21
X39.217 Y9.624
X39.813 Y10.058
X40.394 Y10.513
X40.959 Y10.987
X41.508 Y11.48
X42.04 Y11.991
X42.555 Y12.52
X43.051 Y13.066
X43.529 Y13.628
X43.988 Y14.206
X44.427 Y14.798
X44.846 Y15.406
X45.245 Y16.026
X45.624 Y16.66
X45.98 Y17.305
X46.315 Y17.963
X46.628 Y18.631
X46.918 Y19.31
X47.185 Y19.997
X47.428 Y20.694
X47.529 Y21.015
X47.547 Y21.088
X47.559 Y21.161
X47.562 Y21.236
Y32.731
X47.532 Y33.345
X47.459 Y33.897
X47.308 Y34.605
X47.096 Y35.312
X46.843 Y36.005
X46.558 Y36.685
X46.245 Y37.354
X45.907 Y38.01
X45.547 Y38.653
X45.164 Y39.284
X44.76 Y39.902
X44.336 Y40.505
X43.892 Y41.095
X43.428 Y41.669
X42.946 Y42.227
X42.444 Y42.768
X41.925 Y43.292
X41.389 Y43.799
X40.835 Y44.287
X40.266 Y44.756
X39.682 Y45.206
X39.083 Y45.637
X38.469 Y46.047
X37.842 Y46.436
X37.202 Y46.804
X36.551 Y47.149
X35.888 Y47.473
X35.214 Y47.774
X35.067 Y47.834
X34.977 Y47.864
X34.883 Y47.883
X34.787 Y47.889
X30.646
G3 X30.469 Y47.316 I0.011 J-0.317
G1 X30.526 Y47.274 Z36.735
X30.58 Y47.234 Z36.758
X30.629 Y47.199 Z36.796
X30.67 Y47.169 Z36.846
X30.7 Y47.146 Z36.906
X30.719 Y47.133 Z36.974
X30.725 Y47.128 Z37.044
G0 Z43.227
X47.179 Y31.704
Z37.362
G1 Z37.044 F1016.
X47.183 Y31.711 Z36.974
X47.195 Y31.731 Z36.906
X47.214 Y31.764 Z36.846
X47.24 Y31.807 Z36.796
X47.271 Y31.859 Z36.758
X47.305 Y31.916 Z36.735
X47.341 Y31.977 Z36.727
G3 X47.562 Y32.731 I-1.36 J0.809
G1 Y36.082
X47.541 Y36.501
X47.498 Y36.828
X47.408 Y37.252
X47.252 Y37.772
X46.99 Y38.446
X46.668 Y39.11
X46.308 Y39.754
X45.919 Y40.381
X45.506 Y40.993
X45.072 Y41.589
X44.619 Y42.171
X44.146 Y42.738
X43.656 Y43.289
X43.148 Y43.824
X42.623 Y44.343
X42.082 Y44.844
X41.525 Y45.329
X40.954 Y45.795
X40.368 Y46.244
X39.768 Y46.673
X39.155 Y47.083
X38.528 Y47.473
X37.982 Y47.789
X37.865 Y47.844
X37.74 Y47.878
X37.611 Y47.889
X34.787
G3 X34.611 Y47.316 I0.011 J-0.317
G1 X34.668 Y47.274 Z36.735
X34.722 Y47.234 Z36.758
X34.77 Y47.199 Z36.796
X34.811 Y47.169 Z36.846
X34.841 Y47.146 Z36.906
X34.86 Y47.133 Z36.974
X34.867 Y47.128 Z37.044
G0 Z43.227
X47.179 Y35.056
Z37.362
G1 Z37.044 F1016.
X47.183 Y35.063 Z36.974
X47.195 Y35.083 Z36.906
X47.214 Y35.115 Z36.846
X47.24 Y35.159 Z36.796
X47.271 Y35.21 Z36.758
X47.305 Y35.268 Z36.735
X47.341 Y35.329 Z36.727
G3 X47.562 Y36.082 I-1.36 J0.809
G1 Y38.764
X47.551 Y38.996
X47.517 Y39.252
X47.448 Y39.575
X47.334 Y39.955
X47.145 Y40.441
X46.848 Y41.053
X46.474 Y41.689
X46.06 Y42.3
X45.618 Y42.89
X45.152 Y43.463
X44.667 Y44.019
X44.164 Y44.558
X43.644 Y45.082
X43.108 Y45.589
X42.558 Y46.08
X41.992 Y46.554
X41.413 Y47.011
X40.82 Y47.45
X40.38 Y47.756
X40.249 Y47.829
X40.106 Y47.874
X39.957 Y47.889
X37.611
G3 X37.408 Y47.337 I0.011 J-0.317
G1 X37.433 Y47.314
X46.985 Y38.583
X47.031 Y38.541
G3 X47.562 Y38.764 I0.214 J0.234
G1 Y40.942
X47.55 Y41.18
X47.52 Y41.409
X47.461 Y41.686
X47.369 Y41.995
X47.216 Y42.386
X46.991 Y42.85
X46.645 Y43.439
X46.221 Y44.042
X45.76 Y44.619
X45.273 Y45.173
X44.766 Y45.709
X44.24 Y46.227
X43.699 Y46.728
X43.143 Y47.213
X42.573 Y47.682
X42.505 Y47.734
X42.367 Y47.819
X42.213 Y47.871
X42.052 Y47.889
X39.957
G3 X39.754 Y47.337 I0.011 J-0.317
G1 X39.779 Y47.314
X46.984 Y40.761
X47.031 Y40.719
G3 X47.562 Y40.942 I0.214 J0.235
G1 Y42.953
X47.552 Y43.165
X47.523 Y43.383
X47.474 Y43.614
X47.39 Y43.893
X47.261 Y44.226
X47.07 Y44.618
X46.789 Y45.095
X46.365 Y45.699
X45.894 Y46.267
X45.392 Y46.808
X44.868 Y47.327
X44.47 Y47.693
X44.321 Y47.8
X44.15 Y47.866
X43.968 Y47.889
G3 X43.72 Y47.388 I0.011 J-0.317
G1 X43.779 Y47.305
X46.986 Y42.781
G3 X47.562 Y42.953 I0.259 J0.184
G1 Y44.797
X47.551 Y45.029
X47.526 Y45.217
X47.48 Y45.432
X47.401 Y45.696
X47.289 Y45.984
X47.118 Y46.336
X46.878 Y46.743
X46.52 Y47.254
X46.215 Y47.621
X46.054 Y47.766
X45.858 Y47.857
X45.645 Y47.889
G3 X45.38 Y47.413 I0.011 J-0.317
G1 X45.446 Y47.299
X46.97 Y44.65
G3 X47.245 Y44.49 I0.275 J0.158
X47.562 Y44.797 I0. J0.318
G1 Y46.64
X47.555 Y46.79
X47.529 Y46.972
X47.484 Y47.175
X47.427 Y47.359
X47.401 Y47.424
X47.29 Y47.613
X47.128 Y47.762
X46.93 Y47.856
X46.713 Y47.889
G3 X46.448 Y47.415 I0.011 J-0.317
G1 X46.514 Y47.298
X46.969 Y46.495
G3 X47.562 Y46.64 I0.276 J0.156
G1 Y47.562
X47.559 Y47.604
X47.55 Y47.646
X47.54 Y47.675
X47.526 Y47.704
X47.509 Y47.733
X47.487 Y47.762
X47.436 Y47.813
X47.407 Y47.835
X47.378 Y47.853
X47.348 Y47.866
X47.319 Y47.876
X47.277 Y47.885
X47.235 Y47.889
X42.052
G3 X41.875 Y47.316 I0.011 J-0.317
G1 X41.932 Y47.274 Z36.735
X41.986 Y47.234 Z36.758
X42.035 Y47.199 Z36.796
X42.075 Y47.169 Z36.846
X42.106 Y47.146 Z36.906
X42.125 Y47.133 Z36.974
X42.131 Y47.128 Z37.044
G0 Z43.227
X29.702 Y6.728
Z37.362
G1 Z37.044 F1016.
X29.709 Y6.723 Z36.974
X29.729 Y6.711 Z36.906
X29.761 Y6.692 Z36.846
X29.804 Y6.666 Z36.796
X29.856 Y6.636 Z36.758
X29.914 Y6.601 Z36.735
X29.975 Y6.565 Z36.727
G3 X30.728 Y6.344 I0.809 J1.36
G1 X34.583
X34.931 Y6.361
X35.302 Y6.41
X35.771 Y6.51
X36.355 Y6.685
X37.042 Y6.953
X37.709 Y7.269
X38.359 Y7.619
X38.993 Y7.996
X39.613 Y8.396
X40.218 Y8.819
X40.808 Y9.261
X41.384 Y9.722
X41.945 Y10.202
X42.489 Y10.7
X43.018 Y11.214
X43.53 Y11.746
X44.025 Y12.293
X44.502 Y12.855
X44.961 Y13.433
X45.402 Y14.025
X45.823 Y14.631
X46.225 Y15.249
X46.607 Y15.88
X46.969 Y16.523
X47.311 Y17.177
X47.489 Y17.546
X47.529 Y17.649
X47.554 Y17.757
X47.562 Y17.868
Y21.236
G3 X46.989 Y21.413 I-0.317 J-0.011
G1 X46.947 Y21.356 Z36.735
X46.908 Y21.302 Z36.758
X46.872 Y21.253 Z36.796
X46.842 Y21.213 Z36.846
X46.82 Y21.182 Z36.906
X46.806 Y21.163 Z36.974
X46.801 Y21.157 Z37.044
G0 Z43.227
X33.556 Y6.728
Z37.362
G1 Z37.044 F1016.
X33.563 Y6.723 Z36.974
X33.583 Y6.711 Z36.906
X33.616 Y6.692 Z36.846
X33.659 Y6.666 Z36.796
X33.711 Y6.636 Z36.758
X33.768 Y6.601 Z36.735
X33.829 Y6.565 Z36.727
G3 X34.583 Y6.344 I0.809 J1.36
G1 X37.264
X37.575 Y6.36
X37.845 Y6.395
X38.189 Y6.469
X38.593 Y6.59
X39.114 Y6.793
X39.778 Y7.115
X40.414 Y7.489
X41.027 Y7.898
X41.622 Y8.335
X42.201 Y8.793
X42.763 Y9.27
X43.31 Y9.766
X43.84 Y10.279
X44.355 Y10.808
X44.852 Y11.352
X45.334 Y11.911
X45.798 Y12.485
X46.244 Y13.072
X46.673 Y13.673
X47.083 Y14.286
X47.449 Y14.87
X47.511 Y14.993
X47.549 Y15.126
X47.562 Y15.263
Y17.868
G3 X47.009 Y18.069 I-0.317 J-0.011
G1 X46.988 Y18.046
X36.538 Y6.386
G2 X36.363 Y6.543 I-0.088 J0.078
X36.51 Y6.565 I0.088 J-0.078
G3 X37.264 Y6.344 I0.809 J1.36
G1 X39.61
X39.821 Y6.355
X40.054 Y6.385
X40.344 Y6.447
X40.666 Y6.544
X41.08 Y6.705
X41.573 Y6.944
X42.208 Y7.318
X42.812 Y7.742
X43.391 Y8.199
X43.95 Y8.681
X44.49 Y9.184
X45.013 Y9.704
X45.521 Y10.24
X46.011 Y10.791
X46.486 Y11.356
X46.943 Y11.934
X47.384 Y12.526
X47.428 Y12.588
X47.502 Y12.72
X47.547 Y12.864
X47.562 Y13.014
Y15.263
G3 X47.008 Y15.463 I-0.317 J-0.011
G1 X46.988 Y15.441
X39.429 Y6.922
X39.384 Y6.872
G3 X39.61 Y6.344 I0.237 J-0.211
G1 X41.621
X41.857 Y6.356
X42.075 Y6.384
X42.32 Y6.437
X42.604 Y6.522
X42.952 Y6.657
X43.359 Y6.855
X43.862 Y7.151
X44.466 Y7.575
X45.036 Y8.043
X45.581 Y8.541
X46.105 Y9.061
X46.61 Y9.599
X47.098 Y10.152
X47.391 Y10.506
X47.485 Y10.649
X47.543 Y10.81
X47.562 Y10.979
G3 X47.052 Y11.22 I-0.317 J-0.011
G1 X46.98 Y11.165
X41.445 Y6.917
X41.439 Y6.913
G3 X41.621 Y6.344 I0.193 J-0.252
G1 X43.557
X43.744 Y6.353
X43.941 Y6.379
X44.16 Y6.426
X44.428 Y6.506
X44.727 Y6.623
X45.09 Y6.799
X45.515 Y7.049
X46.05 Y7.424
X46.617 Y7.896
X47.153 Y8.403
X47.356 Y8.615
X47.468 Y8.766
X47.538 Y8.941
X47.562 Y9.128
G3 X47.069 Y9.381 I-0.317 J-0.011
G1 X46.977 Y9.319
X43.392 Y6.925
G3 X43.557 Y6.344 I0.176 J-0.264
G1 X45.308
X45.527 Y6.355
X45.705 Y6.378
X45.92 Y6.424
X46.17 Y6.499
X46.439 Y6.604
X46.776 Y6.767
X47.129 Y6.975
X47.247 Y7.058
X47.379 Y7.177
X47.479 Y7.323
X47.541 Y7.489
X47.562 Y7.664
G3 X47.1 Y7.936 I-0.317 J-0.011
G1 X46.969 Y7.868
X45.174 Y6.944
G3 X45.308 Y6.344 I0.145 J-0.282
G1 X46.984
X47.012
X47.054
X47.204 Y6.351
X47.347 Y6.414
X47.462 Y6.52
X47.537 Y6.658
X47.562 Y6.812
G3 X47.424 Y7.149 I-0.524 J-0.018
X46.718 Y6.498 I-0.353 J-0.325
X47.054 Y6.344 I0.353 J0.325
G1 X47.235
X47.277 Y6.347
X47.319 Y6.357
X47.348 Y6.367
X47.378 Y6.38
X47.407 Y6.397
X47.436 Y6.419
X47.487 Y6.47
X47.509 Y6.5
X47.526 Y6.529
X47.54 Y6.558
X47.55 Y6.587
X47.559 Y6.629
X47.562 Y6.671
Y13.014
G3 X46.989 Y13.191 I-0.317 J-0.011
G1 X46.947 Y13.134 Z36.735
X46.908 Y13.08 Z36.758
X46.872 Y13.031 Z36.796
X46.842 Y12.99 Z36.846
X46.82 Y12.96 Z36.906
X46.806 Y12.941 Z36.974
X46.801 Y12.935 Z37.044
G0 Z43.227
X24.548 Y47.505
Z37.362
G1 Z37.044 F1016.
X24.542 Y47.509 Z36.974
X24.521 Y47.521 Z36.906
X24.489 Y47.541 Z36.846
X24.446 Y47.566 Z36.796
X24.394 Y47.597 Z36.758
X24.336 Y47.632 Z36.735
X24.275 Y47.668 Z36.727
G3 X23.522 Y47.889 I-0.809 J-1.36
G1 X19.332
X18.998 Y47.872
X18.601 Y47.82
X18.096 Y47.712
X17.463 Y47.522
X16.775 Y47.255
X16.107 Y46.943
X15.454 Y46.599
X14.816 Y46.228
X14.193 Y45.833
X13.584 Y45.417
X12.99 Y44.979
X12.41 Y44.522
X11.847 Y44.046
X11.299 Y43.552
X10.768 Y43.04
X10.254 Y42.511
X9.757 Y41.965
X9.279 Y41.403
X8.819 Y40.827
X8.378 Y40.235
X7.956 Y39.629
X7.556 Y39.01
X7.176 Y38.377
X6.816 Y37.733
X6.478 Y37.077
X6.162 Y36.41
X6.079 Y36.219
X6.045 Y36.123
X6.024 Y36.024
X6.017 Y35.923
Y32.146
G3 X6.591 Y31.969 I0.317 J0.011
G1 X6.632 Y32.026 Z36.735
X6.672 Y32.08 Z36.758
X6.708 Y32.129 Z36.796
X6.737 Y32.169 Z36.846
X6.76 Y32.2 Z36.906
X6.774 Y32.219 Z36.974
X6.778 Y32.225 Z37.044
G0 Z43.227
X20.359 Y47.505
Z37.362
G1 Z37.044 F1016.
X20.352 Y47.509 Z36.974
X20.332 Y47.521 Z36.906
X20.299 Y47.541 Z36.846
X20.256 Y47.566 Z36.796
X20.204 Y47.597 Z36.758
X20.147 Y47.632 Z36.735
X20.086 Y47.668 Z36.727
G3 X19.332 Y47.889 I-0.809 J-1.36
G1 X16.651
X16.258 Y47.869
X15.98 Y47.833
X15.624 Y47.757
X15.206 Y47.631
X14.665 Y47.421
X14.002 Y47.099
X13.364 Y46.727
X12.749 Y46.32
X12.151 Y45.888
X11.57 Y45.433
X11.006 Y44.958
X10.457 Y44.464
X9.925 Y43.954
X9.409 Y43.426
X8.91 Y42.882
X8.428 Y42.324
X7.964 Y41.75
X7.517 Y41.163
X7.09 Y40.562
X6.681 Y39.947
X6.291 Y39.321
X6.117 Y39.02
X6.062 Y38.903
X6.029 Y38.777
X6.017 Y38.648
Y35.923
G3 X6.591 Y35.747 I0.317 J0.011
G1 X6.632 Y35.804 Z36.735
X6.672 Y35.858 Z36.758
X6.708 Y35.906 Z36.796
X6.737 Y35.947 Z36.846
X6.76 Y35.977 Z36.906
X6.774 Y35.996 Z36.974
X6.778 Y36.003 Z37.044
G0 Z43.227
X17.677 Y47.505
Z37.362
G1 Z37.044 F1016.
X17.67 Y47.509 Z36.974
X17.65 Y47.521 Z36.906
X17.618 Y47.541 Z36.846
X17.575 Y47.566 Z36.796
X17.523 Y47.597 Z36.758
X17.465 Y47.632 Z36.735
X17.404 Y47.668 Z36.727
G3 X16.651 Y47.889 I-0.809 J-1.36
G1 X14.305
X13.972 Y47.872
X13.736 Y47.841
X13.442 Y47.778
X13.113 Y47.68
X12.691 Y47.516
X12.186 Y47.27
X11.55 Y46.896
X10.945 Y46.473
X10.365 Y46.017
X9.805 Y45.537
X9.263 Y45.036
X8.739 Y44.517
X8.231 Y43.982
X7.74 Y43.431
X7.266 Y42.866
X6.808 Y42.287
X6.368 Y41.695
X6.151 Y41.383
X6.078 Y41.251
X6.033 Y41.108
X6.017 Y40.959
Y38.648
G3 X6.571 Y38.448 I0.317 J0.011
G1 X6.592 Y38.471
X14.486 Y47.311
X14.53 Y47.36
G3 X14.305 Y47.889 I-0.237 J0.211
G1 X12.126
X11.93 Y47.879
X11.711 Y47.85
X11.461 Y47.797
X11.174 Y47.711
X10.82 Y47.573
X10.408 Y47.373
X9.896 Y47.072
X9.293 Y46.648
X8.722 Y46.181
X8.176 Y45.684
X7.652 Y45.165
X7.146 Y44.627
X6.658 Y44.074
X6.187 Y43.507
X6.175 Y43.491
X6.089 Y43.352
X6.035 Y43.197
X6.017 Y43.035
G3 X6.53 Y42.796 I0.317 J0.011
G1 X6.599 Y42.849
X12.303 Y47.316
X12.311 Y47.322
G3 X12.126 Y47.889 I-0.196 J0.25
G1 X10.283
X10.023 Y47.876
X9.824 Y47.85
X9.605 Y47.803
X9.336 Y47.722
X9.034 Y47.605
X8.669 Y47.428
X8.242 Y47.176
X7.704 Y46.799
X7.137 Y46.327
X6.601 Y45.82
X6.224 Y45.427
X6.112 Y45.276
X6.041 Y45.101
X6.017 Y44.914
G3 X6.512 Y44.662 I0.317 J0.011
G1 X6.603 Y44.723
X10.449 Y47.308
G3 X10.283 Y47.889 I-0.177 J0.263
G1 X8.439
X8.24 Y47.879
X8.062 Y47.856
X7.847 Y47.81
X7.594 Y47.734
X7.325 Y47.629
X6.987 Y47.465
X6.617 Y47.247
X6.332 Y47.047
X6.201 Y46.929
X6.101 Y46.783
X6.039 Y46.617
X6.017 Y46.441
G3 X6.484 Y46.172 I0.317 J0.011
G1 X6.609 Y46.239
X8.578 Y47.292
G3 X8.439 Y47.889 I-0.15 J0.28
G1 X6.763
X6.607 Y47.881
X6.419 Y47.828
X6.255 Y47.725
X6.127 Y47.579
X6.045 Y47.402
X6.017 Y47.21
G3 X6.539 Y46.978 I0.317 J0.011
G1 X6.597 Y47.026
X6.94 Y47.315
X6.956 Y47.329
G3 X6.763 Y47.889 I-0.204 J0.243
G1 X6.344
X6.302 Y47.885
X6.26 Y47.876
X6.231 Y47.866
X6.202 Y47.853
X6.173 Y47.835
X6.144 Y47.813
X6.093 Y47.762
X6.071 Y47.733
X6.054 Y47.704
X6.04 Y47.675
X6.03 Y47.646
X6.021 Y47.604
X6.017 Y47.562
Y40.959
G3 X6.591 Y40.782 I0.317 J0.011
G1 X6.632 Y40.839 Z36.735
X6.672 Y40.893 Z36.758
X6.708 Y40.941 Z36.796
X6.737 Y40.982 Z36.846
X6.76 Y41.012 Z36.906
X6.774 Y41.031 Z36.974
X6.778 Y41.038 Z37.044
G0 Z43.227
X6.401 Y24.205
Z37.362
G1 Z37.044 F1016.
X6.397 Y24.198 Z36.974
X6.385 Y24.178 Z36.906
X6.366 Y24.145 Z36.846
X6.34 Y24.102 Z36.796
X6.309 Y24.05 Z36.758
X6.275 Y23.992 Z36.735
X6.239 Y23.932 Z36.727
G3 X6.017 Y23.178 I1.36 J-0.809
G1 Y19.324
X6.032 Y19.031
X6.081 Y18.658
X6.18 Y18.196
X6.355 Y17.611
X6.623 Y16.924
X6.938 Y16.257
X7.289 Y15.608
X7.666 Y14.974
X8.067 Y14.355
X8.49 Y13.75
X8.934 Y13.16
X9.397 Y12.586
X9.878 Y12.027
X10.378 Y11.484
X10.895 Y10.957
X11.428 Y10.448
X11.978 Y9.956
X12.544 Y9.483
X13.126 Y9.028
X13.722 Y8.594
X14.332 Y8.178
X14.955 Y7.783
X15.59 Y7.408
X16.238 Y7.054
X16.896 Y6.721
X17.565 Y6.41
X17.58 Y6.403
X17.674 Y6.371
X17.772 Y6.351
X17.871 Y6.344
X21.625
G3 X21.802 Y6.917 I-0.011 J0.317
G1 X21.745 Y6.959 Z36.735
X21.691 Y6.999 Z36.758
X21.642 Y7.034 Z36.796
X21.602 Y7.064 Z36.846
X21.571 Y7.086 Z36.906
X21.552 Y7.1 Z36.974
X21.546 Y7.105 Z37.044
G0 Z43.227
X6.401 Y20.35
Z37.362
G1 Z37.044 F1016.
X6.397 Y20.343 Z36.974
X6.385 Y20.323 Z36.906
X6.366 Y20.291 Z36.846
X6.34 Y20.247 Z36.796
X6.309 Y20.196 Z36.758
X6.275 Y20.138 Z36.735
X6.239 Y20.077 Z36.727
G3 X6.017 Y19.324 I1.36 J-0.809
G1 Y16.642
X6.03 Y16.391
X6.065 Y16.122
X6.139 Y15.778
X6.259 Y15.376
X6.462 Y14.856
X6.781 Y14.197
X7.156 Y13.561
X7.566 Y12.948
X8.003 Y12.353
X8.462 Y11.776
X8.941 Y11.215
X9.438 Y10.67
X9.953 Y10.141
X10.484 Y9.629
X11.031 Y9.134
X11.594 Y8.656
X12.17 Y8.196
X12.761 Y7.754
X13.366 Y7.331
X13.983 Y6.927
X14.612 Y6.541
X14.787 Y6.441
X14.903 Y6.388
X15.027 Y6.355
X15.154 Y6.344
X17.871
G3 X18.068 Y6.901 I-0.011 J0.317
G1 X18.048 Y6.918
X6.06 Y17.367
G2 X6.215 Y17.544 I0.077 J0.089
X6.239 Y17.396 I-0.077 J-0.089
G3 X6.017 Y16.642 I1.36 J-0.809
G1 Y14.296
X6.025 Y14.146
X6.056 Y13.913
X6.118 Y13.624
X6.214 Y13.303
X6.375 Y12.89
X6.614 Y12.401
X6.985 Y11.77
X7.41 Y11.167
X7.868 Y10.589
X8.352 Y10.032
X8.856 Y9.493
X9.378 Y8.971
X9.916 Y8.467
X10.47 Y7.979
X11.038 Y7.508
X11.62 Y7.054
X12.215 Y6.618
X12.422 Y6.475
X12.553 Y6.403
X12.695 Y6.359
X12.843 Y6.344
X15.154
G3 X15.351 Y6.901 I-0.011 J0.317
G1 X15.331 Y6.918
X6.596 Y14.478
X6.542 Y14.525
G3 X6.017 Y14.296 I-0.208 J-0.24
G1 Y12.285
X6.026 Y12.119
X6.054 Y11.902
X6.106 Y11.658
X6.191 Y11.375
X6.326 Y11.029
X6.521 Y10.627
X6.814 Y10.129
X7.238 Y9.525
X7.707 Y8.956
X8.206 Y8.412
X8.727 Y7.89
X9.267 Y7.387
X9.823 Y6.902
X10.297 Y6.512
X10.44 Y6.42
X10.599 Y6.363
X10.767 Y6.344
G3 X11.006 Y6.858 I-0.011 J0.317
G1 X10.953 Y6.925
X6.591 Y12.462
X6.584 Y12.47
G3 X6.017 Y12.285 I-0.249 J-0.196
G1 Y10.442
X6.028 Y10.23
X6.053 Y10.036
X6.1 Y9.819
X6.18 Y9.551
X6.295 Y9.256
X6.47 Y8.896
X6.716 Y8.478
X7.085 Y7.952
X7.556 Y7.384
X8.065 Y6.85
X8.381 Y6.549
X8.532 Y6.437
X8.706 Y6.368
X8.892 Y6.344
G3 X9.144 Y6.839 I-0.011 J0.317
G1 X9.083 Y6.929
X6.598 Y10.608
G3 X6.017 Y10.442 I-0.263 J-0.178
G1 Y8.598
X6.025 Y8.448
X6.05 Y8.267
X6.099 Y8.048
X6.176 Y7.799
X6.285 Y7.526
X6.452 Y7.188
X6.675 Y6.816
X6.791 Y6.654
X6.955 Y6.488
X7.163 Y6.381
X7.394 Y6.344
G3 X7.661 Y6.813 I-0.011 J0.317
G1 X7.595 Y6.936
X6.614 Y8.739
G3 X6.017 Y8.598 I-0.279 J-0.152
G1 Y6.998
X6.025 Y6.848
X6.093 Y6.65
X6.225 Y6.487
X6.405 Y6.381
X6.612 Y6.344
G3 X6.846 Y6.862 I-0.011 J0.317
G1 X6.796 Y6.924
X6.591 Y7.175
X6.581 Y7.187
G3 X6.017 Y6.998 I-0.246 J-0.201
G1 Y6.671
X6.021 Y6.629
X6.03 Y6.587
X6.04 Y6.558
X6.054 Y6.529
X6.071 Y6.5
X6.093 Y6.47
X6.144 Y6.419
X6.173 Y6.397
X6.202 Y6.38
X6.231 Y6.367
X6.26 Y6.357
X6.302 Y6.347
X6.344 Y6.344
X12.843
G3 X13.148 Y6.642 I-0.011 J0.317
G1 X13.149 Y6.661
X13.135 Y6.715 Z36.736
X13.122 Y6.766 Z36.754
X13.11 Y6.813 Z36.781
X13.079 Y6.849 Z36.821
X13.054 Y6.878 Z36.869
X13.035 Y6.899 Z36.923
X13.023 Y6.913 Z36.982
X13.019 Y6.917 Z37.044
G0 Z43.227
X28.072 Y26.323
Z39.227
G3 X25.507 Y27.909 Z39.061 I-1.283 J0.793 F1016.
X28.072 Y26.323 Z38.896 I1.283 J-0.793
X25.507 Y27.909 Z38.73 I-1.283 J0.793
X28.072 Y26.323 Z38.565 I1.283 J-0.793
X25.507 Y27.909 Z38.399 I-1.283 J0.793
X28.072 Y26.323 Z38.234 I1.283 J-0.793
X25.507 Y27.909 Z38.069 I-1.283 J0.793
X28.072 Y26.323 Z37.903 I1.283 J-0.793
X25.507 Y27.909 Z37.738 I-1.283 J0.793
X28.072 Y26.323 Z37.572 I1.283 J-0.793
X25.507 Y27.909 Z37.407 I-1.283 J0.793
X28.072 Y26.323 Z37.241 I1.283 J-0.793
X25.507 Y27.909 Z37.076 I-1.283 J0.793
X28.072 Y26.323 Z36.91 I1.283 J-0.793
X25.507 Y27.909 Z36.745 I-1.283 J0.793
X28.072 Y26.323 Z36.579 I1.283 J-0.793
X25.507 Y27.909 Z36.414 I-1.283 J0.793
X28.072 Y26.323 Z36.249 I1.283 J-0.793
X25.507 Y27.909 Z36.083 I-1.283 J0.793
X28.072 Y26.323 Z35.918 I1.283 J-0.793
X25.507 Y27.909 Z35.752 I-1.283 J0.793
X28.072 Y26.323 Z35.587 I1.283 J-0.793
X25.507 Y27.909 Z35.421 I-1.283 J0.793
X28.072 Y26.323 Z35.256 I1.283 J-0.793
X28.298 Y27.116 Z35.227 I-1.283 J0.793
X25.282 I-1.508 J0.
X28.298 I1.508 J0.
G1 X28.317 Y27.854
X28.339 Y27.944
X28.354 Y28.093
X28.342 Y28.242
X28.306 Y28.388
X28.251 Y28.528
X28.18 Y28.659
X28.094 Y28.782
X27.996 Y28.896
X27.887 Y28.999
X27.769 Y29.092
X27.644 Y29.174
X27.512 Y29.245
X27.373 Y29.306
X27.226 Y29.356
X27.073 Y29.395
X26.912 Y29.423
X26.747 Y29.438
X26.579 Y29.439
X26.408 Y29.427
X26.236 Y29.401
X26.065 Y29.36
X25.895 Y29.306
X25.729 Y29.237
X25.567 Y29.154
X25.411 Y29.058
X25.263 Y28.949
X25.123 Y28.828
X24.992 Y28.695
X24.872 Y28.551
X24.763 Y28.397
X24.666 Y28.235
X24.583 Y28.064
X24.513 Y27.887
X24.458 Y27.705
X24.417 Y27.518
X24.392 Y27.329
X24.382 Y27.137
X24.387 Y26.945
X24.407 Y26.754
X24.443 Y26.565
X24.494 Y26.379
X24.56 Y26.198
X24.64 Y26.023
X24.734 Y25.854
X24.841 Y25.693
X24.961 Y25.542
X25.093 Y25.4
X25.236 Y25.27
X25.389 Y25.151
X25.551 Y25.045
X25.721 Y24.952
X25.898 Y24.873
X26.08 Y24.809
X26.268 Y24.759
X26.458 Y24.725
X26.651 Y24.706
X26.845 Y24.702
X27.038 Y24.715
X27.23 Y24.742
X27.419 Y24.785
X27.604 Y24.843
X27.784 Y24.916
X27.957 Y25.003
X28.123 Y25.103
X28.281 Y25.217
X28.428 Y25.342
X28.565 Y25.48
X28.691 Y25.627
X28.804 Y25.785
X28.909 Y25.957
X29.02 Y26.18
X29.167 Y26.544
X29.274 Y26.887
X29.338 Y27.17
X29.375 Y27.426
X29.389 Y27.663
X29.385 Y27.886
X29.364 Y28.099
X29.327 Y28.306
X29.273 Y28.508
X29.203 Y28.705
X29.118 Y28.896
X29.018 Y29.079
X28.903 Y29.254
X28.774 Y29.42
X28.63 Y29.578
X28.471 Y29.724
X28.3 Y29.86
X28.116 Y29.983
X27.919 Y30.092
X27.711 Y30.187
X27.493 Y30.266
X27.267 Y30.328
X27.033 Y30.372
X26.793 Y30.398
X26.549 Y30.404
X26.302 Y30.39
X26.056 Y30.357
X25.81 Y30.303
X25.567 Y30.229
X25.329 Y30.136
X25.098 Y30.022
X24.876 Y29.89
X24.663 Y29.739
X24.462 Y29.57
X24.274 Y29.386
X24.101 Y29.185
X23.944 Y28.971
X23.804 Y28.743
X23.682 Y28.505
X23.579 Y28.256
X23.497 Y28.
X23.435 Y27.737
X23.394 Y27.469
X23.375 Y27.198
X23.378 Y26.926
X23.403 Y26.655
X23.449 Y26.387
X23.517 Y26.122
X23.606 Y25.864
X23.715 Y25.613
X23.845 Y25.372
X23.993 Y25.142
X24.16 Y24.924
X24.343 Y24.72
X24.543 Y24.532
X24.757 Y24.36
X24.984 Y24.206
X25.223 Y24.07
X25.472 Y23.954
X25.73 Y23.858
X25.994 Y23.784
X26.264 Y23.731
X26.537 Y23.699
X26.812 Y23.69
X27.087 Y23.703
X27.36 Y23.737
X27.629 Y23.794
X27.893 Y23.872
X28.15 Y23.971
X28.398 Y24.09
X28.635 Y24.229
X28.861 Y24.386
X29.075 Y24.562
X29.281 Y24.762
X29.495 Y25.005
X29.697 Y25.276
X29.883 Y25.573
X30.048 Y25.889
X30.185 Y26.215
X30.293 Y26.541
X30.372 Y26.865
X30.423 Y27.185
X30.448 Y27.501
Y27.814
X30.422 Y28.121
X30.373 Y28.422
X30.3 Y28.716
X30.204 Y29.002
X30.086 Y29.278
X29.947 Y29.544
X29.786 Y29.797
X29.605 Y30.038
X29.404 Y30.264
X29.185 Y30.475
X28.948 Y30.669
X28.694 Y30.845
X28.424 Y31.001
X28.14 Y31.135
X27.844 Y31.248
X27.537 Y31.338
X27.222 Y31.403
X26.899 Y31.442
X26.572 Y31.456
X26.242 Y31.444
X25.912 Y31.404
X25.584 Y31.338
X25.261 Y31.246
X24.944 Y31.126
X24.635 Y30.981
X24.338 Y30.811
X24.054 Y30.616
X23.785 Y30.399
X23.533 Y30.159
X23.3 Y29.898
X23.089 Y29.619
X22.899 Y29.323
X22.734 Y29.011
X22.593 Y28.686
X22.479 Y28.35
X22.392 Y28.006
X22.333 Y27.654
X22.302 Y27.298
X22.3 Y26.941
X22.326 Y26.584
X22.381 Y26.229
X22.465 Y25.88
X22.576 Y25.538
X22.715 Y25.206
X22.88 Y24.886
X23.07 Y24.58
X23.284 Y24.291
X23.521 Y24.019
X23.779 Y23.767
X24.057 Y23.536
X24.353 Y23.328
X24.664 Y23.145
X24.989 Y22.987
X25.325 Y22.856
X25.672 Y22.752
X26.025 Y22.676
X26.384 Y22.629
X26.745 Y22.61
X27.107 Y22.621
X27.466 Y22.661
X27.821 Y22.729
X28.17 Y22.826
X28.51 Y22.951
X28.839 Y23.102
X29.157 Y23.281
X29.469 Y23.491
X29.773 Y23.733
X30.065 Y24.007
X30.341 Y24.311
X30.597 Y24.642
X30.827 Y24.996
X31.028 Y25.367
X31.198 Y25.751
X31.335 Y26.145
X31.44 Y26.545
X31.511 Y26.948
X31.55 Y27.352
X31.555 Y27.754
X31.529 Y28.152
X31.471 Y28.544
X31.383 Y28.929
X31.264 Y29.304
X31.116 Y29.667
X30.939 Y30.016
X30.735 Y30.351
X30.504 Y30.668
X30.248 Y30.967
X29.968 Y31.246
X29.665 Y31.502
X29.34 Y31.734
X28.997 Y31.94
X28.635 Y32.119
X28.258 Y32.27
X27.868 Y32.391
X27.467 Y32.48
X27.058 Y32.537
X26.643 Y32.562
X26.225 Y32.553
X25.807 Y32.51
X25.391 Y32.433
X24.98 Y32.323
X24.578 Y32.179
X24.187 Y32.003
X23.809 Y31.795
X23.448 Y31.556
X23.105 Y31.288
X22.784 Y30.992
X22.487 Y30.67
X22.216 Y30.325
X21.973 Y29.957
X21.759 Y29.57
X21.577 Y29.167
X21.427 Y28.749
X21.311 Y28.319
X21.23 Y27.881
X21.184 Y27.437
X21.173 Y26.99
X21.199 Y26.542
X21.261 Y26.098
X21.358 Y25.66
X21.49 Y25.23
X21.657 Y24.813
X21.856 Y24.409
X22.088 Y24.023
X22.35 Y23.656
X22.64 Y23.311
X22.958 Y22.991
X23.3 Y22.697
X23.665 Y22.431
X24.05 Y22.195
X24.454 Y21.991
X24.872 Y21.82
X25.302 Y21.683
X25.743 Y21.581
X26.19 Y21.515
X26.641 Y21.485
X27.093 Y21.491
X27.544 Y21.533
X27.989 Y21.611
X28.427 Y21.725
X28.858 Y21.875
X29.278 Y22.06
X29.687 Y22.281
X30.083 Y22.538
X30.464 Y22.832
X30.827 Y23.161
X31.168 Y23.524
X31.481 Y23.916
X31.764 Y24.336
X32.013 Y24.777
X32.225 Y25.236
X32.399 Y25.71
X32.534 Y26.194
X32.629 Y26.685
X32.684 Y27.178
X32.699 Y27.673
X32.675 Y28.164
X32.612 Y28.649
X32.51 Y29.126
X32.371 Y29.592
X32.195 Y30.044
X31.983 Y30.481
X31.738 Y30.899
X31.459 Y31.296
X31.148 Y31.671
X30.808 Y32.02
X30.44 Y32.342
X30.045 Y32.634
X29.627 Y32.895
X29.187 Y33.122
X28.728 Y33.314
X28.253 Y33.47
X27.764 Y33.587
X27.266 Y33.665
X26.76 Y33.703
X26.25 Y33.701
X25.74 Y33.657
X25.233 Y33.572
X24.732 Y33.446
X24.241 Y33.28
X23.762 Y33.074
X23.301 Y32.829
X22.858 Y32.547
X22.438 Y32.229
X22.044 Y31.878
X21.678 Y31.494
X21.344 Y31.082
X21.042 Y30.643
X20.776 Y30.18
X20.548 Y29.696
X20.359 Y29.195
X20.211 Y28.678
X20.104 Y28.151
X20.04 Y27.616
X20.019 Y27.077
X20.041 Y26.537
X20.106 Y26.001
X20.215 Y25.47
X20.366 Y24.95
X20.558 Y24.443
X20.791 Y23.953
X21.062 Y23.482
X21.37 Y23.035
X21.714 Y22.614
X22.09 Y22.221
X22.497 Y21.86
X22.932 Y21.533
X23.391 Y21.241
X23.873 Y20.987
X24.373 Y20.773
X24.89 Y20.599
X25.418 Y20.467
X25.956 Y20.378
X26.499 Y20.333
X27.044 Y20.331
X27.588 Y20.373
X28.127 Y20.459
X28.66 Y20.588
X29.183 Y20.761
X29.695 Y20.977
X30.194 Y21.235
X30.675 Y21.537
X31.137 Y21.88
X31.574 Y22.264
X31.983 Y22.686
X32.36 Y23.142
X32.7 Y23.629
X33.001 Y24.143
X33.26 Y24.68
X33.474 Y25.235
X33.643 Y25.804
X33.765 Y26.383
X33.84 Y26.969
X33.868 Y27.556
X33.849 Y28.142
X33.783 Y28.722
X33.671 Y29.294
X33.513 Y29.853
X33.312 Y30.398
X33.068 Y30.924
X32.782 Y31.428
X32.456 Y31.909
X32.093 Y32.362
X31.693 Y32.786
X31.26 Y33.177
X30.796 Y33.533
X30.303 Y33.852
X29.784 Y34.131
X29.242 Y34.368
X28.681 Y34.562
X28.104 Y34.711
X27.514 Y34.814
X26.916 Y34.868
X26.312 Y34.875
X25.708 Y34.833
X25.107 Y34.743
X24.513 Y34.604
X23.93 Y34.417
X23.362 Y34.183
X22.812 Y33.904
X22.286 Y33.58
X21.785 Y33.214
X21.314 Y32.808
X20.876 Y32.364
X20.474 Y31.885
X20.111 Y31.374
X19.79 Y30.835
X19.512 Y30.27
X19.28 Y29.684
X19.095 Y29.081
X18.96 Y28.463
X18.874 Y27.836
X18.839 Y27.203
X18.854 Y26.568
X18.921 Y25.937
X19.038 Y25.312
X19.205 Y24.698
X19.421 Y24.099
X19.685 Y23.518
X19.995 Y22.961
X20.348 Y22.43
X20.743 Y21.928
X21.177 Y21.46
X21.648 Y21.028
X22.152 Y20.635
X22.686 Y20.284
X23.247 Y19.977
X23.83 Y19.715
X24.433 Y19.501
X25.051 Y19.337
X25.681 Y19.222
X26.317 Y19.158
X26.958 Y19.146
X27.598 Y19.185
X28.234 Y19.275
X28.864 Y19.417
X29.483 Y19.61
X30.089 Y19.853
X30.679 Y20.147
X31.247 Y20.491
X31.791 Y20.881
X32.306 Y21.318
X32.787 Y21.798
X33.231 Y22.317
X33.633 Y22.874
X33.99 Y23.462
X34.3 Y24.078
X34.558 Y24.716
X34.765 Y25.373
X34.918 Y26.043
X35.016 Y26.721
X35.06 Y27.404
X35.049 Y28.086
X34.983 Y28.763
X34.863 Y29.431
X34.691 Y30.087
X34.466 Y30.726
X34.191 Y31.344
X33.868 Y31.938
X33.497 Y32.505
X33.082 Y33.041
X32.625 Y33.542
X32.127 Y34.006
X31.594 Y34.429
X31.026 Y34.809
X30.428 Y35.144
X29.803 Y35.43
X29.155 Y35.666
X28.489 Y35.849
X27.807 Y35.979
X27.115 Y36.054
X26.417 Y36.074
X25.717 Y36.037
X25.02 Y35.944
X24.33 Y35.794
X23.653 Y35.589
X22.992 Y35.33
X22.352 Y35.018
X21.738 Y34.654
X21.153 Y34.241
X20.602 Y33.781
X20.088 Y33.277
X19.616 Y32.733
X19.188 Y32.151
X18.807 Y31.535
X18.476 Y30.89
X18.198 Y30.219
X17.974 Y29.527
X17.806 Y28.819
X17.695 Y28.098
X17.642 Y27.37
X17.648 Y26.639
X17.713 Y25.91
X17.836 Y25.189
X18.017 Y24.479
X18.255 Y23.785
X18.547 Y23.113
X18.893 Y22.465
X19.289 Y21.847
X19.734 Y21.263
X20.225 Y20.716
X20.759 Y20.21
X21.331 Y19.748
X21.939 Y19.334
X22.578 Y18.97
X23.244 Y18.658
X23.934 Y18.4
X24.642 Y18.199
X25.364 Y18.055
X26.096 Y17.97
X26.832 Y17.943
X27.569 Y17.976
X28.301 Y18.068
X29.024 Y18.218
X29.732 Y18.425
X30.421 Y18.688
X31.088 Y19.004
X31.728 Y19.372
X32.337 Y19.788
X32.912 Y20.25
X33.45 Y20.755
X33.948 Y21.299
X34.404 Y21.88
X34.814 Y22.493
X35.177 Y23.135
X35.491 Y23.803
X35.753 Y24.492
X35.963 Y25.2
X36.119 Y25.921
X36.221 Y26.652
X36.266 Y27.388
X36.255 Y28.126
X36.187 Y28.86
X36.062 Y29.588
X35.882 Y30.303
X35.649 Y31.003
X35.362 Y31.683
X35.024 Y32.339
X34.637 Y32.967
X34.204 Y33.564
X33.726 Y34.126
X33.206 Y34.65
X32.648 Y35.133
X32.056 Y35.572
X31.431 Y35.965
X30.779 Y36.31
X30.103 Y36.605
X29.406 Y36.848
X28.693 Y37.039
X27.968 Y37.175
X27.235 Y37.256
X26.497 Y37.28
X25.76 Y37.25
X25.027 Y37.165
X24.303 Y37.026
X23.59 Y36.834
X22.894 Y36.591
X22.217 Y36.297
X21.563 Y35.956
X20.935 Y35.567
X20.338 Y35.135
X19.773 Y34.66
X19.246 Y34.144
X18.758 Y33.59
X18.311 Y33.003
X17.909 Y32.385
X17.551 Y31.74
X17.24 Y31.07
X16.978 Y30.381
X16.765 Y29.674
X16.602 Y28.955
X16.493 Y28.225
X16.438 Y27.489
X16.436 Y26.751
X16.488 Y26.015
X16.591 Y25.285
X16.746 Y24.563
X16.951 Y23.855
X17.205 Y23.162
X17.508 Y22.489
X17.858 Y21.84
X18.255 Y21.218
X18.696 Y20.627
X19.179 Y20.068
X19.699 Y19.545
X20.255 Y19.06
X20.843 Y18.615
X21.462 Y18.212
X22.106 Y17.854
X22.776 Y17.543
X23.466 Y17.283
X24.173 Y17.073
X24.894 Y16.913
X25.624 Y16.805
X26.359 Y16.748
X27.097 Y16.743
X27.833 Y16.789
X28.565 Y16.886
X29.287 Y17.038
X29.996 Y17.24
X30.69 Y17.493
X31.364 Y17.793
X32.015 Y18.138
X32.642 Y18.528
X33.241 Y18.959
X33.81 Y19.429
X34.345 Y19.937
X34.843 Y20.481
X35.302 Y21.058
X35.722 Y21.665
X36.1 Y22.299
X36.435 Y22.956
X36.726 Y23.634
X36.972 Y24.33
X37.171 Y25.04
X37.322 Y25.762
X37.423 Y26.493
X37.472 Y27.23
X37.471 Y27.967
X37.42 Y28.703
X37.32 Y29.434
X37.171 Y30.157
X36.973 Y30.868
X36.729 Y31.564
X36.438 Y32.242
X36.1 Y32.898
X35.717 Y33.529
X35.292 Y34.132
X34.827 Y34.705
X34.325 Y35.246
X33.789 Y35.752
X33.219 Y36.221
X32.62 Y36.651
X31.993 Y37.04
X31.341 Y37.385
X30.666 Y37.684
X29.973 Y37.937
X29.265 Y38.144
X28.544 Y38.303
X27.815 Y38.414
X27.08 Y38.476
X26.342 Y38.489
X25.605 Y38.454
X24.872 Y38.368
X24.147 Y38.233
X23.432 Y38.051
X22.73 Y37.822
X22.045 Y37.549
X21.379 Y37.232
X20.734 Y36.873
X20.114 Y36.474
X19.52 Y36.035
X18.957 Y35.558
X18.428 Y35.044
X17.935 Y34.496
X17.478 Y33.916
X17.059 Y33.309
X16.679 Y32.677
X16.34 Y32.021
X16.043 Y31.346
X15.789 Y30.653
X15.58 Y29.946
X15.418 Y29.226
X15.304 Y28.497
X15.238 Y27.762
X15.22 Y27.024
X15.249 Y26.287
X15.324 Y25.553
X15.445 Y24.825
X15.611 Y24.106
X15.822 Y23.399
X16.078 Y22.707
X16.379 Y22.034
X16.723 Y21.381
X17.109 Y20.752
X17.534 Y20.149
X17.997 Y19.575
X18.495 Y19.03
X19.025 Y18.518
X19.587 Y18.039
X20.178 Y17.597
X20.796 Y17.194
X21.439 Y16.833
X22.104 Y16.513
X22.789 Y16.238
X23.489 Y16.007
X24.203 Y15.82
X24.927 Y15.678
X25.659 Y15.582
X26.395 Y15.531
X27.133 Y15.527
X27.869 Y15.571
X28.601 Y15.663
X29.326 Y15.802
X30.04 Y15.987
X30.741 Y16.216
X31.427 Y16.488
X32.095 Y16.802
X32.742 Y17.156
X33.367 Y17.549
X33.966 Y17.98
X34.536 Y18.448
X35.076 Y18.95
X35.584 Y19.486
X36.059 Y20.051
X36.498 Y20.643
X36.901 Y21.261
X37.267 Y21.902
X37.594 Y22.564
X37.881 Y23.243
X38.126 Y23.939
X38.328 Y24.649
X38.486 Y25.369
X38.599 Y26.098
X38.668 Y26.833
X38.691 Y27.571
X38.67 Y28.308
X38.604 Y29.043
X38.495 Y29.773
X38.342 Y30.494
X38.144 Y31.205
X37.902 Y31.902
X37.618 Y32.583
X37.292 Y33.245
X36.926 Y33.886
X36.522 Y34.503
X36.081 Y35.095
X35.605 Y35.659
X35.097 Y36.194
X34.558 Y36.697
X33.988 Y37.166
X33.391 Y37.599
X32.768 Y37.995
X32.122 Y38.351
X31.456 Y38.668
X30.772 Y38.944
X30.072 Y39.179
X29.36 Y39.372
X28.638 Y39.522
X27.908 Y39.629
X27.172 Y39.691
X26.435 Y39.708
X25.698 Y39.68
X24.963 Y39.607
X24.235 Y39.491
X23.514 Y39.331
X22.805 Y39.13
X22.108 Y38.888
X21.426 Y38.606
X20.761 Y38.285
X20.117 Y37.926
X19.495 Y37.528
X18.899 Y37.095
X18.329 Y36.626
X17.788 Y36.124
X17.278 Y35.591
X16.8 Y35.029
X16.355 Y34.44
X15.945 Y33.827
X15.57 Y33.191
X15.233 Y32.535
X14.934 Y31.86
X14.676 Y31.169
X14.459 Y30.464
X14.283 Y29.747
X14.15 Y29.022
X14.06 Y28.289
X14.012 Y27.553
X14.006 Y26.815
X14.043 Y26.078
X14.121 Y25.345
X14.242 Y24.617
X14.405 Y23.897
X14.609 Y23.188
X14.854 Y22.493
X15.14 Y21.812
X15.464 Y21.15
X15.827 Y20.507
X16.225 Y19.886
X16.659 Y19.289
X17.125 Y18.718
X17.624 Y18.174
X18.154 Y17.66
X18.712 Y17.178
X19.297 Y16.729
X19.908 Y16.314
X20.541 Y15.936
X21.196 Y15.595
X21.868 Y15.292
X22.557 Y15.028
X23.26 Y14.804
X23.975 Y14.62
X24.699 Y14.478
X25.43 Y14.378
X26.165 Y14.321
X26.903 Y14.306
X27.64 Y14.333
X28.375 Y14.404
X29.104 Y14.516
X29.826 Y14.67
X30.537 Y14.864
X31.237 Y15.098
X31.923 Y15.372
X32.591 Y15.684
X33.241 Y16.034
X33.87 Y16.419
X34.476 Y16.84
X35.058 Y17.294
X35.613 Y17.779
X36.14 Y18.295
X36.639 Y18.839
X37.106 Y19.41
X37.542 Y20.005
X37.945 Y20.624
X38.312 Y21.264
X38.644 Y21.923
X38.939 Y22.599
X39.196 Y23.29
X39.415 Y23.995
X39.594 Y24.711
X39.734 Y25.435
X39.834 Y26.166
X39.893 Y26.902
X39.912 Y27.639
X39.891 Y28.377
X39.827 Y29.112
X39.723 Y29.842
X39.578 Y30.566
X39.394 Y31.28
X39.169 Y31.983
X38.906 Y32.672
X38.606 Y33.346
X38.268 Y34.002
X37.895 Y34.639
X37.487 Y35.254
X37.046 Y35.845
X36.573 Y36.411
X36.069 Y36.95
X35.535 Y37.46
X34.975 Y37.939
X34.389 Y38.387
X33.779 Y38.802
X33.147 Y39.183
X32.495 Y39.529
X31.825 Y39.838
X31.14 Y40.111
X30.44 Y40.346
X29.728 Y40.541
X29.007 Y40.697
X28.279 Y40.813
X27.545 Y40.888
X26.808 Y40.924
X26.07 Y40.919
X25.334 Y40.874
X24.601 Y40.789
X23.873 Y40.664
X23.154 Y40.501
X22.444 Y40.3
X21.746 Y40.06
X21.063 Y39.783
X20.395 Y39.469
X19.744 Y39.121
X19.113 Y38.738
X18.504 Y38.322
X17.918 Y37.874
X17.357 Y37.394
X16.823 Y36.886
X16.316 Y36.349
X15.839 Y35.787
X15.393 Y35.199
X14.979 Y34.588
X14.597 Y33.957
X14.25 Y33.306
X13.938 Y32.637
X13.661 Y31.954
X13.421 Y31.256
X13.218 Y30.547
X13.053 Y29.827
X12.926 Y29.101
X12.838 Y28.368
X12.789 Y27.632
X12.78 Y26.894
X12.81 Y26.157
X12.879 Y25.422
X12.986 Y24.692
X13.131 Y23.969
X13.314 Y23.254
X13.535 Y22.55
X13.792 Y21.858
X14.085 Y21.181
X14.413 Y20.52
X14.776 Y19.878
X15.173 Y19.256
X15.602 Y18.656
X16.062 Y18.079
X16.552 Y17.528
X17.07 Y17.003
X17.615 Y16.505
X18.186 Y16.037
X18.78 Y15.599
X19.396 Y15.193
X20.032 Y14.82
X20.687 Y14.481
X21.36 Y14.177
X22.047 Y13.91
X22.748 Y13.679
X23.46 Y13.486
X24.181 Y13.33
X24.91 Y13.212
X25.643 Y13.132
X26.38 Y13.09
X27.118 Y13.087
X27.855 Y13.123
X28.589 Y13.197
X29.318 Y13.31
X30.04 Y13.462
X30.753 Y13.651
X31.455 Y13.877
X32.145 Y14.139
X32.82 Y14.437
X33.479 Y14.769
X34.12 Y15.134
X34.742 Y15.531
X35.342 Y15.96
X35.92 Y16.419
X36.474 Y16.906
X37.002 Y17.422
X37.502 Y17.964
X37.974 Y18.531
X38.417 Y19.121
X38.83 Y19.733
X39.212 Y20.364
X39.561 Y21.014
X39.877 Y21.68
X40.16 Y22.362
X40.408 Y23.057
X40.622 Y23.763
X40.799 Y24.479
X40.939 Y25.204
X41.042 Y25.934
X41.107 Y26.669
X41.135 Y27.407
X41.126 Y28.144
X41.079 Y28.881
X40.995 Y29.614
X40.874 Y30.342
X40.717 Y31.062
X40.523 Y31.774
X40.294 Y32.476
X40.03 Y33.164
X39.729 Y33.838
X39.395 Y34.496
X39.027 Y35.136
X38.628 Y35.756
X38.198 Y36.355
X37.737 Y36.932
X37.249 Y37.485
X36.733 Y38.013
X36.191 Y38.514
X35.625 Y38.987
X35.036 Y39.431
X34.425 Y39.845
X33.794 Y40.226
X33.144 Y40.575
X32.477 Y40.891
X31.795 Y41.173
X31.1 Y41.42
X30.393 Y41.632
X29.677 Y41.808
X28.952 Y41.949
X28.222 Y42.052
X27.487 Y42.12
X26.75 Y42.151
X26.012 Y42.144
X25.276 Y42.1
X24.542 Y42.019
X23.814 Y41.901
X23.092 Y41.748
X22.379 Y41.559
X21.676 Y41.335
X20.985 Y41.077
X20.307 Y40.785
X19.644 Y40.461
X18.998 Y40.105
X18.37 Y39.718
X17.762 Y39.3
X17.176 Y38.852
X16.613 Y38.375
X16.074 Y37.87
X15.561 Y37.34
X15.075 Y36.786
X14.616 Y36.208
X14.186 Y35.608
X13.785 Y34.989
X13.415 Y34.351
X13.076 Y33.695
X12.769 Y33.024
X12.495 Y32.339
X12.255 Y31.642
X12.05 Y30.933
X11.88 Y30.215
X11.745 Y29.49
X11.646 Y28.758
X11.583 Y28.023
X11.556 Y27.286
X11.564 Y26.548
X11.608 Y25.812
X11.687 Y25.078
X11.801 Y24.349
X11.951 Y23.627
X12.134 Y22.912
X12.354 Y22.208
X12.607 Y21.515
X12.894 Y20.835
X13.214 Y20.17
X13.565 Y19.521
X13.948 Y18.89
X14.361 Y18.279
X14.802 Y17.688
X15.272 Y17.119
X15.768 Y16.573
X16.29 Y16.051
X16.836 Y15.555
X17.406 Y15.087
X17.999 Y14.647
X18.612 Y14.236
X19.244 Y13.856
X19.894 Y13.507
X20.56 Y13.189
X21.241 Y12.905
X21.934 Y12.653
X22.639 Y12.435
X23.354 Y12.251
X24.076 Y12.102
X24.805 Y11.987
X25.538 Y11.908
X26.275 Y11.865
X27.013 Y11.858
X27.75 Y11.886
X28.485 Y11.95
X29.216 Y12.05
X29.942 Y12.185
X30.66 Y12.354
X31.369 Y12.558
X32.068 Y12.795
X32.754 Y13.064
X33.427 Y13.366
X34.086 Y13.7
X34.727 Y14.064
X35.35 Y14.46
X35.954 Y14.884
X36.537 Y15.336
X37.098 Y15.815
X37.635 Y16.321
X38.149 Y16.851
X38.637 Y17.404
X39.099 Y17.979
X39.533 Y18.575
X39.94 Y19.191
X40.318 Y19.825
X40.667 Y20.475
X40.984 Y21.141
X41.269 Y21.821
X41.523 Y22.514
X41.744 Y23.218
X41.932 Y23.932
X42.086 Y24.653
X42.207 Y25.381
X42.293 Y26.114
X42.345 Y26.85
X42.363 Y27.587
X42.347 Y28.325
X42.296 Y29.061
X42.212 Y29.794
X42.092 Y30.522
X41.938 Y31.244
X41.75 Y31.957
X41.529 Y32.661
X41.275 Y33.354
X40.989 Y34.034
X40.672 Y34.7
X40.323 Y35.35
X39.945 Y35.984
X39.537 Y36.599
X39.102 Y37.194
X38.639 Y37.769
X38.15 Y38.322
X37.635 Y38.85
X37.096 Y39.354
X36.534 Y39.832
X35.951 Y40.284
X35.347 Y40.707
X34.724 Y41.102
X34.083 Y41.468
X33.426 Y41.803
X32.754 Y42.108
X32.068 Y42.381
X31.371 Y42.623
X30.664 Y42.832
X29.947 Y43.008
X29.223 Y43.15
X28.493 Y43.258
X27.759 Y43.332
X27.022 Y43.372
X26.285 Y43.378
X25.547 Y43.35
X24.812 Y43.287
X24.081 Y43.191
X23.354 Y43.062
X22.634 Y42.9
X21.923 Y42.705
X21.221 Y42.479
X20.529 Y42.22
X19.851 Y41.93
X19.187 Y41.609
X18.538 Y41.259
X17.905 Y40.879
X17.291 Y40.471
X16.695 Y40.034
X16.121 Y39.572
X15.568 Y39.083
X15.038 Y38.57
X14.531 Y38.033
X14.049 Y37.475
X13.593 Y36.895
X13.164 Y36.295
X12.762 Y35.676
X12.389 Y35.039
X12.045 Y34.387
X11.731 Y33.719
X11.447 Y33.038
X11.194 Y32.345
X10.972 Y31.641
X10.783 Y30.928
X10.626 Y30.207
X10.501 Y29.48
X10.41 Y28.748
X10.351 Y28.013
X10.325 Y27.275
X10.332 Y26.537
X10.374 Y25.801
X10.448 Y25.067
X10.555 Y24.337
X10.694 Y23.612
X10.866 Y22.895
X11.07 Y22.186
X11.306 Y21.486
X11.572 Y20.798
X11.87 Y20.123
X12.197 Y19.462
X12.553 Y18.816
X12.938 Y18.186
X13.35 Y17.575
X13.791 Y16.982
X14.257 Y16.411
X14.749 Y15.861
X15.264 Y15.333
X15.803 Y14.828
X16.363 Y14.349
X16.945 Y13.895
X17.546 Y13.467
X18.166 Y13.067
X18.803 Y12.694
X19.456 Y12.351
X20.124 Y12.037
X20.805 Y11.753
X21.498 Y11.501
X22.202 Y11.28
X22.915 Y11.091
X23.636 Y10.934
X24.363 Y10.808
X25.095 Y10.716
X25.831 Y10.656
X26.568 Y10.63
X27.306 Y10.636
X28.042 Y10.675
X28.777 Y10.747
X29.507 Y10.851
X30.232 Y10.988
X30.95 Y11.157
X31.66 Y11.358
X32.36 Y11.591
X33.049 Y11.855
X33.726 Y12.148
X34.39 Y12.471
X35.038 Y12.823
X35.671 Y13.203
X36.286 Y13.611
X36.883 Y14.044
X37.46 Y14.504
X38.017 Y14.988
X38.552 Y15.496
X39.065 Y16.026
X39.554 Y16.579
X40.018 Y17.152
X40.456 Y17.746
X40.869 Y18.357
X41.255 Y18.986
X41.614 Y19.63
X41.945 Y20.29
X42.247 Y20.963
X42.519 Y21.649
X42.762 Y22.346
X42.975 Y23.052
X43.157 Y23.767
X43.308 Y24.489
X43.428 Y25.217
X43.516 Y25.95
X43.571 Y26.686
X43.594 Y27.423
X43.585 Y28.161
X43.545 Y28.897
X43.472 Y29.632
X43.368 Y30.362
X43.232 Y31.087
X43.065 Y31.806
X42.867 Y32.517
X42.638 Y33.218
X42.379 Y33.909
X42.09 Y34.588
X41.773 Y35.254
X41.425 Y35.905
X41.05 Y36.54
X40.647 Y37.158
X40.218 Y37.759
X39.764 Y38.34
X39.285 Y38.901
X38.782 Y39.441
X38.256 Y39.958
X37.708 Y40.453
X37.14 Y40.923
X36.552 Y41.368
X35.945 Y41.788
X35.32 Y42.181
X34.679 Y42.547
X34.023 Y42.884
X33.353 Y43.192
X32.67 Y43.471
X31.975 Y43.72
X31.271 Y43.94
X30.558 Y44.129
X29.837 Y44.287
X29.11 Y44.414
X28.379 Y44.509
X27.644 Y44.574
X26.907 Y44.606
X26.169 Y44.608
X25.431 Y44.577
X24.696 Y44.515
X23.965 Y44.421
X23.237 Y44.296
X22.516 Y44.139
X21.802 Y43.953
X21.097 Y43.737
X20.401 Y43.491
X19.717 Y43.215
X19.045 Y42.911
X18.386 Y42.579
X17.741 Y42.22
X17.113 Y41.834
X16.501 Y41.421
X15.907 Y40.983
X15.333 Y40.52
X14.779 Y40.033
X14.246 Y39.523
X13.735 Y38.99
X13.248 Y38.436
X12.783 Y37.863
X12.344 Y37.271
X11.929 Y36.66
X11.541 Y36.033
X11.179 Y35.39
X10.844 Y34.733
X10.536 Y34.062
X10.257 Y33.379
X10.007 Y32.685
X9.786 Y31.981
X9.596 Y31.268
X9.436 Y30.548
X9.306 Y29.821
X9.207 Y29.09
X9.139 Y28.356
X9.101 Y27.619
X9.094 Y26.881
X9.118 Y26.143
X9.173 Y25.408
X9.258 Y24.675
X9.373 Y23.946
X9.519 Y23.223
X9.694 Y22.506
X9.899 Y21.797
X10.134 Y21.098
X10.398 Y20.409
X10.692 Y19.732
X11.013 Y19.068
X11.362 Y18.418
X11.737 Y17.782
X12.138 Y17.163
X12.565 Y16.562
X13.017 Y15.978
X13.492 Y15.414
X13.991 Y14.87
X14.511 Y14.347
X15.053 Y13.846
X15.615 Y13.368
X16.196 Y12.914
X16.796 Y12.485
X17.414 Y12.081
X18.048 Y11.704
X18.698 Y11.354
X19.361 Y11.03
X20.037 Y10.735
X20.725 Y10.468
X21.423 Y10.23
X22.131 Y10.021
X22.847 Y9.842
X23.569 Y9.692
X24.297 Y9.573
X25.029 Y9.483
X25.765 Y9.424
X26.502 Y9.396
X27.24 Y9.4
X27.977 Y9.434
X28.712 Y9.499
X29.444 Y9.594
X30.171 Y9.719
X30.892 Y9.874
X31.606 Y10.059
X32.312 Y10.274
X33.009 Y10.517
X33.695 Y10.789
X34.369 Y11.088
X35.031 Y11.414
X35.679 Y11.768
X36.311 Y12.147
X36.927 Y12.553
X37.526 Y12.984
X38.107 Y13.439
X38.669 Y13.917
X39.212 Y14.417
X39.733 Y14.939
X40.233 Y15.482
X40.71 Y16.044
X41.165 Y16.626
X41.595 Y17.225
X42.002 Y17.841
X42.383 Y18.472
X42.739 Y19.118
X43.069 Y19.778
X43.372 Y20.451
X43.646 Y21.136
X43.893 Y21.831
X44.112 Y22.536
X44.302 Y23.249
X44.463 Y23.969
X44.595 Y24.695
X44.698 Y25.426
X44.77 Y26.16
X44.814 Y26.896
X44.827 Y27.634
X44.811 Y28.372
X44.765 Y29.108
X44.69 Y29.842
X44.585 Y30.572
X44.45 Y31.298
X44.285 Y32.017
X44.091 Y32.729
X43.869 Y33.432
X43.618 Y34.126
X43.34 Y34.809
X43.034 Y35.481
X42.701 Y36.139
X42.341 Y36.783
X41.956 Y37.413
X41.546 Y38.026
X41.111 Y38.622
X40.653 Y39.201
X40.172 Y39.76
X39.669 Y40.3
X39.144 Y40.818
X38.598 Y41.315
X38.033 Y41.789
X37.449 Y42.24
X36.848 Y42.667
X36.229 Y43.07
X35.595 Y43.447
X34.947 Y43.799
X34.284 Y44.124
X33.609 Y44.422
X32.923 Y44.693
X32.227 Y44.936
X31.521 Y45.152
X30.807 Y45.339
X30.087 Y45.497
X29.36 Y45.625
X28.629 Y45.724
X27.894 Y45.793
X27.158 Y45.833
X26.42 Y45.844
X25.682 Y45.825
X24.946 Y45.777
X24.212 Y45.699
X23.482 Y45.592
X22.757 Y45.456
X22.038 Y45.292
X21.326 Y45.1
X20.621 Y44.879
X19.926 Y44.631
X19.242 Y44.356
X18.569 Y44.054
X17.909 Y43.724
X17.262 Y43.369
X16.63 Y42.989
X16.013 Y42.584
X15.412 Y42.155
X14.829 Y41.703
X14.265 Y41.228
X13.72 Y40.731
X13.195 Y40.212
X12.69 Y39.674
X12.207 Y39.116
X11.746 Y38.54
X11.308 Y37.946
X10.894 Y37.336
X10.504 Y36.709
X10.14 Y36.068
X9.801 Y35.413
X9.488 Y34.745
X9.201 Y34.065
X8.94 Y33.374
X8.707 Y32.674
X8.502 Y31.966
X8.325 Y31.249
X8.176 Y30.527
X8.055 Y29.799
X7.963 Y29.067
X7.9 Y28.332
X7.864 Y27.595
X7.858 Y26.857
X7.881 Y26.12
X7.933 Y25.384
X8.014 Y24.65
X8.124 Y23.921
X8.261 Y23.196
X8.427 Y22.477
X8.62 Y21.765
X8.842 Y21.061
X9.09 Y20.366
X9.366 Y19.682
X9.668 Y19.009
X9.996 Y18.348
X10.349 Y17.7
X10.727 Y17.067
X11.13 Y16.448
X11.556 Y15.846
X12.007 Y15.262
X12.479 Y14.695
X12.974 Y14.147
X13.489 Y13.619
X14.024 Y13.111
X14.578 Y12.625
X15.151 Y12.16
X15.742 Y11.718
X16.35 Y11.299
X16.973 Y10.905
X17.612 Y10.535
X18.264 Y10.19
X18.929 Y9.87
X19.606 Y9.576
X20.294 Y9.309
X20.991 Y9.07
X21.698 Y8.859
X22.413 Y8.675
X23.134 Y8.518
X23.86 Y8.39
X24.591 Y8.29
X25.326 Y8.218
X26.062 Y8.175
X26.8 Y8.161
X27.538 Y8.176
X28.274 Y8.219
X29.009 Y8.29
X29.74 Y8.39
X30.466 Y8.518
X31.187 Y8.674
X31.902 Y8.858
X32.608 Y9.07
X33.306 Y9.31
X33.995 Y9.575
X34.672 Y9.868
X35.338 Y10.185
X35.991 Y10.528
X36.631 Y10.896
X37.256 Y11.288
X37.865 Y11.704
X38.459 Y12.142
X39.035 Y12.603
X39.593 Y13.086
X40.133 Y13.589
X40.653 Y14.112
X41.153 Y14.655
X41.632 Y15.216
X42.088 Y15.796
X42.523 Y16.392
X42.934 Y17.004
X43.323 Y17.632
X43.688 Y18.273
X44.028 Y18.927
X44.344 Y19.594
X44.634 Y20.273
X44.898 Y20.962
X45.136 Y21.66
X45.347 Y22.367
X45.532 Y23.081
X45.69 Y23.802
X45.821 Y24.528
X45.924 Y25.259
X45.998 Y25.993
X46.045 Y26.729
X46.063 Y27.467
X46.054 Y28.204
X46.017 Y28.941
X45.952 Y29.676
X45.859 Y30.408
X45.739 Y31.136
X45.591 Y31.859
X45.416 Y32.576
X45.213 Y33.285
X44.984 Y33.987
X44.729 Y34.679
X44.448 Y35.361
X44.141 Y36.032
X43.809 Y36.691
X43.451 Y37.336
X43.069 Y37.967
X42.663 Y38.583
X42.235 Y39.184
X41.784 Y39.768
X41.312 Y40.335
X40.818 Y40.883
X40.304 Y41.413
X39.77 Y41.922
X39.218 Y42.411
X38.647 Y42.879
X38.059 Y43.325
X37.455 Y43.748
X36.836 Y44.149
X36.201 Y44.526
X35.553 Y44.878
X34.892 Y45.205
X34.218 Y45.507
X33.534 Y45.783
X32.84 Y46.034
X32.138 Y46.259
X31.427 Y46.457
X30.709 Y46.628
X29.986 Y46.772
X29.257 Y46.888
X28.525 Y46.977
X27.789 Y47.039
X27.052 Y47.073
X26.314 Y47.079
X25.577 Y47.058
X24.841 Y47.01
X24.107 Y46.933
X23.377 Y46.829
X22.651 Y46.697
X21.93 Y46.539
X21.216 Y46.354
X20.509 Y46.142
X19.81 Y45.905
X19.121 Y45.643
X18.442 Y45.354
X17.774 Y45.041
X17.118 Y44.703
X16.475 Y44.341
X15.846 Y43.956
X15.231 Y43.547
X14.632 Y43.117
X14.049 Y42.664
X13.484 Y42.19
X12.937 Y41.694
X12.409 Y41.179
X11.901 Y40.644
X11.412 Y40.092
X10.944 Y39.521
X10.497 Y38.934
X10.072 Y38.331
X9.67 Y37.713
X9.29 Y37.08
X8.935 Y36.433
X8.603 Y35.775
X8.295 Y35.104
X8.012 Y34.423
X7.754 Y33.731
X7.522 Y33.031
X7.316 Y32.322
X7.137 Y31.607
X6.984 Y30.885
X6.858 Y30.158
X6.759 Y29.427
X6.687 Y28.693
X6.641 Y27.956
X6.622 Y27.219
X6.63 Y26.481
X6.666 Y25.744
X6.729 Y25.009
X6.818 Y24.276
X6.934 Y23.548
X7.076 Y22.824
X7.245 Y22.105
X7.439 Y21.394
X7.66 Y20.69
X7.907 Y19.994
X8.18 Y19.309
X8.477 Y18.634
X8.799 Y17.97
X9.145 Y17.318
X9.515 Y16.68
X9.907 Y16.055
X10.322 Y15.445
X10.76 Y14.851
X11.218 Y14.273
X11.698 Y13.712
X12.198 Y13.169
X12.716 Y12.645
X13.254 Y12.139
X13.81 Y11.654
X14.383 Y11.189
X14.973 Y10.746
X15.579 Y10.325
X16.2 Y9.927
X16.835 Y9.552
X17.484 Y9.2
X18.144 Y8.872
X18.817 Y8.568
X19.5 Y8.288
X20.192 Y8.035
X20.894 Y7.806
X21.604 Y7.604
X22.32 Y7.427
X23.042 Y7.277
X23.769 Y7.152
X24.501 Y7.054
X25.235 Y6.983
X25.972 Y6.939
X26.709 Y6.923
X27.447 Y6.934
X28.184 Y6.971
X28.919 Y7.036
X29.651 Y7.127
X30.379 Y7.244
X31.103 Y7.388
X31.821 Y7.558
X32.532 Y7.754
X33.236 Y7.976
X33.931 Y8.223
X34.617 Y8.495
X35.293 Y8.791
X35.957 Y9.111
X36.61 Y9.455
X37.25 Y9.823
X37.876 Y10.213
X38.487 Y10.627
X39.083 Y11.062
X39.663 Y11.517
X40.227 Y11.994
X40.773 Y12.49
X41.301 Y13.005
X41.811 Y13.539
X42.301 Y14.09
X42.771 Y14.659
X43.22 Y15.244
X43.648 Y15.845
X44.055 Y16.46
X44.441 Y17.089
X44.803 Y17.732
X45.143 Y18.387
X45.459 Y19.053
X45.751 Y19.731
X46.018 Y20.419
X46.261 Y21.116
X46.479 Y21.821
X46.672 Y22.533
X46.839 Y23.251
X46.982 Y23.975
X47.098 Y24.704
X47.188 Y25.436
X47.251 Y26.171
X47.289 Y26.908
X47.3 Y27.646
X47.286 Y28.383
X47.245 Y29.12
X47.178 Y29.855
X47.086 Y30.587
X46.966 Y31.315
X46.82 Y32.038
X46.649 Y32.756
X46.452 Y33.467
X46.229 Y34.17
X45.982 Y34.866
X45.711 Y35.552
X45.415 Y36.228
X45.095 Y36.893
X44.752 Y37.546
X44.385 Y38.186
X43.996 Y38.813
X43.585 Y39.425
X43.153 Y40.023
X42.699 Y40.605
X42.226 Y41.171
X41.732 Y41.72
X41.219 Y42.25
X40.688 Y42.761
X40.138 Y43.253
X39.571 Y43.726
X38.988 Y44.178
X38.389 Y44.609
X37.775 Y45.018
X37.147 Y45.406
X36.506 Y45.771
X35.852 Y46.113
X35.187 Y46.431
X34.51 Y46.726
X33.824 Y46.997
X33.129 Y47.243
X32.425 Y47.465
X31.714 Y47.662
X30.996 Y47.834
X30.794 Y47.874
X30.745 Y47.882
X30.697 Y47.887
X30.648 Y47.889
X23.522
X22.785 Y47.852
X22.052 Y47.768
X21.327 Y47.629
X20.612 Y47.449
X19.905 Y47.238
X19.207 Y46.998
X18.519 Y46.731
X17.841 Y46.44
X17.174 Y46.126
X16.518 Y45.787
X15.875 Y45.426
X15.245 Y45.043
X14.628 Y44.637
X14.027 Y44.21
X13.44 Y43.762
X12.87 Y43.294
X12.317 Y42.806
X11.781 Y42.299
X11.263 Y41.773
X10.763 Y41.23
X10.283 Y40.671
X9.821 Y40.095
X9.381 Y39.503
X8.961 Y38.896
X8.562 Y38.276
X8.184 Y37.642
X7.829 Y36.995
X7.497 Y36.336
X7.188 Y35.666
X6.902 Y34.986
X6.64 Y34.296
X6.402 Y33.598
X6.189 Y32.892
X6.042 Y32.334
X6.028 Y32.272
X6.02 Y32.209
X6.017 Y32.145
Y23.178
X6.054 Y22.448
X6.144 Y21.76
X6.298 Y21.039
X6.498 Y20.329
X6.733 Y19.629
X6.997 Y18.94
X7.288 Y18.262
X7.603 Y17.595
X7.942 Y16.939
X8.303 Y16.296
X8.686 Y15.666
X9.091 Y15.049
X9.517 Y14.446
X9.963 Y13.859
X10.429 Y13.287
X10.915 Y12.731
X11.419 Y12.192
X11.941 Y11.671
X12.481 Y11.168
X13.037 Y10.684
X13.61 Y10.219
X14.2 Y9.775
X14.804 Y9.352
X15.423 Y8.95
X16.055 Y8.57
X16.7 Y8.212
X17.357 Y7.876
X18.025 Y7.563
X18.704 Y7.273
X19.392 Y7.006
X20.089 Y6.764
X20.793 Y6.545
X21.432 Y6.37
X21.496 Y6.356
X21.562 Y6.347
X21.627 Y6.344
X30.728
X31.465 Y6.381
X31.831 Y6.425
X32.559 Y6.547
X33.275 Y6.725
X33.98 Y6.943
X34.674 Y7.193
X35.358 Y7.47
X36.031 Y7.772
X36.693 Y8.098
X37.343 Y8.446
X37.981 Y8.817
X38.606 Y9.21
X39.217 Y9.624
X39.813 Y10.058
X40.394 Y10.513
X40.959 Y10.987
X41.508 Y11.48
X42.04 Y11.991
X42.555 Y12.52
X43.051 Y13.066
X43.529 Y13.628
X43.988 Y14.206
X44.427 Y14.798
X44.847 Y15.405
X45.245 Y16.026
X45.624 Y16.66
X45.981 Y17.305
X46.316 Y17.963
X46.628 Y18.631
X46.918 Y19.31
X47.185 Y19.997
X47.429 Y20.694
X47.529 Y21.015
X47.547 Y21.087
X47.559 Y21.161
X47.562 Y21.235
Y32.731
X47.532 Y33.347
X47.459 Y33.898
X47.308 Y34.606
X47.096 Y35.313
X46.843 Y36.006
X46.558 Y36.686
X46.245 Y37.355
X45.907 Y38.011
X45.547 Y38.654
X45.164 Y39.285
X44.76 Y39.903
X44.336 Y40.506
X43.892 Y41.095
X43.428 Y41.669
X42.945 Y42.228
X42.444 Y42.769
X41.925 Y43.293
X41.388 Y43.799
X40.835 Y44.288
X40.266 Y44.757
X39.681 Y45.207
X39.082 Y45.638
X38.469 Y46.048
X37.842 Y46.437
X37.202 Y46.804
X36.55 Y47.15
X35.887 Y47.473
X35.214 Y47.775
X35.068 Y47.834
X34.978 Y47.864
X34.884 Y47.883
X34.788 Y47.889
X30.648
G3 X30.471 Y47.316 I0.011 J-0.317
G1 X30.528 Y47.274 Z35.235
X30.582 Y47.234 Z35.258
X30.631 Y47.199 Z35.296
X30.671 Y47.169 Z35.346
X30.702 Y47.146 Z35.406
X30.721 Y47.133 Z35.474
X30.727 Y47.128 Z35.544
G0 Z43.227
X47.179 Y31.704
Z35.862
G1 Z35.544 F1016.
X47.183 Y31.711 Z35.474
X47.195 Y31.731 Z35.406
X47.214 Y31.764 Z35.346
X47.24 Y31.807 Z35.296
X47.271 Y31.859 Z35.258
X47.305 Y31.916 Z35.235
X47.341 Y31.977 Z35.227
G3 X47.562 Y32.731 I-1.36 J0.809
G1 Y36.082
X47.541 Y36.502
X47.498 Y36.829
X47.408 Y37.253
X47.252 Y37.773
X46.99 Y38.447
X46.668 Y39.11
X46.308 Y39.754
X45.919 Y40.382
X45.506 Y40.993
X45.072 Y41.59
X44.619 Y42.172
X44.146 Y42.738
X43.655 Y43.289
X43.147 Y43.825
X42.623 Y44.343
X42.082 Y44.845
X41.525 Y45.329
X40.954 Y45.796
X40.368 Y46.244
X39.768 Y46.674
X39.154 Y47.084
X38.528 Y47.474
X37.983 Y47.789
X37.865 Y47.844
X37.741 Y47.878
X37.612 Y47.889
X34.788
G3 X34.612 Y47.316 I0.011 J-0.317
G1 X34.669 Y47.274 Z35.235
X34.723 Y47.234 Z35.258
X34.771 Y47.199 Z35.296
X34.812 Y47.169 Z35.346
X34.842 Y47.146 Z35.406
X34.861 Y47.133 Z35.474
X34.868 Y47.128 Z35.544
G0 Z43.227
X47.179 Y35.056
Z35.862
G1 Z35.544 F1016.
X47.183 Y35.063 Z35.474
X47.195 Y35.083 Z35.406
X47.214 Y35.115 Z35.346
X47.24 Y35.159 Z35.296
X47.271 Y35.21 Z35.258
X47.305 Y35.268 Z35.235
X47.341 Y35.329 Z35.227
G3 X47.562 Y36.082 I-1.36 J0.809
G1 Y38.764
X47.551 Y38.997
X47.517 Y39.253
X47.448 Y39.576
X47.334 Y39.956
X47.145 Y40.442
X46.848 Y41.054
X46.474 Y41.689
X46.06 Y42.3
X45.618 Y42.891
X45.152 Y43.463
X44.667 Y44.019
X44.164 Y44.559
X43.644 Y45.082
X43.108 Y45.59
X42.558 Y46.081
X41.992 Y46.555
X41.413 Y47.012
X40.82 Y47.451
X40.38 Y47.756
X40.249 Y47.829
X40.107 Y47.874
X39.958 Y47.889
X37.612
G3 X37.409 Y47.337 I0.011 J-0.317
G1 X37.434 Y47.314
X46.985 Y38.583
X47.031 Y38.541
G3 X47.562 Y38.764 I0.214 J0.234
G1 Y40.942
X47.55 Y41.181
X47.52 Y41.41
X47.461 Y41.687
X47.369 Y41.995
X47.216 Y42.387
X46.991 Y42.851
X46.645 Y43.439
X46.221 Y44.043
X45.76 Y44.619
X45.273 Y45.174
X44.766 Y45.709
X44.24 Y46.227
X43.699 Y46.729
X43.143 Y47.214
X42.573 Y47.682
X42.506 Y47.734
X42.367 Y47.819
X42.214 Y47.871
X42.052 Y47.889
X39.958
G3 X39.755 Y47.337 I0.011 J-0.317
G1 X39.78 Y47.314
X46.984 Y40.761
X47.031 Y40.719
G3 X47.562 Y40.942 I0.214 J0.235
G1 Y42.953
X47.552 Y43.166
X47.523 Y43.384
X47.474 Y43.614
X47.39 Y43.894
X47.261 Y44.226
X47.07 Y44.619
X46.789 Y45.096
X46.365 Y45.7
X45.894 Y46.268
X45.392 Y46.808
X44.868 Y47.327
X44.471 Y47.693
X44.321 Y47.8
X44.151 Y47.866
X43.969 Y47.889
G3 X43.721 Y47.388 I0.011 J-0.317
G1 X43.78 Y47.305
X46.986 Y42.781
G3 X47.562 Y42.953 I0.259 J0.184
G1 Y44.797
X47.551 Y45.03
X47.526 Y45.217
X47.48 Y45.433
X47.401 Y45.697
X47.289 Y45.984
X47.118 Y46.337
X46.878 Y46.744
X46.52 Y47.254
X46.215 Y47.621
X46.054 Y47.766
X45.859 Y47.857
X45.645 Y47.889
G3 X45.381 Y47.413 I0.011 J-0.317
G1 X45.447 Y47.299
X46.97 Y44.65
G3 X47.245 Y44.49 I0.275 J0.158
X47.562 Y44.797 I0. J0.318
G1 Y46.64
X47.555 Y46.79
X47.529 Y46.972
X47.484 Y47.174
X47.427 Y47.359
X47.401 Y47.423
X47.29 Y47.613
X47.129 Y47.762
X46.93 Y47.856
X46.713 Y47.889
G3 X46.448 Y47.415 I0.011 J-0.317
G1 X46.514 Y47.298
X46.969 Y46.495
G3 X47.562 Y46.64 I0.276 J0.156
G1 Y47.562
X47.559 Y47.604
X47.55 Y47.646
X47.54 Y47.675
X47.526 Y47.704
X47.509 Y47.733
X47.487 Y47.762
X47.436 Y47.813
X47.407 Y47.835
X47.378 Y47.853
X47.348 Y47.866
X47.319 Y47.876
X47.277 Y47.885
X47.235 Y47.889
X42.052
G3 X41.876 Y47.316 I0.011 J-0.317
G1 X41.933 Y47.274 Z35.235
X41.987 Y47.234 Z35.258
X42.035 Y47.199 Z35.296
X42.076 Y47.169 Z35.346
X42.106 Y47.146 Z35.406
X42.125 Y47.133 Z35.474
X42.132 Y47.128 Z35.544
G0 Z43.227
X29.702 Y6.728
Z35.862
G1 Z35.544 F1016.
X29.709 Y6.723 Z35.474
X29.729 Y6.711 Z35.406
X29.761 Y6.692 Z35.346
X29.804 Y6.666 Z35.296
X29.856 Y6.636 Z35.258
X29.914 Y6.601 Z35.235
X29.975 Y6.565 Z35.227
G3 X30.728 Y6.344 I0.809 J1.36
G1 X34.583
X34.931 Y6.361
X35.302 Y6.41
X35.77 Y6.51
X36.355 Y6.685
X37.042 Y6.953
X37.709 Y7.269
X38.359 Y7.619
X38.993 Y7.996
X39.613 Y8.396
X40.218 Y8.818
X40.808 Y9.261
X41.384 Y9.722
X41.945 Y10.202
X42.489 Y10.7
X43.018 Y11.214
X43.53 Y11.745
X44.025 Y12.293
X44.502 Y12.855
X44.961 Y13.433
X45.402 Y14.025
X45.823 Y14.631
X46.225 Y15.249
X46.607 Y15.88
X46.969 Y16.523
X47.311 Y17.177
X47.489 Y17.546
X47.529 Y17.649
X47.554 Y17.757
X47.562 Y17.868
Y21.235
G3 X46.989 Y21.412 I-0.317 J-0.011
G1 X46.947 Y21.355 Z35.235
X46.908 Y21.301 Z35.258
X46.872 Y21.252 Z35.296
X46.842 Y21.212 Z35.346
X46.82 Y21.181 Z35.406
X46.806 Y21.162 Z35.474
X46.801 Y21.156 Z35.544
G0 Z43.227
X33.556 Y6.728
Z35.862
G1 Z35.544 F1016.
X33.563 Y6.723 Z35.474
X33.583 Y6.711 Z35.406
X33.616 Y6.692 Z35.346
X33.659 Y6.666 Z35.296
X33.711 Y6.636 Z35.258
X33.768 Y6.601 Z35.235
X33.829 Y6.565 Z35.227
G3 X34.583 Y6.344 I0.809 J1.36
G1 X37.264
X37.574 Y6.36
X37.844 Y6.395
X38.189 Y6.469
X38.593 Y6.59
X39.114 Y6.793
X39.778 Y7.115
X40.414 Y7.489
X41.027 Y7.898
X41.623 Y8.335
X42.201 Y8.793
X42.763 Y9.27
X43.31 Y9.766
X43.84 Y10.279
X44.355 Y10.808
X44.853 Y11.352
X45.334 Y11.911
X45.798 Y12.485
X46.244 Y13.072
X46.673 Y13.673
X47.083 Y14.286
X47.449 Y14.87
X47.511 Y14.993
X47.549 Y15.126
X47.562 Y15.263
Y17.868
G3 X47.009 Y18.068 I-0.317 J-0.011
G1 X46.988 Y18.045
X36.538 Y6.386
G2 X36.363 Y6.543 I-0.088 J0.078
X36.51 Y6.565 I0.088 J-0.078
G3 X37.264 Y6.344 I0.809 J1.36
G1 X39.61
X39.821 Y6.355
X40.054 Y6.385
X40.344 Y6.447
X40.666 Y6.544
X41.08 Y6.705
X41.573 Y6.944
X42.208 Y7.318
X42.812 Y7.742
X43.391 Y8.199
X43.95 Y8.681
X44.49 Y9.184
X45.014 Y9.704
X45.521 Y10.24
X46.011 Y10.791
X46.486 Y11.356
X46.944 Y11.934
X47.384 Y12.526
X47.428 Y12.588
X47.502 Y12.72
X47.547 Y12.864
X47.562 Y13.014
Y15.263
G3 X47.008 Y15.463 I-0.317 J-0.011
G1 X46.988 Y15.441
X39.429 Y6.922
X39.384 Y6.872
G3 X39.61 Y6.344 I0.237 J-0.211
G1 X41.621
X41.857 Y6.356
X42.075 Y6.384
X42.32 Y6.437
X42.604 Y6.522
X42.952 Y6.657
X43.359 Y6.855
X43.862 Y7.151
X44.466 Y7.575
X45.036 Y8.043
X45.581 Y8.541
X46.105 Y9.061
X46.61 Y9.599
X47.098 Y10.152
X47.391 Y10.506
X47.485 Y10.649
X47.543 Y10.809
X47.562 Y10.979
G3 X47.052 Y11.22 I-0.317 J-0.011
G1 X46.98 Y11.165
X41.445 Y6.917
X41.439 Y6.913
G3 X41.621 Y6.344 I0.193 J-0.252
G1 X43.557
X43.744 Y6.353
X43.942 Y6.379
X44.16 Y6.426
X44.429 Y6.506
X44.728 Y6.623
X45.091 Y6.799
X45.515 Y7.049
X46.05 Y7.424
X46.617 Y7.896
X47.153 Y8.403
X47.356 Y8.615
X47.468 Y8.766
X47.538 Y8.941
X47.562 Y9.128
G3 X47.069 Y9.381 I-0.317 J-0.011
G1 X46.977 Y9.319
X43.392 Y6.925
G3 X43.557 Y6.344 I0.176 J-0.264
G1 X45.308
X45.528 Y6.355
X45.705 Y6.378
X45.92 Y6.424
X46.171 Y6.499
X46.439 Y6.604
X46.776 Y6.767
X47.13 Y6.975
X47.247 Y7.058
X47.379 Y7.177
X47.479 Y7.323
X47.541 Y7.489
X47.562 Y7.664
G3 X47.1 Y7.935 I-0.317 J-0.011
G1 X46.969 Y7.868
X45.174 Y6.944
G3 X45.308 Y6.344 I0.145 J-0.282
G1 X46.984
X47.012
X47.054
X47.204 Y6.351
X47.347 Y6.414
X47.462 Y6.52
X47.537 Y6.658
X47.562 Y6.812
G3 X47.424 Y7.149 I-0.524 J-0.018
X46.718 Y6.498 I-0.353 J-0.325
X47.054 Y6.344 I0.353 J0.325
G1 X47.235
X47.277 Y6.347
X47.319 Y6.357
X47.348 Y6.367
X47.378 Y6.38
X47.407 Y6.397
X47.436 Y6.419
X47.487 Y6.47
X47.509 Y6.5
X47.526 Y6.529
X47.54 Y6.558
X47.55 Y6.587
X47.559 Y6.629
X47.562 Y6.671
Y13.014
G3 X46.989 Y13.19 I-0.317 J-0.011
G1 X46.947 Y13.133 Z35.235
X46.908 Y13.079 Z35.258
X46.872 Y13.031 Z35.296
X46.842 Y12.99 Z35.346
X46.82 Y12.96 Z35.406
X46.806 Y12.941 Z35.474
X46.801 Y12.934 Z35.544
G0 Z43.227
X24.548 Y47.505
Z35.862
G1 Z35.544 F1016.
X24.542 Y47.509 Z35.474
X24.521 Y47.521 Z35.406
X24.489 Y47.541 Z35.346
X24.446 Y47.566 Z35.296
X24.394 Y47.597 Z35.258
X24.336 Y47.632 Z35.235
X24.275 Y47.668 Z35.227
G3 X23.522 Y47.889 I-0.809 J-1.36
G1 X19.332
X18.998 Y47.872
X18.601 Y47.82
X18.096 Y47.712
X17.463 Y47.522
X16.775 Y47.255
X16.107 Y46.943
X15.454 Y46.599
X14.816 Y46.228
X14.193 Y45.833
X13.584 Y45.417
X12.99 Y44.979
X12.41 Y44.522
X11.846 Y44.046
X11.299 Y43.552
X10.768 Y43.04
X10.254 Y42.511
X9.757 Y41.965
X9.279 Y41.403
X8.819 Y40.826
X8.378 Y40.235
X7.957 Y39.629
X7.556 Y39.01
X7.176 Y38.377
X6.816 Y37.733
X6.478 Y37.077
X6.162 Y36.41
X6.079 Y36.218
X6.045 Y36.123
X6.024 Y36.024
X6.017 Y35.923
Y32.145
G3 X6.591 Y31.968 I0.317 J0.011
G1 X6.632 Y32.025 Z35.235
X6.672 Y32.079 Z35.258
X6.708 Y32.128 Z35.296
X6.737 Y32.168 Z35.346
X6.76 Y32.199 Z35.406
X6.774 Y32.218 Z35.474
X6.778 Y32.224 Z35.544
G0 Z43.227
X20.359 Y47.505
Z35.862
G1 Z35.544 F1016.
X20.352 Y47.509 Z35.474
X20.332 Y47.521 Z35.406
X20.299 Y47.541 Z35.346
X20.256 Y47.566 Z35.296
X20.204 Y47.597 Z35.258
X20.147 Y47.632 Z35.235
X20.086 Y47.668 Z35.227
G3 X19.332 Y47.889 I-0.809 J-1.36
G1 X16.651
X16.258 Y47.869
X15.98 Y47.833
X15.624 Y47.757
X15.206 Y47.631
X14.665 Y47.421
X14.002 Y47.099
X13.364 Y46.727
X12.749 Y46.32
X12.151 Y45.888
X11.57 Y45.432
X11.006 Y44.958
X10.457 Y44.464
X9.925 Y43.954
X9.409 Y43.426
X8.91 Y42.882
X8.428 Y42.324
X7.964 Y41.75
X7.517 Y41.163
X7.09 Y40.562
X6.681 Y39.947
X6.292 Y39.321
X6.117 Y39.019
X6.062 Y38.902
X6.029 Y38.777
X6.017 Y38.648
Y35.923
G3 X6.591 Y35.746 I0.317 J0.011
G1 X6.632 Y35.803 Z35.235
X6.672 Y35.857 Z35.258
X6.708 Y35.906 Z35.296
X6.737 Y35.946 Z35.346
X6.76 Y35.977 Z35.406
X6.774 Y35.996 Z35.474
X6.778 Y36.002 Z35.544
G0 Z43.227
X17.677 Y47.505
Z35.862
G1 Z35.544 F1016.
X17.67 Y47.509 Z35.474
X17.65 Y47.521 Z35.406
X17.618 Y47.541 Z35.346
X17.575 Y47.566 Z35.296
X17.523 Y47.597 Z35.258
X17.465 Y47.632 Z35.235
X17.404 Y47.668 Z35.227
G3 X16.651 Y47.889 I-0.809 J-1.36
G1 X14.305
X13.972 Y47.872
X13.736 Y47.841
X13.442 Y47.778
X13.113 Y47.68
X12.691 Y47.516
X12.186 Y47.27
X11.55 Y46.896
X10.945 Y46.473
X10.365 Y46.017
X9.805 Y45.537
X9.264 Y45.036
X8.739 Y44.517
X8.231 Y43.982
X7.74 Y43.431
X7.266 Y42.866
X6.808 Y42.287
X6.369 Y41.695
X6.151 Y41.382
X6.078 Y41.251
X6.033 Y41.108
X6.017 Y40.958
Y38.648
G3 X6.571 Y38.448 I0.317 J0.011
G1 X6.592 Y38.47
X14.486 Y47.311
X14.53 Y47.36
G3 X14.305 Y47.889 I-0.237 J0.211
G1 X12.126
X11.93 Y47.879
X11.711 Y47.85
X11.461 Y47.797
X11.174 Y47.711
X10.82 Y47.573
X10.408 Y47.374
X9.897 Y47.072
X9.293 Y46.648
X8.722 Y46.181
X8.177 Y45.684
X7.652 Y45.165
X7.146 Y44.627
X6.658 Y44.074
X6.187 Y43.507
X6.175 Y43.491
X6.089 Y43.352
X6.035 Y43.197
X6.017 Y43.035
G3 X6.53 Y42.796 I0.317 J0.011
G1 X6.599 Y42.849
X12.303 Y47.316
X12.311 Y47.322
G3 X12.126 Y47.889 I-0.196 J0.25
G1 X10.283
X10.023 Y47.876
X9.824 Y47.85
X9.605 Y47.803
X9.336 Y47.722
X9.035 Y47.605
X8.669 Y47.428
X8.242 Y47.176
X7.704 Y46.799
X7.137 Y46.327
X6.601 Y45.82
X6.224 Y45.427
X6.112 Y45.275
X6.041 Y45.101
X6.017 Y44.914
G3 X6.512 Y44.661 I0.317 J0.011
G1 X6.603 Y44.723
X10.449 Y47.308
G3 X10.283 Y47.889 I-0.177 J0.263
G1 X8.439
X8.24 Y47.879
X8.062 Y47.856
X7.847 Y47.81
X7.594 Y47.734
X7.325 Y47.629
X6.987 Y47.465
X6.617 Y47.247
X6.332 Y47.047
X6.201 Y46.929
X6.101 Y46.783
X6.039 Y46.617
X6.017 Y46.441
G3 X6.484 Y46.172 I0.317 J0.011
G1 X6.609 Y46.239
X8.578 Y47.292
G3 X8.439 Y47.889 I-0.15 J0.28
G1 X6.763
X6.607 Y47.881
X6.419 Y47.828
X6.255 Y47.725
X6.127 Y47.579
X6.045 Y47.402
X6.017 Y47.209
G3 X6.539 Y46.978 I0.317 J0.011
G1 X6.597 Y47.026
X6.94 Y47.315
X6.956 Y47.329
G3 X6.763 Y47.889 I-0.204 J0.243
G1 X6.344
X6.302 Y47.885
X6.26 Y47.876
X6.231 Y47.866
X6.202 Y47.853
X6.173 Y47.835
X6.144 Y47.813
X6.093 Y47.762
X6.071 Y47.733
X6.054 Y47.704
X6.04 Y47.675
X6.03 Y47.646
X6.021 Y47.604
X6.017 Y47.562
Y40.958
G3 X6.591 Y40.782 I0.317 J0.011
G1 X6.632 Y40.839 Z35.235
X6.672 Y40.893 Z35.258
X6.708 Y40.941 Z35.296
X6.737 Y40.982 Z35.346
X6.76 Y41.012 Z35.406
X6.774 Y41.031 Z35.474
X6.778 Y41.038 Z35.544
G0 Z43.227
X6.401 Y24.205
Z35.862
G1 Z35.544 F1016.
X6.397 Y24.198 Z35.474
X6.385 Y24.178 Z35.406
X6.366 Y24.145 Z35.346
X6.34 Y24.102 Z35.296
X6.309 Y24.05 Z35.258
X6.275 Y23.992 Z35.235
X6.239 Y23.932 Z35.227
G3 X6.017 Y23.178 I1.36 J-0.809
G1 Y19.491
X6.042 Y19.006
X6.09 Y18.638
X6.187 Y18.183
X6.364 Y17.594
X6.632 Y16.906
X6.948 Y16.24
X7.299 Y15.59
X7.677 Y14.957
X8.079 Y14.338
X8.502 Y13.734
X8.946 Y13.145
X9.41 Y12.571
X9.892 Y12.012
X10.392 Y11.47
X10.91 Y10.944
X11.444 Y10.435
X11.994 Y9.944
X12.56 Y9.471
X13.142 Y9.017
X13.738 Y8.582
X14.348 Y8.167
X14.972 Y7.773
X15.608 Y7.398
X16.255 Y7.045
X16.914 Y6.713
X17.559 Y6.413
X17.659 Y6.375
X17.764 Y6.352
X17.871 Y6.344
X21.627
G3 X21.804 Y6.917 I-0.011 J0.317
G1 X21.747 Y6.959 Z35.235
X21.693 Y6.999 Z35.258
X21.645 Y7.034 Z35.296
X21.604 Y7.064 Z35.346
X21.574 Y7.086 Z35.406
X21.555 Y7.1 Z35.474
X21.548 Y7.105 Z35.544
G0 Z43.227
X6.401 Y20.518
Z35.862
G1 Z35.544 F1016.
X6.397 Y20.511 Z35.474
X6.385 Y20.491 Z35.406
X6.366 Y20.458 Z35.346
X6.34 Y20.415 Z35.296
X6.309 Y20.363 Z35.258
X6.275 Y20.306 Z35.235
X6.239 Y20.245 Z35.227
G3 X6.017 Y19.491 I1.36 J-0.809
G1 Y16.642
X6.03 Y16.391
X6.065 Y16.122
X6.138 Y15.779
X6.26 Y15.375
X6.462 Y14.855
X6.782 Y14.196
X7.156 Y13.561
X7.566 Y12.947
X8.003 Y12.353
X8.463 Y11.775
X8.942 Y11.215
X9.44 Y10.67
X9.955 Y10.141
X10.486 Y9.629
X11.033 Y9.134
X11.595 Y8.656
X12.172 Y8.196
X12.762 Y7.754
X13.367 Y7.331
X13.984 Y6.926
X14.613 Y6.541
X14.786 Y6.442
X14.903 Y6.388
X15.026 Y6.355
X15.154 Y6.344
X17.871
G3 X18.069 Y6.901 I-0.011 J0.317
G1 X18.048 Y6.918
X6.06 Y17.367
G2 X6.215 Y17.544 I0.077 J0.089
X6.239 Y17.396 I-0.077 J-0.089
G3 X6.017 Y16.642 I1.36 J-0.809
G1 Y14.296
X6.025 Y14.146
X6.056 Y13.913
X6.118 Y13.624
X6.214 Y13.303
X6.375 Y12.891
X6.613 Y12.402
X6.984 Y11.774
X7.408 Y11.17
X7.867 Y10.592
X8.35 Y10.035
X8.854 Y9.496
X9.376 Y8.975
X9.914 Y8.47
X10.468 Y7.982
X11.036 Y7.511
X11.617 Y7.057
X12.212 Y6.62
X12.423 Y6.475
X12.553 Y6.403
X12.695 Y6.359
X12.843 Y6.344
X15.154
G3 X15.35 Y6.901 I-0.011 J0.317
G1 X15.331 Y6.918
X6.596 Y14.478
X6.542 Y14.525
G3 X6.017 Y14.296 I-0.208 J-0.24
G1 Y12.285
X6.026 Y12.12
X6.054 Y11.902
X6.106 Y11.659
X6.191 Y11.376
X6.325 Y11.031
X6.521 Y10.629
X6.813 Y10.131
X7.238 Y9.527
X7.706 Y8.958
X8.205 Y8.414
X8.727 Y7.892
X9.266 Y7.389
X9.822 Y6.904
X10.298 Y6.512
X10.441 Y6.42
X10.6 Y6.363
X10.769 Y6.344
G3 X11.007 Y6.858 I-0.011 J0.317
G1 X10.954 Y6.925
X6.591 Y12.462
X6.584 Y12.47
G3 X6.017 Y12.285 I-0.249 J-0.197
G1 Y10.442
X6.028 Y10.232
X6.053 Y10.038
X6.1 Y9.82
X6.18 Y9.553
X6.295 Y9.257
X6.47 Y8.898
X6.716 Y8.479
X7.085 Y7.954
X7.556 Y7.386
X8.065 Y6.851
X8.382 Y6.549
X8.533 Y6.437
X8.707 Y6.368
X8.893 Y6.344
G3 X9.145 Y6.839 I-0.011 J0.317
G1 X9.084 Y6.929
X6.598 Y10.608
G3 X6.017 Y10.442 I-0.263 J-0.178
G1 Y8.598
X6.025 Y8.448
X6.05 Y8.267
X6.099 Y8.047
X6.176 Y7.798
X6.286 Y7.524
X6.454 Y7.186
X6.678 Y6.814
X6.792 Y6.653
X6.956 Y6.487
X7.164 Y6.381
X7.395 Y6.344
G3 X7.662 Y6.813 I-0.011 J0.317
G1 X7.596 Y6.936
X6.613 Y8.739
G3 X6.017 Y8.598 I-0.279 J-0.152
G1 Y6.998
X6.025 Y6.848
X6.093 Y6.65
X6.225 Y6.487
X6.406 Y6.381
X6.612 Y6.344
G3 X6.847 Y6.862 I-0.011 J0.317
G1 X6.796 Y6.924
X6.591 Y7.175
X6.58 Y7.188
G3 X6.017 Y6.998 I-0.246 J-0.201
G1 Y6.671
X6.021 Y6.629
X6.03 Y6.587
X6.04 Y6.558
X6.054 Y6.529
X6.071 Y6.5
X6.093 Y6.47
X6.144 Y6.419
X6.173 Y6.397
X6.202 Y6.38
X6.231 Y6.367
X6.26 Y6.357
X6.302 Y6.347
X6.344 Y6.344
X12.843
G3 X13.149 Y6.642 I-0.011 J0.317
G1 X13.15 Y6.661
X13.136 Y6.715 Z35.236
X13.123 Y6.766 Z35.254
X13.111 Y6.813 Z35.281
X13.08 Y6.849 Z35.321
X13.054 Y6.878 Z35.369
X13.036 Y6.899 Z35.423
X13.024 Y6.913 Z35.482
X13.02 Y6.917 Z35.544
G0 Z43.227
X28.073 Y26.324
Z37.727
G3 X25.507 Y27.91 Z37.561 I-1.283 J0.793 F1016.
X28.073 Y26.324 Z37.396 I1.283 J-0.793
X25.507 Y27.91 Z37.23 I-1.283 J0.793
X28.073 Y26.324 Z37.065 I1.283 J-0.793
X25.507 Y27.91 Z36.899 I-1.283 J0.793
X28.073 Y26.324 Z36.734 I1.283 J-0.793
X25.507 Y27.91 Z36.569 I-1.283 J0.793
X28.073 Y26.324 Z36.403 I1.283 J-0.793
X25.507 Y27.91 Z36.238 I-1.283 J0.793
X28.073 Y26.324 Z36.072 I1.283 J-0.793
X25.507 Y27.91 Z35.907 I-1.283 J0.793
X28.073 Y26.324 Z35.741 I1.283 J-0.793
X25.507 Y27.91 Z35.576 I-1.283 J0.793
X28.073 Y26.324 Z35.41 I1.283 J-0.793
X25.507 Y27.91 Z35.245 I-1.283 J0.793
X28.073 Y26.324 Z35.079 I1.283 J-0.793
X25.507 Y27.91 Z34.914 I-1.283 J0.793
X28.073 Y26.324 Z34.749 I1.283 J-0.793
X25.507 Y27.91 Z34.583 I-1.283 J0.793
X28.073 Y26.324 Z34.418 I1.283 J-0.793
X25.507 Y27.91 Z34.252 I-1.283 J0.793
X28.073 Y26.324 Z34.087 I1.283 J-0.793
X25.507 Y27.91 Z33.921 I-1.283 J0.793
X28.073 Y26.324 Z33.756 I1.283 J-0.793
X28.298 Y27.117 Z33.727 I-1.283 J0.793
X25.282 I-1.508 J0.
X28.298 I1.508 J0.
G1 X28.317 Y27.854
X28.339 Y27.944
X28.355 Y28.093
X28.342 Y28.242
X28.306 Y28.388
X28.252 Y28.528
X28.18 Y28.66
X28.094 Y28.783
X27.996 Y28.896
X27.887 Y28.999
X27.77 Y29.092
X27.644 Y29.174
X27.512 Y29.245
X27.373 Y29.306
X27.227 Y29.356
X27.073 Y29.395
X26.913 Y29.423
X26.748 Y29.438
X26.579 Y29.439
X26.408 Y29.427
X26.236 Y29.401
X26.065 Y29.361
X25.895 Y29.306
X25.729 Y29.237
X25.567 Y29.154
X25.412 Y29.058
X25.263 Y28.949
X25.123 Y28.828
X24.992 Y28.695
X24.872 Y28.551
X24.763 Y28.397
X24.667 Y28.235
X24.583 Y28.065
X24.514 Y27.888
X24.458 Y27.705
X24.418 Y27.519
X24.392 Y27.329
X24.382 Y27.138
X24.387 Y26.946
X24.407 Y26.754
X24.443 Y26.565
X24.494 Y26.38
X24.56 Y26.198
X24.64 Y26.023
X24.734 Y25.854
X24.842 Y25.693
X24.962 Y25.542
X25.093 Y25.4
X25.236 Y25.27
X25.389 Y25.151
X25.551 Y25.045
X25.721 Y24.952
X25.898 Y24.873
X26.08 Y24.809
X26.268 Y24.759
X26.458 Y24.725
X26.651 Y24.706
X26.845 Y24.703
X27.039 Y24.715
X27.23 Y24.742
X27.42 Y24.785
X27.605 Y24.843
X27.784 Y24.916
X27.958 Y25.003
X28.124 Y25.103
X28.281 Y25.217
X28.428 Y25.343
X28.565 Y25.48
X28.691 Y25.628
X28.804 Y25.785
X28.909 Y25.958
X29.02 Y26.18
X29.167 Y26.545
X29.274 Y26.888
X29.338 Y27.17
X29.375 Y27.426
X29.39 Y27.663
X29.385 Y27.886
X29.364 Y28.099
X29.327 Y28.306
X29.273 Y28.509
X29.203 Y28.706
X29.118 Y28.896
X29.018 Y29.079
X28.903 Y29.254
X28.774 Y29.42
